; generated by Slic3r 1.3.0 on 2020-04-29 at 12:27:58

; external perimeters extrusion width = 0.40mm (4.28mm^3/s)
; perimeters extrusion width = 0.40mm (4.28mm^3/s)
; infill extrusion width = 0.40mm (5.71mm^3/s)
; solid infill extrusion width = 0.40mm (5.71mm^3/s)
; top infill extrusion width = 0.40mm (5.71mm^3/s)

M107
M83
T0
M116
; Filament gcode

G21 ; set units to millimeters
G90 ; use absolute coordinates
M83 ; use relative distances for extrusion
G1 E-3.50000 F1500.00000
G1 Z0.400 F15000.000
G1 X4.800 Y-17.686 F15000.000
G1 Z0.300 F15000.000
G1 E3.50000 F1500.00000
G1 F960
G1 X6.228 Y-17.393 E0.11235
G1 X18.654 Y-12.085 E1.04128
G1 X19.796 Y-11.313 E0.10629
G1 X22.371 Y-8.738 E0.28061
G1 X23.256 Y-7.294 E0.13052
G1 X23.436 Y-6.167 E0.08796
G1 X23.436 Y11.379 E1.35223
G1 X23.041 Y13.026 E0.13052
G1 X22.371 Y13.950 E0.08796
G1 X19.550 Y16.771 E0.30742
G1 X18.106 Y17.656 E0.13052
G1 X16.979 Y17.836 E0.08796
G1 X13.021 Y17.836 E0.30507
G1 X12.299 Y17.763 E0.05592
G1 X-20.522 Y11.113 E2.58074
G1 X-22.058 Y10.399 E0.13052
G1 X-23.104 Y9.067 E0.13052
G1 X-23.436 Y7.550 E0.11970
G1 X-23.436 Y-6.167 E1.05712
G1 X-23.041 Y-7.814 E0.13052
G1 X-22.371 Y-8.738 E0.08796
G1 X-19.796 Y-11.313 E0.28061
G1 X-18.654 Y-12.085 E0.10629
G1 X-6.228 Y-17.393 E1.04128
G1 X-4.800 Y-17.686 E0.11235
G1 X4.740 Y-17.686 E0.73520
G1 E-3.50000 F1500.00000
G1 Z0.700 F15000.000
G1 X14.107 Y8.846 F15000.000
G1 Z0.300 F15000.000
G1 E3.50000 F1500.00000
G1 F600
G1 X14.636 Y8.682 E0.04269
G1 X15.132 Y8.651 E0.03830
G1 X15.650 Y8.750 E0.04063
G1 X16.127 Y8.974 E0.04063
G1 X16.533 Y9.310 E0.04063
G1 X16.843 Y9.737 E0.04063
G1 X17.037 Y10.227 E0.04063
G1 X17.103 Y10.750 E0.04063
G1 X17.037 Y11.273 E0.04063
G1 X16.843 Y11.763 E0.04063
G1 X16.533 Y12.190 E0.04063
G1 X16.127 Y12.526 E0.04063
G1 X15.650 Y12.750 E0.04063
G1 X15.132 Y12.849 E0.04063
G1 X14.606 Y12.816 E0.04063
G1 X14.105 Y12.653 E0.04063
G1 X13.659 Y12.371 E0.04063
G1 X13.298 Y11.986 E0.04063
G1 X13.059 Y11.551 E0.03830
G1 X12.913 Y11.016 E0.04270
G1 X12.913 Y10.486 E0.04083
G1 X13.045 Y9.976 E0.04063
G1 X13.298 Y9.514 E0.04063
G1 X13.659 Y9.129 E0.04063
G1 X14.056 Y8.878 E0.03621
G1 X14.107 Y8.846 F15000.000
G1 E-3.50000 F1500.00000
G1 Z0.700 F15000.000
G1 X-4.752 Y1.486 F15000.000
G1 Z0.300 F15000.000
G1 E3.50000 F1500.00000
G1 F600
G1 X-5.037 Y2.172 E0.05723
G1 X-5.489 Y2.761 E0.05723
G1 X-6.078 Y3.213 E0.05723
G1 X-6.764 Y3.498 E0.05723
G1 X-7.500 Y3.595 E0.05723
G1 X-8.236 Y3.498 E0.05723
G1 X-8.922 Y3.213 E0.05723
G1 X-9.511 Y2.761 E0.05723
G1 X-9.963 Y2.172 E0.05723
G1 X-10.248 Y1.486 E0.05723
G1 X-10.345 Y0.750 E0.05723
G1 X-10.248 Y0.014 E0.05723
G1 X-9.963 Y-0.672 E0.05723
G1 X-9.511 Y-1.261 E0.05723
G1 X-8.922 Y-1.713 E0.05723
G1 X-8.236 Y-1.998 E0.05723
G1 X-7.888 Y-2.044 E0.02710
G1 X-7.500 Y-2.095 E0.03012
G1 X-6.764 Y-1.998 E0.05723
G1 X-6.078 Y-1.713 E0.05723
G1 X-5.489 Y-1.261 E0.05723
G1 X-5.037 Y-0.672 E0.05723
G1 X-4.752 Y0.014 E0.05723
G1 X-4.655 Y0.750 E0.05723
G1 X-4.745 Y1.427 E0.05260
G1 X-5.372 Y1.320 F15000.000
G1 F600
G1 X-5.592 Y1.852 E0.04433
G1 X-5.942 Y2.308 E0.04433
G1 X-6.398 Y2.658 E0.04433
G1 X-6.930 Y2.878 E0.04433
G1 X-7.500 Y2.953 E0.04433
G1 X-8.070 Y2.878 E0.04433
G1 X-8.602 Y2.658 E0.04433
G1 X-9.058 Y2.308 E0.04433
G1 X-9.408 Y1.852 E0.04433
G1 X-9.628 Y1.320 E0.04433
G1 X-9.703 Y0.750 E0.04433
G1 X-9.628 Y0.180 E0.04433
G1 X-9.408 Y-0.352 E0.04433
G1 X-9.058 Y-0.808 E0.04433
G1 X-8.602 Y-1.158 E0.04433
G1 X-8.070 Y-1.378 E0.04433
G1 X-7.500 Y-1.453 E0.04433
G1 X-6.930 Y-1.378 E0.04433
G1 X-6.398 Y-1.158 E0.04433
G1 X-5.942 Y-0.808 E0.04433
G1 X-5.592 Y-0.352 E0.04433
G1 X-5.372 Y0.180 E0.04433
G1 X-5.297 Y0.750 E0.04433
G1 X-5.364 Y1.261 E0.03971
G1 X-5.372 Y1.320 F15000.000
G1 E-3.50000 F1500.00000
G1 Z0.700 F15000.000
G1 X4.655 Y0.750 F15000.000
G1 Z0.300 F15000.000
G1 E3.50000 F1500.00000
G1 F600
G1 X4.752 Y0.014 E0.05723
G1 X5.037 Y-0.672 E0.05723
G1 X5.489 Y-1.261 E0.05723
G1 X6.078 Y-1.713 E0.05723
G1 X6.764 Y-1.998 E0.05723
G1 X7.500 Y-2.095 E0.05723
G1 X8.236 Y-1.998 E0.05723
G1 X8.922 Y-1.713 E0.05723
G1 X9.511 Y-1.261 E0.05723
G1 X9.963 Y-0.672 E0.05723
G1 X10.248 Y0.014 E0.05723
G1 X10.345 Y0.750 E0.05723
G1 X10.248 Y1.486 E0.05723
G1 X9.963 Y2.172 E0.05723
G1 X9.511 Y2.761 E0.05723
G1 X8.922 Y3.213 E0.05723
G1 X8.236 Y3.498 E0.05723
G1 X7.500 Y3.595 E0.05723
G1 X6.764 Y3.498 E0.05723
G1 X6.078 Y3.213 E0.05723
G1 X5.489 Y2.761 E0.05723
G1 X5.037 Y2.172 E0.05723
G1 X4.752 Y1.486 E0.05723
G1 X4.663 Y0.809 E0.05260
G1 X5.297 Y0.750 F15000.000
G1 F600
G1 X5.372 Y0.180 E0.04433
G1 X5.592 Y-0.352 E0.04433
G1 X5.942 Y-0.808 E0.04433
G1 X6.398 Y-1.158 E0.04433
G1 X6.930 Y-1.378 E0.04433
G1 X7.500 Y-1.453 E0.04433
G1 X8.070 Y-1.378 E0.04433
G1 X8.602 Y-1.158 E0.04433
G1 X9.058 Y-0.808 E0.04433
G1 X9.408 Y-0.352 E0.04433
G1 X9.628 Y0.180 E0.04433
G1 X9.703 Y0.750 E0.04433
G1 X9.628 Y1.320 E0.04433
G1 X9.408 Y1.852 E0.04433
G1 X9.058 Y2.308 E0.04433
G1 X8.602 Y2.658 E0.04433
G1 X8.070 Y2.878 E0.04433
G1 X7.500 Y2.953 E0.04433
G1 X6.930 Y2.878 E0.04433
G1 X6.398 Y2.658 E0.04433
G1 X5.942 Y2.308 E0.04433
G1 X5.592 Y1.852 E0.04433
G1 X5.372 Y1.320 E0.04433
G1 X5.304 Y0.809 E0.03971
G1 X5.297 Y0.750 F15000.000
G1 E-3.50000 F1500.00000
G1 Z0.700 F15000.000
G1 X-18.814 Y0.764 F15000.000
G1 Z0.300 F15000.000
G1 E3.50000 F1500.00000
G1 F720
G1 X-18.814 Y-5.759 E0.50269
G1 X-17.055 Y-7.518 E0.19170
G1 X-16.936 Y-7.468 E0.00995
G1 X-16.549 Y-7.369 E0.03077
G1 X-16.190 Y-7.322 E0.02791
G1 X-15.791 Y-7.324 E0.03077
G1 X-15.432 Y-7.371 E0.02791
G1 X-15.047 Y-7.475 E0.03077
G1 X-14.712 Y-7.614 E0.02791
G1 X-14.366 Y-7.813 E0.03077
G1 X-14.079 Y-8.033 E0.02791
G1 X-13.795 Y-8.314 E0.03077
G1 X-13.574 Y-8.601 E0.02791
G1 X-13.371 Y-8.945 E0.03077
G1 X-13.322 Y-9.064 E0.00995
G1 X-7.932 Y-9.064 E0.41536
G1 X-6.914 Y-9.198 E0.07911
G1 X-5.903 Y-9.617 E0.08439
G1 X-5.034 Y-10.284 E0.08439
G1 X-4.367 Y-11.153 E0.08439
G1 X-3.948 Y-12.164 E0.08439
G1 X-3.830 Y-13.064 E0.06996
G1 X3.830 Y-13.064 E0.59030
G1 X3.948 Y-12.164 E0.06996
G1 X4.367 Y-11.153 E0.08439
G1 X5.034 Y-10.284 E0.08439
G1 X5.903 Y-9.617 E0.08439
G1 X6.914 Y-9.198 E0.08439
G1 X7.932 Y-9.064 E0.07911
G1 X13.322 Y-9.064 E0.41536
G1 X13.371 Y-8.945 E0.00995
G1 X13.574 Y-8.601 E0.03077
G1 X13.795 Y-8.314 E0.02791
G1 X14.079 Y-8.033 E0.03077
G1 X14.366 Y-7.813 E0.02791
G1 X14.712 Y-7.614 E0.03077
G1 X15.047 Y-7.475 E0.02791
G1 X15.432 Y-7.371 E0.03077
G1 X15.791 Y-7.324 E0.02791
G1 X16.190 Y-7.322 E0.03077
G1 X16.549 Y-7.369 E0.02791
G1 X16.936 Y-7.468 E0.03077
G1 X17.055 Y-7.518 E0.00995
G1 X18.814 Y-5.759 E0.19170
G1 X18.814 Y10.971 E1.28930
G1 X17.743 Y12.042 E0.11675
G1 X17.484 Y11.872 E0.02393
G1 X17.658 Y11.432 E0.03642
G1 X17.744 Y10.750 E0.05300
G1 X17.658 Y10.068 E0.05300
G1 X17.404 Y9.428 E0.05301
G1 X17.000 Y8.872 E0.05301
G1 X16.470 Y8.433 E0.05301
G1 X15.848 Y8.140 E0.05300
G1 X15.172 Y8.012 E0.05300
G1 X14.521 Y8.053 E0.05031
G1 X13.838 Y8.263 E0.05507
G1 X13.251 Y8.636 E0.05357
G1 X12.780 Y9.137 E0.05300
G1 X12.449 Y9.740 E0.05301
G1 X12.278 Y10.406 E0.05300
G1 X12.278 Y11.101 E0.05357
G1 X12.488 Y11.873 E0.06161
G1 X12.234 Y12.020 E0.02260
G1 X11.036 Y10.821 E0.13064
G1 X11.036 Y6.564 E0.32804
G1 X-18.814 Y6.564 E2.30041
G1 X-18.814 Y0.824 E0.44238
G1 X-19.450 Y0.824 F15000.000
G1 F720
G1 X-19.450 Y-6.022 E0.52761
G1 X-17.185 Y-8.287 E0.24686
G1 X-16.993 Y-8.180 E0.01694
G1 X-16.734 Y-8.073 E0.02158
G1 X-16.428 Y-7.994 E0.02435
G1 X-16.151 Y-7.958 E0.02158
G1 X-15.835 Y-7.959 E0.02435
G1 X-15.557 Y-7.996 E0.02158
G1 X-15.252 Y-8.078 E0.02435
G1 X-14.993 Y-8.186 E0.02158
G1 X-14.719 Y-8.343 E0.02435
G1 X-14.497 Y-8.513 E0.02158
G1 X-14.272 Y-8.736 E0.02435
G1 X-14.102 Y-8.958 E0.02158
G1 X-13.941 Y-9.230 E0.02435
G1 X-13.834 Y-9.489 E0.02158
G1 X-13.774 Y-9.700 E0.01694
G1 X-7.974 Y-9.700 E0.44702
G1 X-7.080 Y-9.818 E0.06945
G1 X-6.223 Y-10.173 E0.07149
G1 X-5.487 Y-10.737 E0.07149
G1 X-4.923 Y-11.473 E0.07149
G1 X-4.568 Y-12.330 E0.07149
G1 X-4.450 Y-13.224 E0.06945
G1 X-4.450 Y-13.700 E0.03670
G1 X4.450 Y-13.700 E0.68588
G1 X4.450 Y-13.224 E0.03670
G1 X4.568 Y-12.330 E0.06945
G1 X4.923 Y-11.473 E0.07149
G1 X5.487 Y-10.737 E0.07149
G1 X6.223 Y-10.173 E0.07149
G1 X7.080 Y-9.818 E0.07149
G1 X7.974 Y-9.700 E0.06945
G1 X13.774 Y-9.700 E0.44702
G1 X13.834 Y-9.489 E0.01694
G1 X13.941 Y-9.230 E0.02158
G1 X14.102 Y-8.958 E0.02435
G1 X14.272 Y-8.736 E0.02158
G1 X14.497 Y-8.514 E0.02435
G1 X14.719 Y-8.343 E0.02158
G1 X14.993 Y-8.186 E0.02435
G1 X15.252 Y-8.078 E0.02158
G1 X15.557 Y-7.996 E0.02435
G1 X15.835 Y-7.959 E0.02158
G1 X16.151 Y-7.958 E0.02435
G1 X16.428 Y-7.994 E0.02158
G1 X16.734 Y-8.073 E0.02435
G1 X16.993 Y-8.180 E0.02158
G1 X17.185 Y-8.287 E0.01694
G1 X19.450 Y-6.022 E0.24686
G1 X19.450 Y11.234 E1.32988
G1 X16.834 Y13.850 E0.28508
G1 X13.166 Y13.850 E0.28272
G1 X10.400 Y11.084 E0.30142
G1 X10.400 Y7.200 E0.29935
G1 X-19.450 Y7.200 E2.30041
G1 X-19.450 Y0.884 E0.48675
G1 X-19.226 Y0.492 F15000.000
G1 E-3.50000 F1500.00000
G1 Z0.700 F15000.000
G1 X-16.810 Y-6.864 F15000.000
G1 Z0.300 F15000.000
G1 E3.50000 F1500.00000
G1 F960
G1 X-18.246 Y-5.428 E0.15709
G1 X-18.246 Y-4.526 E0.06976
G1 X-16.018 Y-6.754 E0.24367
G1 X-15.680 Y-6.756 E0.02613
G1 X-15.240 Y-6.814 E0.03435
G1 X-14.988 Y-6.882 E0.02017
G1 X-18.246 Y-3.624 E0.35632
G1 X-18.246 Y-2.722 E0.06976
G1 X-12.472 Y-8.496 E0.63149
G1 X-11.570 Y-8.496 E0.06976
G1 X-18.246 Y-1.820 E0.73014
G1 X-18.246 Y-0.918 E0.06975
G1 X-10.668 Y-8.496 E0.82879
G1 X-9.766 Y-8.496 E0.06976
G1 X-18.246 Y-0.016 E0.92744
G1 X-18.246 Y0.886 E0.06976
G1 X-8.864 Y-8.496 E1.02608
G1 X-7.962 Y-8.496 E0.06976
G1 X-18.246 Y1.788 E1.12473
G1 X-18.246 Y2.690 E0.06975
G1 X-6.944 Y-8.612 E1.23603
G1 X-6.681 Y-8.647 E0.02053
G1 X-5.531 Y-9.123 E0.09623
G1 X-18.246 Y3.592 E1.39055
G1 X-18.246 Y4.494 E0.06976
G1 X-1.256 Y-12.496 E1.85814
G1 X-0.354 Y-12.496 E0.06976
G1 X-18.246 Y5.396 E1.95678
G1 X-18.246 Y5.996 E0.04641
G1 X-17.944 Y5.996 E0.02335
G1 X0.548 Y-12.496 E2.02241
G1 X1.450 Y-12.496 E0.06976
G1 X-8.516 Y-2.530 E1.08991
G1 X-7.567 Y-2.668 E0.07411
G1 X-7.486 Y-2.658 E0.00631
G1 X2.352 Y-12.496 E1.07600
G1 X3.254 Y-12.496 E0.06976
G1 X-6.689 Y-2.553 E1.08747
G1 X-6.047 Y-2.293 E0.05359
G1 X3.493 Y-11.833 E1.04331
G1 X3.757 Y-11.195 E0.05339
G1 X-5.492 Y-1.946 E1.01153
G1 X-5.103 Y-1.647 E0.03795
G1 X-5.010 Y-1.526 E0.01180
G1 X4.090 Y-10.626 E0.99517
G1 X4.481 Y-10.115 E0.04975
G1 X-4.618 Y-1.016 E0.99517
G1 X-4.549 Y-0.925 E0.00881
G1 X-4.331 Y-0.401 E0.04393
G1 X4.941 Y-9.673 E1.01409
G1 X5.452 Y-9.282 E0.04975
G1 X-4.148 Y0.318 E1.04981
G1 X-4.082 Y0.817 E0.03898
G1 X-4.133 Y1.205 E0.03022
G1 X6.040 Y-8.968 E1.11254
G1 X6.678 Y-8.704 E0.05339
G1 X-4.522 Y2.496 E1.22490
G1 E-3.50000 F1500.00000
G1 Z0.700 F15000.000
G1 X-10.780 Y-0.266 F15000.000
G1 Z0.300 F15000.000
G1 E3.50000 F1500.00000
G1 F960
G1 X-17.042 Y5.996 E0.68483
G1 X-16.140 Y5.996 E0.06976
G1 X-10.908 Y0.764 E0.57227
G1 X-10.803 Y1.561 E0.06217
G1 X-15.238 Y5.996 E0.48510
G1 X-14.336 Y5.996 E0.06976
G1 X-10.543 Y2.203 E0.41482
G1 X-10.451 Y2.425 E0.01860
G1 X-10.196 Y2.758 E0.03242
G1 X-13.434 Y5.996 E0.35414
G1 X-12.532 Y5.996 E0.06976
G1 X-9.776 Y3.240 E0.30141
G1 X-9.266 Y3.632 E0.04975
G1 X-11.630 Y5.996 E0.25858
G1 X-10.728 Y5.996 E0.06976
G1 X-8.651 Y3.919 E0.22721
G1 X-8.335 Y4.049 E0.02644
G1 X-7.932 Y4.102 E0.03139
G1 X-9.826 Y5.996 E0.20711
G1 X-8.924 Y5.996 E0.06976
G1 X-7.045 Y4.117 E0.20550
G1 X-6.530 Y4.049 E0.04015
G1 X-5.754 Y3.728 E0.06503
G1 X-8.022 Y5.996 E0.24810
G1 X-7.120 Y5.996 E0.06976
G1 X7.440 Y-8.564 E1.59241
G1 X7.958 Y-8.496 E0.04036
G1 X8.274 Y-8.496 E0.02447
G1 X-6.218 Y5.996 E1.58496
G1 X-5.316 Y5.996 E0.06976
G1 X9.176 Y-8.496 E1.58496
G1 X10.078 Y-8.496 E0.06975
G1 X-4.414 Y5.996 E1.58496
G1 X-3.512 Y5.996 E0.06976
G1 X10.980 Y-8.496 E1.58496
G1 X11.882 Y-8.496 E0.06976
G1 X5.250 Y-1.864 E0.72536
G1 X5.690 Y-2.201 E0.04288
G1 X6.530 Y-2.549 E0.07037
G1 X6.884 Y-2.596 E0.02760
G1 X12.784 Y-8.496 E0.64527
G1 X13.005 Y-8.496 E0.01709
G1 X13.114 Y-8.312 E0.01651
G1 X13.283 Y-8.092 E0.02143
G1 X7.809 Y-2.619 E0.59864
G1 X8.335 Y-2.549 E0.04102
G1 X8.552 Y-2.460 E0.01817
G1 X13.720 Y-7.628 E0.56525
G1 X14.080 Y-7.350 E0.03514
G1 X14.248 Y-7.254 E0.01499
G1 X9.187 Y-2.193 E0.55353
G1 X9.697 Y-1.801 E0.04975
G1 X14.857 Y-6.961 E0.56436
G1 X15.375 Y-6.814 E0.04158
G1 X15.585 Y-6.786 E0.01639
G1 X10.135 Y-1.337 E0.59597
G1 X10.451 Y-0.925 E0.04013
G1 X10.502 Y-0.802 E0.01033
G1 X16.477 Y-6.777 E0.65344
G1 X16.738 Y-6.811 E0.02034
G1 X16.945 Y-6.864 E0.01651
G1 X17.206 Y-6.603 E0.02854
G1 X10.767 Y-0.164 E0.70423
G1 X10.799 Y-0.085 E0.00665
G1 X10.891 Y0.613 E0.05442
G1 X17.657 Y-6.152 E0.73990
G1 X18.108 Y-5.701 E0.04932
G1 X10.817 Y1.590 E0.79741
G1 E-3.50000 F1500.00000
G1 Z0.700 F15000.000
G1 X4.886 Y-1.500 F15000.000
G1 Z0.300 F15000.000
G1 E3.50000 F1500.00000
G1 F960
G1 X-2.610 Y5.996 E0.81983
G1 X-1.708 Y5.996 E0.06976
G1 X4.154 Y0.134 E0.64109
G1 X4.082 Y0.683 E0.04277
G1 X4.131 Y1.059 E0.02935
G1 X-0.806 Y5.996 E0.53997
G1 X0.096 Y5.996 E0.06976
G1 X4.290 Y1.802 E0.45872
G1 X4.557 Y2.437 E0.05327
G1 X0.998 Y5.996 E0.38928
G1 X1.900 Y5.996 E0.06976
G1 X4.949 Y2.947 E0.33346
G1 X5.103 Y3.147 E0.01951
G1 X5.413 Y3.385 E0.03024
G1 X2.802 Y5.996 E0.28554
G1 X3.704 Y5.996 E0.06976
G1 X5.948 Y3.752 E0.24540
G1 X6.586 Y4.017 E0.05339
G1 X4.606 Y5.996 E0.21651
G1 X5.508 Y5.996 E0.06976
G1 X7.363 Y4.141 E0.20286
G1 X7.567 Y4.168 E0.01594
G1 X8.340 Y4.067 E0.06025
G1 X6.410 Y5.996 E0.21104
G1 X7.312 Y5.996 E0.06976
G1 X18.246 Y-4.938 E1.19580
G1 X18.246 Y-4.036 E0.06976
G1 X8.214 Y5.996 E1.09715
G1 X9.116 Y5.996 E0.06976
G1 X18.246 Y-3.134 E0.99850
G1 X18.246 Y-2.232 E0.06976
G1 X10.018 Y5.996 E0.89985
G1 X10.920 Y5.996 E0.06976
G1 X18.246 Y-1.330 E0.80120
G1 X18.246 Y-0.428 E0.06975
G1 X11.604 Y6.215 E0.72644
G1 X11.604 Y7.117 E0.06976
G1 X18.246 Y0.474 E0.72644
G1 X18.246 Y1.376 E0.06976
G1 X11.604 Y8.019 E0.72644
G1 X11.604 Y8.921 E0.06976
G1 X18.246 Y2.278 E0.72644
G1 X18.246 Y3.180 E0.06976
G1 X13.757 Y7.670 E0.49100
G1 X14.338 Y7.490 E0.04706
G1 X14.872 Y7.457 E0.04135
G1 X18.246 Y4.082 E0.36905
G1 X18.246 Y4.984 E0.06976
G1 X15.687 Y7.543 E0.27984
G1 X15.978 Y7.599 E0.02291
G1 X16.356 Y7.776 E0.03229
G1 X18.246 Y5.886 E0.20670
G1 X18.246 Y6.788 E0.06976
G1 X16.926 Y8.109 E0.14439
G1 X17.415 Y8.522 E0.04950
G1 X18.246 Y7.690 E0.09090
G1 X18.246 Y8.592 E0.06976
G1 X18.111 Y8.727 E0.01477
G1 E-3.50000 F1500.00000
G1 Z0.700 F15000.000
G1 X-3.873 Y-10.781 F15000.000
G1 Z0.300 F15000.000
G1 E3.50000 F1500.00000
G1 F960
G1 X-2.158 Y-12.496 E0.18754
G1 X-3.060 Y-12.496 E0.06976
G1 X-3.362 Y-12.194 E0.03302
G1 X-3.340 Y-12.361 E0.01304
G1 X-3.195 Y-12.361 E0.01122
G1 E-3.50000 F1500.00000
G1 Z0.700 F15000.000
G1 X18.114 Y9.319 F15000.000
G1 Z0.300 F15000.000
G1 E3.50000 F1500.00000
G1 F960
G1 X18.223 Y9.887 E0.04056
G1 F960
G1 X18.255 Y10.339 E0.02655
G1 F960
G1 X18.280 Y10.750 E0.02087
G1 F960
G1 X18.043 Y11.276 E0.02576
G1 E-3.50000 F1500.00000
G1 Z0.700 F15000.000
G1 X15.856 Y13.282 F15000.000
G1 Z0.300 F15000.000
G1 E3.50000 F1500.00000
G1 F960
G1 X15.592 Y13.311 E0.01407
G1 F960
G1 X15.187 Y13.349 E0.01869
G1 F960
G1 X14.482 Y13.326 E0.02583
G1 F960
G1 X14.179 Y13.278 E0.01474
G1 F960
G1 X13.875 Y13.230 E0.01833
G1 F960
G1 X12.741 Y12.976 E0.08098
G1 X13.249 Y12.941 F15000.000
G1 F960
G1 X12.535 Y12.213 E0.08704
G1 X13.249 Y12.941 F15000.000
G1 F960
G1 X13.987 Y13.532 E0.08765
G1 E-3.50000 F1500.00000
G1 Z0.700 F15000.000
G1 X11.657 Y10.993 F15000.000
G1 Z0.300 F15000.000
G1 E3.50000 F1500.00000
G1 F960
G1 X11.662 Y10.289 E0.04706
G1 F960
G1 X11.750 Y9.589 E0.05480
G1 E-3.50000 F1500.00000
G1 Z0.700 F15000.000
G1 X12.850 Y9.899 F15000.000
G1 Z0.500 F15000.000
G1 E3.50000 F1500.00000
G1 F2813.27
G1 X13.130 Y9.391 E0.01673
G1 X13.526 Y8.969 E0.01673
G1 X14.016 Y8.658 E0.01673
G1 X14.567 Y8.479 E0.01673
G1 X14.700 Y8.471 E0.00385
G1 X15.145 Y8.443 E0.01287
G1 X15.714 Y8.551 E0.01673
G1 X16.239 Y8.798 E0.01673
G1 X16.685 Y9.167 E0.01673
G1 X17.026 Y9.636 E0.01673
G1 X17.239 Y10.175 E0.01673
G1 X17.312 Y10.750 E0.01673
G1 X17.239 Y11.325 E0.01673
