; generated by Slic3r 1.2.9 on 2019-05-13 at 11:57:55

; external perimeters extrusion width = 0.40mm
; perimeters extrusion width = 0.40mm
; infill extrusion width = 0.40mm
; solid infill extrusion width = 0.40mm
; top infill extrusion width = 0.40mm

M107
M83
T0
M116
G21 ; set units to millimeters
G90 ; use absolute coordinates
M83 ; use relative distances for extrusion
G1 E-3.50000 F1500.00000
G1 Z0.400 F15000.000
G1 X7.550 Y4.768 F15000.000
G1 Z0.300 F15000.000
G1 E3.50000 F1500.00000
G1 X4.538 Y9.538 E0.43477 F2400.000
G1 X3.325 Y10.720 E0.13052
G1 X1.464 Y11.233 E0.14874
G1 X-2.743 Y11.233 E0.32423
G1 X-4.391 Y10.838 E0.13052
G1 X-5.644 Y9.789 E0.12592
G1 X-11.588 Y1.926 E0.75969
G1 X-11.971 Y1.357 E0.05281
G1 X-12.258 Y0.842 E0.04551
G1 X-12.572 Y0.096 E0.06231
G1 X-12.721 Y-0.377 E0.03823
G1 X-12.824 Y-0.801 E0.03364
G1 X-12.907 Y-1.290 E0.03823
G1 X-12.952 Y-1.724 E0.03365
G1 X-12.968 Y-2.219 E0.03815
G1 X-12.953 Y-2.652 E0.03340
G1 X-12.891 Y-3.240 E0.04554
G1 X-12.820 Y-3.609 E0.02895
G1 X-12.717 Y-4.033 E0.03364
G1 X-12.566 Y-4.506 E0.03822
G1 X-12.405 Y-4.912 E0.03364
G1 X-12.193 Y-5.358 E0.03809
G1 X-11.786 Y-6.043 E0.06143
G1 X-11.422 Y-6.525 E0.04651
G1 X-11.135 Y-6.854 E0.03365
G1 X-10.784 Y-7.204 E0.03822
G1 X-10.455 Y-7.491 E0.03364
G1 X-10.059 Y-7.790 E0.03823
G1 X-9.694 Y-8.029 E0.03364
G1 X-9.264 Y-8.271 E0.03800
G1 X-8.543 Y-8.594 E0.06090
G1 X-7.960 Y-8.781 E0.04713
G1 X-7.536 Y-8.884 E0.03365
G1 X-7.076 Y-8.965 E0.03605
G1 X-6.691 Y-9.007 E0.02980
G1 X-6.293 Y-9.029 E0.03076
G1 X3.938 Y-9.026 E0.78844
G1 X4.588 Y-8.987 E0.05014 F2400.000
G1 X5.065 Y-8.918 E0.03716
G1 X5.502 Y-8.825 E0.03440
G1 X5.989 Y-8.685 E0.03909
G1 X6.409 Y-8.533 E0.03441
G1 X6.872 Y-8.326 E0.03909
G1 X7.266 Y-8.117 E0.03440
G1 X7.696 Y-7.848 E0.03909
G1 X8.058 Y-7.586 E0.03440
G1 X8.446 Y-7.260 E0.03909
G1 X8.767 Y-6.949 E0.03440
G1 X9.027 Y-6.671 E0.02933
G1 X9.399 Y-6.196 E0.04653
G1 X9.649 Y-5.826 E0.03440
G1 X9.950 Y-5.303 E0.04652
G1 X10.278 Y-4.544 E0.06371
G1 X10.435 Y-4.061 E0.03909
G1 X10.543 Y-3.628 E0.03440
G1 X10.631 Y-3.129 E0.03909
G1 X10.677 Y-2.685 E0.03441
G1 X10.697 Y-2.081 E0.04652
G1 X10.631 Y-1.257 E0.06371
G1 X10.543 Y-0.758 E0.03909
G1 X10.435 Y-0.325 E0.03440
G1 X10.278 Y0.158 E0.03909
G1 X10.111 Y0.572 E0.03440
G1 X9.888 Y1.028 E0.03909
G1 X9.665 Y1.414 E0.03440
G1 X7.582 Y4.718 E0.30097
G1 E-3.50000 F1500.00000
G1 Z0.700 F15000.000
G1 X-3.962 Y-1.307 F15000.000
G1 Z0.300 F15000.000
G1 E3.50000 F1500.00000
G1 X-4.183 Y-0.887 E0.03656 F2400.000
G1 X-4.455 Y-0.553 E0.03317
G1 X-4.780 Y-0.276 E0.03296
G1 X-5.151 Y-0.062 E0.03296
G1 X-5.554 Y0.081 E0.03296
G1 X-5.976 Y0.149 E0.03296
G1 X-6.403 Y0.139 E0.03296
G1 X-6.822 Y0.052 E0.03296
G1 X-7.220 Y-0.110 E0.03313
G1 X-7.609 Y-0.366 E0.03587
G1 X-7.886 Y-0.627 E0.02930
G1 X-8.028 Y-0.802 E0.01739
G1 X-8.228 Y-1.117 E0.02878
G1 X-8.400 Y-1.562 E0.03675
G1 X-8.478 Y-1.983 E0.03303
G1 X-8.478 Y-2.411 E0.03296
G1 X-8.401 Y-2.831 E0.03296
G1 X-8.251 Y-3.223 E0.03234
G1 X-8.141 Y-3.425 E0.01772
G1 X-7.891 Y-3.762 E0.03234
G1 X-7.578 Y-4.054 E0.03296
G1 X-7.218 Y-4.285 E0.03296
G1 X-6.829 Y-4.443 E0.03234
G1 X-6.608 Y-4.500 E0.01764
G1 X-6.235 Y-4.545 E0.02895 F2400.000
G1 X-5.766 Y-4.519 E0.03622
G1 X-5.349 Y-4.413 E0.03315
G1 X-4.961 Y-4.233 E0.03296
G1 X-4.611 Y-3.987 E0.03296
G1 X-4.312 Y-3.681 E0.03294
G1 X-4.086 Y-3.345 E0.03124
G1 X-3.977 Y-3.127 E0.01876
G1 X-3.845 Y-2.728 E0.03242
G1 X-3.787 Y-2.304 E0.03296
G1 X-3.806 Y-1.885 E0.03234
G1 X-3.848 Y-1.660 E0.01763
G1 X-3.943 Y-1.364 E0.02397
G1 X-3.729 Y-0.981 F15000.000
G1 X-5.447 Y0.708 F15000.000
G1 X-4.883 Y0.517 E0.04590 F2400.000
G1 X-4.412 Y0.246 E0.04190
G1 X-3.998 Y-0.107 E0.04190
G1 X-3.650 Y-0.535 E0.04249
G1 X-3.374 Y-1.059 E0.04567
G1 X-3.230 Y-1.504 E0.03604
G1 X-3.173 Y-1.812 E0.02417
G1 X-3.150 Y-2.333 E0.04016
G1 X-3.224 Y-2.872 E0.04190
G1 X-3.388 Y-3.370 E0.04040
G1 X-3.535 Y-3.666 E0.02550
G1 X-3.818 Y-4.084 E0.03891
G1 X-4.133 Y-4.407 E0.03476
G1 X1.788 Y-4.405 E0.45632
G1 X0.148 Y-2.129 E0.21619 F2400.000
G1 X0.880 Y-2.129 E0.05639
G1 X0.890 Y-1.903 E0.01748
G1 X0.985 Y-1.390 E0.04016
G1 X1.179 Y-0.882 E0.04190
G1 X1.449 Y-0.437 E0.04016
G1 X1.821 Y0.020 E0.04542
G1 X0.478 Y0.024 E0.10351
G1 X0.478 Y6.611 E0.50764
G1 X-2.253 Y6.611 E0.21048
G1 X-6.670 Y0.769 E0.56443
G1 X-5.932 Y0.786 E0.05686
G1 X-5.507 Y0.717 E0.03322
G1 X1.599 Y-1.563 F15000.000
G1 X1.523 Y-1.975 E0.03234 F2400.000
G1 X1.513 Y-2.202 E0.01750
G1 X1.536 Y-2.511 E0.02386
G1 X1.587 Y-2.765 E0.01998
G1 X1.390 Y-2.765 E0.01517
G1 X2.107 Y-3.761 E0.09459
G1 X2.422 Y-4.054 E0.03314
G1 X2.780 Y-4.284 E0.03277
G1 X3.135 Y-4.434 E0.02976
G1 X3.392 Y-4.500 E0.02043
G1 X3.765 Y-4.545 E0.02895 F2400.000
G1 X4.234 Y-4.519 E0.03622
G1 X4.651 Y-4.413 E0.03315
G1 X5.040 Y-4.233 E0.03296
G1 X5.389 Y-3.987 E0.03296
G1 X5.682 Y-3.687 E0.03234
G1 X5.819 Y-3.502 E0.01771
G1 X6.017 Y-3.140 E0.03180
G1 X6.155 Y-2.728 E0.03348
G1 X6.213 Y-2.304 E0.03299
G1 X6.194 Y-1.885 E0.03234
G1 X6.152 Y-1.659 E0.01772
G1 X6.021 Y-1.260 E0.03234
G1 X5.815 Y-0.885 E0.03296
G1 X5.545 Y-0.553 E0.03296
G1 X5.220 Y-0.276 E0.03296
G1 X4.849 Y-0.062 E0.03296
G1 X4.446 Y0.081 E0.03296
G1 X4.024 Y0.149 E0.03296
G1 X3.597 Y0.139 E0.03296
G1 X3.178 Y0.052 E0.03296
G1 X2.780 Y-0.110 E0.03313
G1 X2.391 Y-0.366 E0.03587
G1 X2.114 Y-0.627 E0.02930
G1 X1.970 Y-0.804 E0.01765
G1 X1.752 Y-1.163 E0.03234
G1 X1.621 Y-1.506 E0.02833
G1 X1.215 Y-1.673 F15000.000
G1 X1.627 Y0.656 F15000.000
G1 X1.114 Y0.658 E0.03957 F2400.000
G1 X1.114 Y7.247 E0.50778
G1 X-2.569 Y7.247 E0.28384
G1 X-8.402 Y-0.468 E0.74535
G1 X-8.625 Y-0.809 E0.03141
G1 X-8.709 Y-0.971 E0.01407
G1 X-8.853 Y-1.339 E0.03042
G1 X-8.945 Y-1.716 E0.02996
G1 X-8.984 Y-2.103 E0.02996
G1 X-8.970 Y-2.495 E0.03019
G1 X-8.945 Y-2.679 E0.01430
G1 X-8.851 Y-3.062 E0.03041
G1 X-8.708 Y-3.423 E0.02996
G1 X-8.517 Y-3.762 E0.02997
G1 X-8.409 Y-3.916 E0.01454
G1 X-8.149 Y-4.213 E0.03039
G1 X-7.856 Y-4.469 E0.02996
G1 X-7.531 Y-4.682 E0.02997
G1 X-7.183 Y-4.847 E0.02968
G1 X-7.002 Y-4.912 E0.01484
G1 X-6.617 Y-5.005 E0.03048
G1 X-6.274 Y-5.043 E0.02658
G1 X3.924 Y-5.040 E0.78593
G1 X4.259 Y-5.015 E0.02591 F2400.000
G1 X4.649 Y-4.932 E0.03073
G1 X5.023 Y-4.796 E0.03063
G1 X5.374 Y-4.609 E0.03063
G1 X5.695 Y-4.376 E0.03063
G1 X5.985 Y-4.095 E0.03111
G1 X6.105 Y-3.952 E0.01439
G1 X6.335 Y-3.613 E0.03158
G1 X6.422 Y-3.448 E0.01439
G1 X6.573 Y-3.073 E0.03111
G1 X6.670 Y-2.688 E0.03063
G1 X6.712 Y-2.286 E0.03111
G1 X6.712 Y-2.100 E0.01439
G1 X6.670 Y-1.698 E0.03111
G1 X6.573 Y-1.313 E0.03063
G1 X6.425 Y-0.944 E0.03063
G1 X6.223 Y-0.595 E0.03111
G1 X5.985 Y-0.291 E0.02970
G1 X5.695 Y-0.011 E0.03111
G1 X5.371 Y0.225 E0.03087
G1 X5.145 Y0.351 E0.01996
G1 X4.839 Y0.484 E0.02567
G1 X4.456 Y0.594 E0.03073
G1 X4.062 Y0.649 E0.03067
G1 X1.687 Y0.656 E0.18301
G1 X1.426 Y0.311 F15000.000
G1 X0.622 Y-0.361 F15000.000
G1 X-3.038 Y-4.021 E0.40109 F2400.000
G1 X-2.134 Y-4.021 E0.07006
G1 X-0.253 Y-2.140 E0.20610
G1 X0.125 Y-2.666 E0.05018
G1 X-1.230 Y-4.021 E0.14850
G1 X-0.326 Y-4.020 E0.07006
G1 X0.504 Y-3.191 E0.09091
G1 X0.579 Y-4.020 E0.06452
G1 X0.883 Y-3.716 E0.03332
G1 X0.143 Y-1.744 F15000.000
G1 X0.581 Y-1.306 E0.04802 F2400.000
G1 X0.093 Y0.013 F15000.000
G1 X-2.818 Y-2.898 E0.31902 F2400.000
G1 X-2.787 Y-1.962 E0.07254
G1 X0.093 Y0.917 E0.31554
G1 X0.093 Y1.821 E0.07004
G1 X-2.952 Y-1.224 E0.33368
G1 X-3.233 Y-0.601 E0.05295
G1 X0.093 Y2.725 E0.36447
G1 X0.093 Y3.629 E0.07004
G1 X-3.604 Y-0.068 E0.40511
G1 X-4.060 Y0.380 E0.04953
G1 X0.093 Y4.533 E0.45512
G1 X0.093 Y5.436 E0.07004
G1 X-4.601 Y0.743 E0.51437
G1 X-5.235 Y1.012 E0.05341
G1 X-0.022 Y6.226 E0.57137
G1 X-0.925 Y6.226 E0.07004
G1 X-5.023 Y2.129 E0.44899
G1 X-2.222 Y5.834 F15000.000
G1 X-1.829 Y6.226 E0.04300 F2400.000
G1 E-3.50000 F1500.00000
G1 Z0.700 F15000.000
G1 X2.447 Y-0.373 F15000.000
G1 Z0.500 F15000.000
G1 E3.50000 F1500.00000
G1 X2.140 Y-0.659 E0.01212 F2400.000
G1 X1.898 Y-0.987 E0.01175
G1 X1.786 Y-1.191 E0.00672
G1 X1.660 Y-1.514 E0.01002
G1 X1.564 Y-1.981 E0.01377
G1 X1.564 Y-2.413 E0.01245
G1 X1.660 Y-2.880 E0.01377
G1 X1.786 Y-3.203 E0.01002
G1 X1.898 Y-3.407 E0.00672
G1 X2.140 Y-3.734 E0.01175
G1 X2.447 Y-4.021 E0.01212
G1 X2.801 Y-4.247 E0.01212
G1 X3.195 Y-4.408 E0.01228
G1 X3.661 Y-4.496 E0.01369
G1 X4.011 Y-4.500 E0.01010 F2400.000
G1 X4.238 Y-4.475 E0.00658
G1 X4.683 Y-4.369 E0.01320
G1 X5.029 Y-4.190 E0.01125
G1 X5.362 Y-3.955 E0.01175
G1 X5.646 Y-3.664 E0.01175
G1 X5.786 Y-3.475 E0.00678
G1 X5.975 Y-3.132 E0.01131
G1 X6.113 Y-2.720 E0.01254
G1 X6.169 Y-2.315 E0.01180
G1 X6.169 Y-2.079 E0.00680
G1 X6.114 Y-1.676 E0.01175
G1 X5.982 Y-1.277 E0.01212
G1 X5.780 Y-0.908 E0.01212
G1 X5.515 Y-0.583 E0.01212
G1 X5.196 Y-0.310 E0.01212
G1 X4.832 Y-0.100 E0.01212
G1 X4.436 Y0.040 E0.01212
G1 X4.021 Y0.107 E0.01212
G1 X3.601 Y0.098 E0.01212
G1 X3.190 Y0.012 E0.01212
G1 X2.801 Y-0.146 E0.01212
G1 X2.498 Y-0.340 E0.01039
G1 X2.690 Y-0.641 F15000.000
G1 X2.408 Y-0.898 E0.01102 F2400.000
G1 X2.200 Y-1.180 E0.01011
G1 X2.110 Y-1.343 E0.00536
G1 X2.003 Y-1.616 E0.00847
G1 X1.921 Y-2.018 E0.01183
G1 X1.921 Y-2.376 E0.01036
G1 X2.003 Y-2.778 E0.01183
G1 X2.110 Y-3.051 E0.00847
G1 X2.200 Y-3.214 E0.00536
G1 X2.408 Y-3.496 E0.01011
G1 X2.667 Y-3.738 E0.01024
G1 X2.966 Y-3.929 E0.01024
G1 X3.297 Y-4.064 E0.01030
G1 X3.697 Y-4.139 E0.01176
G1 X3.993 Y-4.143 E0.00855 F2400.000
G1 X4.176 Y-4.122 E0.00531
G1 X4.558 Y-4.032 E0.01132
G1 X4.843 Y-3.884 E0.00928
G1 X5.129 Y-3.682 E0.01011
G1 X5.374 Y-3.431 E0.01011
G1 X5.485 Y-3.282 E0.00538
G1 X5.647 Y-2.987 E0.00969
G1 X5.764 Y-2.638 E0.01065
G1 X5.812 Y-2.290 E0.01012
G1 X5.812 Y-2.104 E0.00539
G1 X5.764 Y-1.757 E0.01011
G1 X5.653 Y-1.420 E0.01024
G1 X5.483 Y-1.108 E0.01024
G1 X5.259 Y-0.833 E0.01024
G1 X4.989 Y-0.603 E0.01024
G1 X4.682 Y-0.426 E0.01024
G1 X4.347 Y-0.307 E0.01024
G1 X3.997 Y-0.251 E0.01024
G1 X3.642 Y-0.259 E0.01024
G1 X3.295 Y-0.331 E0.01024
G1 X2.966 Y-0.465 E0.01024
G1 X2.741 Y-0.609 E0.00772
G1 X2.334 Y-0.505 F15000.000
G1 E-3.50000 F1500.00000
G1 Z0.900 F15000.000
G1 X-3.886 Y-1.676 F15000.000
G1 Z0.500 F15000.000
G1 E3.50000 F1500.00000
G1 X-4.018 Y-1.277 E0.01212 F2400.000
G1 X-4.220 Y-0.908 E0.01212
G1 X-4.485 Y-0.583 E0.01212
G1 X-4.804 Y-0.310 E0.01212
G1 X-5.168 Y-0.100 E0.01212
G1 X-5.564 Y0.040 E0.01212
G1 X-5.979 Y0.107 E0.01212
G1 X-6.399 Y0.098 E0.01212
G1 X-6.810 Y0.012 E0.01212
G1 X-7.187 Y-0.142 E0.01175
G1 X-7.390 Y-0.259 E0.00677
G1 X-7.690 Y-0.490 E0.01094
G1 X-7.991 Y-0.820 E0.01289
G1 X-8.210 Y-1.181 E0.01221
G1 X-8.360 Y-1.574 E0.01212
G1 X-8.436 Y-1.987 E0.01212
G1 X-8.436 Y-2.407 E0.01212
G1 X-8.360 Y-2.820 E0.01212
G1 X-8.210 Y-3.214 E0.01216
G1 X-7.960 Y-3.620 E0.01376
G1 X-7.560 Y-4.017 E0.01628
G1 X-7.199 Y-4.247 E0.01236
G1 X-6.805 Y-4.408 E0.01228
G1 X-6.339 Y-4.496 E0.01369
G1 X-5.989 Y-4.500 E0.01010 F2400.000
G1 X-5.757 Y-4.474 E0.00673
G1 X-5.363 Y-4.373 E0.01175
G1 X-4.982 Y-4.197 E0.01212
G1 X-4.638 Y-3.955 E0.01212
G1 X-4.347 Y-3.657 E0.01202
G1 X-4.160 Y-3.386 E0.00952
G1 X-4.016 Y-3.112 E0.00890
G1 X-3.886 Y-2.718 E0.01198
G1 X-3.831 Y-2.315 E0.01175
G1 X-3.831 Y-2.079 E0.00680
G1 X-3.878 Y-1.735 E0.01002
G1 X-4.232 Y-1.784 F15000.000
G1 X-4.347 Y-1.420 E0.01102 F2400.000
G1 X-4.517 Y-1.108 E0.01024
G1 X-4.741 Y-0.833 E0.01024
G1 X-5.011 Y-0.603 E0.01024
G1 X-5.318 Y-0.426 E0.01024
G1 X-5.653 Y-0.307 E0.01024
G1 X-6.003 Y-0.251 E0.01024
G1 X-6.358 Y-0.259 E0.01024
G1 X-6.705 Y-0.331 E0.01024
G1 X-7.030 Y-0.463 E0.01011
G1 X-7.191 Y-0.556 E0.00538
G1 X-7.447 Y-0.754 E0.00934
G1 X-7.704 Y-1.035 E0.01098
G1 X-7.888 Y-1.339 E0.01027
G1 X-8.015 Y-1.671 E0.01024
G1 X-8.079 Y-2.020 E0.01024
G1 X-8.079 Y-2.374 E0.01024
G1 X-8.015 Y-2.723 E0.01024
G1 X-7.888 Y-3.055 E0.01026
G1 X-7.679 Y-3.396 E0.01155
G1 X-7.335 Y-3.736 E0.01395
G1 X-7.034 Y-3.929 E0.01033
G1 X-6.703 Y-4.064 E0.01030
G1 X-6.303 Y-4.139 E0.01176
G1 X-6.007 Y-4.143 E0.00855 F2400.000
G1 X-5.822 Y-4.122 E0.00536
G1 X-5.483 Y-4.035 E0.01011
G1 X-5.161 Y-3.886 E0.01024
G1 X-4.871 Y-3.682 E0.01024
G1 X-4.624 Y-3.429 E0.01020
G1 X-4.466 Y-3.200 E0.00802
G1 X-4.346 Y-2.972 E0.00743
G1 X-4.236 Y-2.637 E0.01019
G1 X-4.188 Y-2.290 E0.01011
G1 X-4.188 Y-2.104 E0.00539
G1 X-4.224 Y-1.843 E0.00759
G1 X-3.959 Y-1.517 F15000.000
G1 E-3.50000 F1500.00000
G1 Z0.900 F15000.000
G1 X5.876 Y-4.260 F15000.000
G1 Z0.500 F15000.000
G1 E3.50000 F1500.00000
G1 X6.137 Y-3.981 E0.01102 F2400.000
G1 X6.368 Y-3.639 E0.01193
G1 X6.549 Y-3.267 E0.01193
G1 X6.611 Y-3.096 E0.00526
G1 X6.711 Y-2.695 E0.01193
G1 X6.754 Y-2.294 E0.01164
G1 X6.739 Y-1.890 E0.01167
G1 X6.676 Y-1.521 E0.01081
G1 X6.616 Y-1.306 E0.00643
G1 X6.459 Y-0.916 E0.01212
G1 X6.373 Y-0.755 E0.00526
G1 X6.137 Y-0.405 E0.01221
G1 X6.019 Y-0.264 E0.00529
G1 X5.751 Y-0.004 E0.01079
G1 X5.386 Y0.266 E0.01309
G1 X5.230 Y0.356 E0.00520
G1 X4.853 Y0.524 E0.01193
G1 X4.465 Y0.635 E0.01164
G1 X4.064 Y0.692 E0.01167
G1 X1.157 Y0.702 E0.08393
G1 X1.157 Y7.290 E0.19015
G1 X-2.591 Y7.290 E0.10816
G1 X-8.432 Y-0.436 E0.27956
G1 X-8.664 Y-0.791 E0.01224
G1 X-8.746 Y-0.950 E0.00515
G1 X-8.894 Y-1.326 E0.01166
G1 X-8.986 Y-1.709 E0.01139
G1 X-9.026 Y-2.102 E0.01139
G1 X-9.012 Y-2.497 E0.01142
G1 X-8.954 Y-2.844 E0.01016
G1 X-8.894 Y-3.069 E0.00672
G1 X-8.746 Y-3.443 E0.01160
G1 X-8.577 Y-3.745 E0.01000
G1 X-8.442 Y-3.942 E0.00688
G1 X-8.179 Y-4.243 E0.01155
G1 X-7.882 Y-4.502 E0.01139
G1 X-7.550 Y-4.720 E0.01144
G1 X-7.247 Y-4.866 E0.00971
G1 X-7.014 Y-4.952 E0.00718
G1 X-6.624 Y-5.047 E0.01159
G1 X-6.269 Y-5.086 E0.01029
G1 X4.036 Y-5.079 E0.29745
G1 X4.259 Y-5.058 E0.00647 F2400.000
G1 X4.661 Y-4.973 E0.01184
G1 X5.040 Y-4.835 E0.01164
G1 X5.396 Y-4.645 E0.01164
G1 X5.722 Y-4.408 E0.01164
G1 X5.833 Y-4.302 E0.00442
G1 X6.081 Y-4.559 F15000.000
G1 X6.281 Y-4.365 E0.00804 F2400.000
G1 X6.422 Y-4.197 E0.00635
G1 X6.678 Y-3.818 E0.01319
G1 X6.878 Y-3.407 E0.01319
G1 X6.953 Y-3.201 E0.00635
G1 X7.064 Y-2.757 E0.01319
G1 X7.111 Y-2.306 E0.01308
G1 X7.095 Y-1.853 E0.01309
G1 X7.024 Y-1.443 E0.01202
G1 X6.955 Y-1.191 E0.00753
G1 X6.783 Y-0.765 E0.01326
G1 X6.680 Y-0.571 E0.00635
G1 X6.422 Y-0.190 E0.01329
G1 X6.281 Y-0.021 E0.00635
G1 X5.982 Y0.269 E0.01201
G1 X5.582 Y0.565 E0.01437
G1 X5.392 Y0.675 E0.00632
G1 X4.975 Y0.860 E0.01319
G1 X4.539 Y0.985 E0.01308
G1 X4.090 Y1.049 E0.01310
G1 X1.514 Y1.058 E0.07436
G1 X1.514 Y7.647 E0.19018
G1 X-2.768 Y7.647 E0.12359
G1 X-8.724 Y-0.231 E0.28504
G1 X-8.973 Y-0.611 E0.01312
G1 X-9.071 Y-0.802 E0.00621
G1 X-9.235 Y-1.218 E0.01289
G1 X-9.339 Y-1.649 E0.01280
G1 X-9.384 Y-2.090 E0.01280
G1 X-9.368 Y-2.534 E0.01281
G1 X-9.303 Y-2.920 E0.01132
G1 X-9.233 Y-3.181 E0.00780
G1 X-9.069 Y-3.596 E0.01287
G1 X-8.881 Y-3.934 E0.01116
G1 X-8.725 Y-4.161 E0.00797
G1 X-8.432 Y-4.497 E0.01285
G1 X-8.098 Y-4.788 E0.01280
G1 X-7.726 Y-5.031 E0.01281
G1 X-7.387 Y-5.194 E0.01086
G1 X-7.119 Y-5.294 E0.00827
G1 X-6.686 Y-5.400 E0.01287
G1 X-6.289 Y-5.443 E0.01152
G1 X4.053 Y-5.436 E0.29850
G1 X4.314 Y-5.411 E0.00754 F2400.000
G1 X4.759 Y-5.317 E0.01316
G1 X5.185 Y-5.162 E0.01308
G1 X5.586 Y-4.949 E0.01308
G1 X5.952 Y-4.682 E0.01308
G1 X6.037 Y-4.600 E0.00341
G1 X6.013 Y-4.288 F15000.000
G1 E-3.50000 F1500.00000
G1 Z0.900 F15000.000
G1 X3.682 Y-4.788 F15000.000
G1 Z0.500 F15000.000
G1 E3.50000 F1500.00000
G1 X4.023 Y-4.790 E0.00982 F2400.000
G1 X4.215 Y-4.770 E0.00559
G1 X4.769 Y-4.636 E0.01643
G1 X5.185 Y-4.432 E0.01338
G1 X5.541 Y-4.181 E0.01258
G1 X5.904 Y-3.806 E0.01506
G1 X6.113 Y-3.491 E0.01089
G1 X6.235 Y-3.256 E0.00765
G1 X6.395 Y-2.776 E0.01463
G1 X6.461 Y-2.284 E0.01432
G1 X6.445 Y-1.920 E0.01050
G1 X6.399 Y-1.620 E0.00877
G1 X6.251 Y-1.171 E0.01365
G1 X6.026 Y-0.756 E0.01364
G1 X5.715 Y-0.373 E0.01422
G1 X5.370 Y-0.080 E0.01306
G1 X5.223 Y0.017 E0.00509
G1 X4.962 Y0.159 E0.00856
G1 X4.751 Y0.244 E0.00659
G1 X4.403 Y0.345 E0.01045
G1 X4.052 Y0.398 E0.01026
G1 X3.685 Y0.396 E0.01058
G1 X3.684 Y0.407 F15000.000
G1 X3.104 Y0.348 E0.03569 F2400.000
G1 X2.813 Y0.293 E0.01813
G1 X2.240 Y0.490 F15000.000
G1 X2.620 Y0.110 E0.01571 F2400.000
G1 X2.406 Y-0.187 E0.01069
G1 X1.727 Y0.492 E0.02803
G1 X1.215 Y0.494 F15000.000
