; generated by Slic3r 1.3.0 on 2020-04-03 at 15:26:21

; external perimeters extrusion width = 0.40mm (4.28mm^3/s)
; perimeters extrusion width = 0.40mm (4.28mm^3/s)
; infill extrusion width = 0.40mm (5.71mm^3/s)
; solid infill extrusion width = 0.40mm (5.71mm^3/s)
; top infill extrusion width = 0.40mm (5.71mm^3/s)

M107
M83
T0
M116
; Filament gcode

G21 ; set units to millimeters
G90 ; use absolute coordinates
M83 ; use relative distances for extrusion
G1 E-1.50000 F3000.00000
G1 Z0.400 F15000.000
G1 X7.303 Y0.310 F15000.000
G1 Z0.300 F15000.000
G1 E1.50000 F3000.00000
G1 F2400
G1 X2.145 Y9.265 E0.79641
G1 X0.981 Y10.495 E0.13052
G1 X-1.006 Y11.086 E0.15969
G1 X-5.377 Y11.086 E0.33685
G1 X-7.024 Y10.691 E0.13052
G1 X-8.280 Y9.638 E0.12635
G1 X-14.588 Y1.267 E0.80780
G1 X-14.835 Y0.893 E0.03448
G1 X-15.260 Y0.156 E0.06555
G1 X-15.607 Y-0.666 E0.06883
G1 X-15.838 Y-1.482 E0.06531
G1 X-15.975 Y-2.364 E0.06883
G1 X-16.000 Y-3.211 E0.06531
G1 X-15.917 Y-4.101 E0.06883
G1 X-15.735 Y-4.928 E0.06531
G1 X-15.438 Y-5.771 E0.06883
G1 X-15.060 Y-6.529 E0.06531
G1 X-14.566 Y-7.273 E0.06883
G1 X-14.014 Y-7.917 E0.06531
G1 X-13.354 Y-8.518 E0.06883
G1 X-12.662 Y-9.008 E0.06531
G1 X-11.875 Y-9.430 E0.06883
G1 X-11.085 Y-9.736 E0.06531
G1 X-10.219 Y-9.954 E0.06883
G1 X-9.375 Y-10.058 E0.06555
G1 X-8.928 Y-10.086 E0.03449
G1 X1.048 Y-10.085 E0.76878
G1 X1.456 Y-10.062 E0.03149
G1 X2.221 Y-9.976 E0.05937
G1 X3.016 Y-9.794 E0.06285
G1 X3.747 Y-9.538 E0.05966
G1 X4.478 Y-9.185 E0.06255
G1 X5.126 Y-8.778 E0.05900
G1 X5.760 Y-8.273 E0.06247
G1 X6.310 Y-7.724 E0.05988
G1 X6.820 Y-7.085 E0.06299
G1 X7.231 Y-6.431 E0.05951
G1 X7.584 Y-5.698 E0.06276
G1 X7.839 Y-4.968 E0.05954
G1 X8.021 Y-4.175 E0.06275
G1 X8.107 Y-3.407 E0.05955
G1 X8.107 Y-2.593 E0.06273
G1 X8.021 Y-1.826 E0.05947
G1 X7.840 Y-1.033 E0.06269
G1 X7.585 Y-0.304 E0.05947
G1 X7.328 Y0.256 E0.04749
G1 E-1.50000 F3000.00000
G1 Z0.700 F15000.000
G1 X2.849 Y-2.131 F15000.000
G1 Z0.300 F15000.000
G1 E1.50000 F3000.00000
G1 F600
G1 X2.610 Y-1.751 E0.03456
G1 X2.293 Y-1.434 E0.03456
G1 X1.913 Y-1.196 E0.03456
G1 X1.490 Y-1.048 E0.03456
G1 X1.043 Y-0.997 E0.03470
G1 X0.565 Y-1.055 E0.03707
G1 X0.114 Y-1.226 E0.03721
G1 X-0.284 Y-1.501 E0.03721
G1 X-0.604 Y-1.862 E0.03721
G1 X-0.829 Y-2.290 E0.03721
G1 X-0.944 Y-2.759 E0.03721
G1 X-0.944 Y-3.241 E0.03721
G1 X-0.829 Y-3.710 E0.03721
G1 X-0.604 Y-4.138 E0.03721
G1 X-0.284 Y-4.499 E0.03721
G1 X0.114 Y-4.774 E0.03721
G1 X0.565 Y-4.945 E0.03721
G1 X1.043 Y-5.003 E0.03707
G1 X1.490 Y-4.952 E0.03470
G1 X1.913 Y-4.804 E0.03456
G1 X2.293 Y-4.566 E0.03456
G1 X2.610 Y-4.249 E0.03456
G1 X2.849 Y-3.869 E0.03456
G1 X2.997 Y-3.446 E0.03456
G1 X3.047 Y-3.000 E0.03457
G1 X2.997 Y-2.554 E0.03457
G1 X2.868 Y-2.188 E0.02993
G1 X2.849 Y-2.131 F15000.000
G1 E-1.50000 F3000.00000
G1 Z0.700 F15000.000
G1 X-9.062 Y0.921 F15000.000
G1 Z0.300 F15000.000
G1 E1.50000 F3000.00000
G1 F2400
G1 X-10.214 Y-0.608 E0.14757
G1 X-9.274 Y-0.376 E0.07463
G1 X-8.637 Y-0.376 E0.04911
G1 X-8.018 Y-0.529 E0.04911
G1 X-7.454 Y-0.825 E0.04911
G1 X-6.977 Y-1.247 E0.04911
G1 X-6.615 Y-1.772 E0.04911
G1 X-6.389 Y-2.367 E0.04911
G1 X-6.312 Y-3.000 E0.04911
G1 X-6.389 Y-3.633 E0.04911
G1 X-6.615 Y-4.228 E0.04911
G1 X-6.977 Y-4.753 E0.04911
G1 X-7.780 Y-5.464 E0.08269
G1 X-0.477 Y-5.464 E0.56286
G1 X-0.393 Y-5.196 E0.02163
G1 X-0.708 Y-4.979 E0.02952
G1 X-1.131 Y-4.502 E0.04911
G1 X-1.427 Y-3.937 E0.04911
G1 X-1.580 Y-3.319 E0.04911
G1 X-1.580 Y-2.681 E0.04911
G1 X-1.427 Y-2.063 E0.04911
G1 X-1.131 Y-1.498 E0.04911
G1 X-0.708 Y-1.021 E0.04911
G1 X-0.393 Y-0.804 E0.02954
G1 X-0.476 Y-0.536 E0.02162
G1 X-1.991 Y-0.535 E0.11673
G1 X-1.991 Y6.464 E0.53943
G1 X-4.885 Y6.464 E0.22303
G1 X-9.026 Y0.969 E0.53024
G1 X-9.026 Y-1.012 F15000.000
G1 F600
G1 X-9.197 Y-1.012 E0.01318
G1 X-9.666 Y-1.127 E0.03721
G1 X-10.093 Y-1.352 E0.03721
G1 X-10.455 Y-1.672 E0.03721
G1 X-10.729 Y-2.069 E0.03721
G1 X-10.900 Y-2.521 E0.03721
G1 X-10.959 Y-3.000 E0.03721
G1 X-10.900 Y-3.479 E0.03721
G1 X-10.729 Y-3.931 E0.03721
G1 X-10.455 Y-4.328 E0.03721
G1 X-10.093 Y-4.648 E0.03721
G1 X-9.666 Y-4.873 E0.03721
G1 X-9.197 Y-4.988 E0.03721
G1 X-8.714 Y-4.988 E0.03721
G1 X-8.245 Y-4.873 E0.03721
G1 X-7.818 Y-4.648 E0.03721
G1 X-7.456 Y-4.328 E0.03721
G1 X-7.182 Y-3.931 E0.03721
G1 X-7.011 Y-3.479 E0.03721
G1 X-6.953 Y-3.000 E0.03721
G1 X-7.011 Y-2.521 E0.03721
G1 X-7.182 Y-2.069 E0.03721
G1 X-7.456 Y-1.672 E0.03721
G1 X-7.818 Y-1.352 E0.03721
G1 X-8.245 Y-1.127 E0.03721
G1 X-8.714 Y-1.012 E0.03721
G1 X-8.966 Y-1.012 E0.01940
G1 X-9.104 Y-0.860 F15000.000
G1 X-10.464 Y0.117 F15000.000
G1 F720
G1 X-11.392 Y-1.115 E0.11887
G1 X-11.784 Y-1.795 E0.06055
G1 X-11.992 Y-2.527 E0.05863
G1 X-12.015 Y-3.288 E0.05863
G1 X-11.852 Y-4.031 E0.05863
G1 X-11.512 Y-4.712 E0.05863
G1 X-11.017 Y-5.289 E0.05863
G1 X-10.396 Y-5.729 E0.05863
G1 X-9.686 Y-6.004 E0.05863
G1 X-8.907 Y-6.100 E0.06055
G1 X1.028 Y-6.100 E0.76560
G1 X1.734 Y-6.020 E0.05481
G1 X2.391 Y-5.790 E0.05358
G1 X2.972 Y-5.424 E0.05295
G1 X3.466 Y-4.931 E0.05381
G1 X3.835 Y-4.344 E0.05342
G1 X4.064 Y-3.689 E0.05346
G1 X4.142 Y-3.000 E0.05347
G1 X4.065 Y-2.311 E0.05339
G1 X3.836 Y-1.657 E0.05338
G1 X3.464 Y-1.066 E0.05388
G1 X2.979 Y-0.581 E0.05286
G1 X2.390 Y-0.210 E0.05362
G1 X1.729 Y0.021 E0.05393
G1 X1.032 Y0.099 E0.05405
G1 X-1.356 Y0.100 E0.18401
G1 X-1.356 Y7.100 E0.53945
G1 X-5.202 Y7.100 E0.29643
G1 X-10.428 Y0.165 E0.66919
G1 X-10.342 Y-0.264 F15000.000
G1 X-9.411 Y-0.070 F15000.000
G1 F2400
G1 X-9.245 Y0.020 E0.00129
G1 X-8.903 Y-0.021 E0.00235
G1 X-10.066 Y-0.937 F15000.000
G1 F2400
G1 X-11.210 Y-1.435 E0.00690
G1 X-10.220 Y-0.937 F15000.000
G1 F2400
G1 X-10.875 Y-1.328 E0.03578
G1 X-11.207 Y-1.847 E0.02885
G1 X-11.283 Y-2.007 E0.00832
G1 X-11.404 Y-2.371 E0.01797
G1 X-11.455 Y-2.610 E0.01147
G1 X-11.482 Y-2.975 E0.01715
G1 X-11.473 Y-3.237 E0.01229
G1 X-11.415 Y-3.581 E0.01633
G1 X-11.338 Y-3.850 E0.01311
G1 X-11.183 Y-4.197 E0.01784
G1 X-11.057 Y-4.410 E0.01159
G1 X-10.865 Y-4.659 E0.01471
G1 X-10.648 Y-4.884 E0.01469
G1 X-10.415 Y-5.069 E0.01395
G1 X-10.135 Y-5.244 E0.01543
G1 X-9.830 Y-5.379 E0.01565
G1 X-9.551 Y-5.467 E0.01370
G1 X-9.287 Y-5.515 E0.01260
G1 X-8.709 Y-5.544 E0.02715
G1 X-7.987 Y-5.222 E0.03705
G1 X-7.888 Y-5.086 F15000.000
G1 F2400
G1 X-8.100 Y-5.232 E0.00142
G1 X-8.990 Y-5.769 E0.00575
G1 E-1.50000 F3000.00000
G1 Z0.700 F15000.000
G1 X-6.324 Y-4.761 F15000.000
G1 Z0.300 F15000.000
G1 E1.50000 F3000.00000
G1 F2400
G1 X-6.190 Y-4.896 E0.01557
G1 X-5.237 Y-4.896 E0.07778
G1 X-5.994 Y-4.139 E0.08745
G1 X-5.835 Y-3.718 E0.03672
G1 X-5.795 Y-3.386 E0.02733
G1 X-4.285 Y-4.896 E0.17437
G1 X-3.332 Y-4.896 E0.07778
G1 X-5.801 Y-2.427 E0.28510
G1 X-5.835 Y-2.147 E0.02308
G1 X-6.116 Y-1.407 E0.06464
G1 X-6.565 Y-0.755 E0.06464
G1 X-7.158 Y-0.230 E0.06464
G1 X-7.859 Y0.138 E0.06464
G1 X-8.305 Y0.248 E0.03757
G1 X-8.255 Y0.660 E0.03394
G1 X-8.554 Y0.697 E0.02457
G1 X-8.304 Y1.028 E0.03392
G1 X-2.380 Y-4.896 E0.68417
G1 X-2.071 Y-4.896 E0.02520
G1 X-2.086 Y-4.875 E0.00211
G1 X-1.745 Y-4.639 E0.03385
G1 X-1.812 Y-4.512 E0.01176
G1 X-7.895 Y1.571 E0.70252
G1 X-7.485 Y2.115 E0.05554
G1 X-2.148 Y-3.223 E0.61640
G1 X-2.148 Y-2.672 E0.04501
G1 X-2.069 Y-2.350 E0.02708
G1 X-7.076 Y2.658 E0.57830
G1 X-6.667 Y3.201 E0.05554
G1 X-2.559 Y-0.906 E0.47434
G1 X-2.559 Y0.046 E0.07778
G1 X-6.257 Y3.744 E0.42707
G1 X-5.848 Y4.287 E0.05554
G1 X-2.559 Y0.999 E0.37980
G1 X-2.559 Y1.951 E0.07778
G1 X-5.439 Y4.831 E0.33253
G1 X-5.029 Y5.374 E0.05554
G1 X-2.559 Y2.904 E0.28525
G1 X-2.559 Y3.856 E0.07778
G1 X-4.599 Y5.896 E0.23559
G1 X-3.647 Y5.896 E0.07778
G1 X-2.559 Y4.809 E0.12559
G1 X-2.559 Y5.761 E0.07778
G1 X-2.694 Y5.896 E0.01559
G1 E-1.50000 F3000.00000
G1 Z0.700 F15000.000
G1 X-2.362 Y-1.103 F15000.000
G1 Z0.300 F15000.000
G1 E1.50000 F3000.00000
G1 F2400
G1 X-1.822 Y-1.643 E0.06238
G1 X-1.958 Y-1.903 E0.02394
G1 X-2.069 Y-2.350 E0.03757
G1 X-1.220 Y-1.064 F15000.000
G1 F2400
G1 X-1.075 Y-0.853 E0.00168
G1 X-0.128 Y-0.585 F15000.000
G1 F2400
G1 X0.392 Y-0.490 E0.03572
G1 F2400
G1 X1.001 Y-0.449 E0.03548
G1 F2400
G1 X1.636 Y-0.523 E0.03077
G1 X2.152 Y-0.704 E0.02635
G1 X2.652 Y-1.024 E0.02863
G1 X3.035 Y-1.408 E0.02610
G1 X3.342 Y-1.895 E0.02777
G1 X3.530 Y-2.433 E0.02745
G1 X3.594 Y-3.000 E0.02747
G1 X3.530 Y-3.567 E0.02752
G1 X3.341 Y-4.106 E0.02751
G1 X3.038 Y-4.589 E0.02747
G1 X2.631 Y-4.996 E0.02773
G1 X2.153 Y-5.296 E0.02721
G1 X1.612 Y-5.485 E0.02759
G1 X1.067 Y-5.548 E0.02646
G1 X0.727 Y-5.534 E0.01639
G1 F2400
G1 X0.392 Y-5.510 E0.01886
G1 F2400
G1 X-0.128 Y-5.415 E0.03325
G1 X-1.075 Y-5.146 F15000.000
G1 F2400
G1 X-1.220 Y-4.936 E0.00167
G1 E-1.50000 F3000.00000
G1 Z0.700 F15000.000
G1 X-0.630 Y-4.419 F15000.000
G1 Z0.500 F15000.000
G1 E1.50000 F3000.00000
G1 F2400
G1 X-0.430 Y-4.648 E0.00879
G1 X0.025 Y-4.962 E0.01596
G1 X0.505 Y-5.144 E0.01481
G1 X1.030 Y-5.210 E0.01527
G1 X1.526 Y-5.157 E0.01441
G1 X1.998 Y-4.995 E0.01440
G1 X2.433 Y-4.719 E0.01487
G1 X2.770 Y-4.382 E0.01376
G1 X3.035 Y-3.962 E0.01432
G1 X3.200 Y-3.494 E0.01434
G1 X3.255 Y-3.000 E0.01433
G1 X3.200 Y-2.507 E0.01432
G1 X3.042 Y-2.057 E0.01375
G1 X2.771 Y-1.619 E0.01486
G1 X2.417 Y-1.267 E0.01441
G1 X1.996 Y-1.005 E0.01434
G1 X1.527 Y-0.843 E0.01429
G1 X1.053 Y-0.790 E0.01380
G1 X0.527 Y-0.851 E0.01526
G1 X0.026 Y-1.037 E0.01543
G1 X-0.430 Y-1.352 E0.01600
G1 X-0.781 Y-1.753 E0.01538
G1 X-1.019 Y-2.207 E0.01481
G1 X-1.152 Y-2.744 E0.01596
G1 X-1.149 Y-3.277 E0.01538
G1 X-1.026 Y-3.774 E0.01477
G1 X-0.782 Y-4.246 E0.01534
G1 X-0.670 Y-4.374 E0.00491
G1 X-0.401 Y-4.138 F15000.000
G1 F3000
G1 X-0.190 Y-4.379 E0.00924
G1 X0.192 Y-4.643 E0.01342
G1 X0.592 Y-4.795 E0.01234
G1 X1.033 Y-4.851 E0.01284
G1 X1.448 Y-4.807 E0.01204
G1 X1.842 Y-4.671 E0.01203
G1 X2.208 Y-4.438 E0.01253
G1 X2.489 Y-4.157 E0.01147
G1 X2.711 Y-3.806 E0.01200
G1 X2.849 Y-3.413 E0.01201
G1 X2.896 Y-3.000 E0.01200
G1 X2.849 Y-2.587 E0.01200
G1 X2.718 Y-2.212 E0.01146
G1 X2.490 Y-1.843 E0.01252
G1 X2.194 Y-1.549 E0.01204
G1 X1.841 Y-1.329 E0.01201
G1 X1.448 Y-1.194 E0.01199
G1 X1.053 Y-1.149 E0.01148
G1 X0.611 Y-1.200 E0.01283
G1 X0.193 Y-1.356 E0.01290
G1 X-0.190 Y-1.621 E0.01344
G1 X-0.485 Y-1.957 E0.01288
G1 X-0.683 Y-2.335 E0.01234
G1 X-0.794 Y-2.787 E0.01342
G1 X-0.792 Y-3.233 E0.01288
G1 X-0.690 Y-3.647 E0.01232
G1 X-0.485 Y-4.043 E0.01286
G1 X-0.441 Y-4.093 E0.00193
G1 X-0.523 Y-4.434 F15000.000
G1 X-6.783 Y-3.323 F15000.000
G1 F2400
G1 X-6.744 Y-3.000 E0.00940
G1 X-6.808 Y-2.471 E0.01539
G1 X-6.997 Y-1.972 E0.01539
G1 X-7.300 Y-1.533 E0.01539
G1 X-7.699 Y-1.180 E0.01539
G1 X-8.152 Y-0.942 E0.01477
G1 X-8.686 Y-0.805 E0.01590
G1 X-9.222 Y-0.805 E0.01547
G1 X-9.740 Y-0.932 E0.01539
G1 X-10.212 Y-1.180 E0.01539
G1 X-10.611 Y-1.533 E0.01539
G1 X-10.916 Y-1.975 E0.01547
G1 X-11.105 Y-2.492 E0.01590
G1 X-11.167 Y-3.000 E0.01477
G1 X-11.103 Y-3.529 E0.01539
G1 X-10.914 Y-4.028 E0.01539
G1 X-10.611 Y-4.467 E0.01539
G1 X-10.212 Y-4.820 E0.01539
G1 X-9.740 Y-5.068 E0.01539
G1 X-9.222 Y-5.195 E0.01539
G1 X-8.689 Y-5.195 E0.01539
G1 X-8.171 Y-5.068 E0.01539
G1 X-7.699 Y-4.820 E0.01539
G1 X-7.300 Y-4.467 E0.01539
G1 X-6.996 Y-4.025 E0.01547
G1 X-6.806 Y-3.508 E0.01590
G1 X-6.791 Y-3.383 E0.00364
G1 X-7.145 Y-3.340 F15000.000
G1 F3000
G1 X-7.104 Y-3.000 E0.00988
G1 X-7.158 Y-2.557 E0.01289
G1 X-7.316 Y-2.139 E0.01289
G1 X-7.569 Y-1.772 E0.01289
G1 X-7.904 Y-1.476 E0.01289
G1 X-8.282 Y-1.278 E0.01232
G1 X-8.731 Y-1.162 E0.01340
G1 X-9.179 Y-1.162 E0.01292
G1 X-9.612 Y-1.269 E0.01289
G1 X-10.008 Y-1.476 E0.01289
G1 X-10.342 Y-1.772 E0.01289
G1 X-10.596 Y-2.140 E0.01292
G1 X-10.756 Y-2.576 E0.01340
G1 X-10.807 Y-3.000 E0.01232
G1 X-10.754 Y-3.443 E0.01289
G1 X-10.595 Y-3.861 E0.01289
G1 X-10.342 Y-4.228 E0.01289
G1 X-10.008 Y-4.524 E0.01289
G1 X-9.612 Y-4.731 E0.01289
G1 X-9.179 Y-4.838 E0.01289
G1 X-8.732 Y-4.838 E0.01289
G1 X-8.299 Y-4.731 E0.01289
G1 X-7.904 Y-4.524 E0.01289
G1 X-7.569 Y-4.228 E0.01289
G1 X-7.315 Y-3.860 E0.01292
G1 X-7.152 Y-3.399 E0.01410
G1 X-6.822 Y-3.226 F15000.000
G1 E-1.50000 F3000.00000
G1 Z0.900 F15000.000
G1 X-11.592 Y-1.877 F15000.000
G1 Z0.500 F15000.000
G1 E1.50000 F3000.00000
G1 F2400
G1 X-11.786 Y-2.559 E0.02048
G1 X-11.807 Y-3.268 E0.02048
G1 X-11.655 Y-3.961 E0.02048
G1 X-11.338 Y-4.596 E0.02048
G1 X-10.876 Y-5.135 E0.02048
G1 X-10.297 Y-5.545 E0.02048
G1 X-9.636 Y-5.801 E0.02048
G1 X-8.894 Y-5.893 E0.02157
G1 X1.028 Y-5.892 E0.28638
G1 X1.693 Y-5.815 E0.01930
G1 X2.306 Y-5.599 E0.01877
G1 X2.830 Y-5.270 E0.01787
G1 X3.306 Y-4.798 E0.01934
G1 X3.645 Y-4.258 E0.01841
G1 X3.861 Y-3.645 E0.01876
G1 X3.934 Y-3.000 E0.01874
G1 X3.862 Y-2.358 E0.01863
G1 X3.651 Y-1.754 E0.01847
G1 X3.293 Y-1.187 E0.01935
G1 X2.855 Y-0.749 E0.01789
G1 X2.301 Y-0.399 E0.01892
G1 X1.675 Y-0.181 E0.01911
G1 X1.041 Y-0.109 E0.01843
G1 X-1.563 Y-0.106 E0.07514
G1 X-1.563 Y6.893 E0.20202
G1 X-5.099 Y6.893 E0.10206
G1 X-11.219 Y-1.229 E0.29353
G1 X-11.562 Y-1.825 E0.01984
G1 X-11.872 Y-1.646 F15000.000
G1 F3600
G1 X-11.924 Y-1.737 E0.00301
G1 X-12.141 Y-2.504 E0.02303
G1 X-12.165 Y-3.302 E0.02303
G1 X-11.994 Y-4.081 E0.02303
G1 X-11.638 Y-4.795 E0.02303
G1 X-11.119 Y-5.401 E0.02303
G1 X-10.467 Y-5.862 E0.02303
G1 X-9.723 Y-6.150 E0.02303
G1 X-8.916 Y-6.250 E0.02348
G1 X1.049 Y-6.249 E0.28760
G1 X1.773 Y-6.166 E0.02106
G1 X2.462 Y-5.923 E0.02108
G1 X3.053 Y-5.551 E0.02015
G1 X3.586 Y-5.023 E0.02166
G1 X3.969 Y-4.414 E0.02074
G1 X4.211 Y-3.725 E0.02108
G1 X4.293 Y-3.000 E0.02107
G1 X4.212 Y-2.278 E0.02095
G1 X3.974 Y-1.598 E0.02080
G1 X3.574 Y-0.963 E0.02168
G1 X3.079 Y-0.468 E0.02018
G1 X2.457 Y-0.075 E0.02125
G1 X1.755 Y0.169 E0.02145
G1 X1.061 Y0.248 E0.02015
G1 X-1.206 Y0.250 E0.06542
G1 X-1.206 Y7.250 E0.20203
G1 X-5.277 Y7.250 E0.11751
G1 X-11.518 Y-1.032 E0.29930
G1 X-11.842 Y-1.594 E0.01874
G1 X-11.823 Y-1.739 F15000.000
G1 X-10.850 Y-1.297 F15000.000
G1 F2400
G1 X-10.422 Y-0.833 E0.01603
G1 X-10.850 Y-1.297 F15000.000
G1 F2400
G1 X-11.189 Y-1.813 E0.01258
G1 X-11.283 Y-2.007 E0.00438
G1 X-11.411 Y-2.402 E0.00844
G1 X-11.455 Y-2.610 E0.00433
G1 X-11.483 Y-2.983 E0.00761
G1 X-11.473 Y-3.237 E0.00517
G1 X-11.414 Y-3.589 E0.00725
G1 X-11.338 Y-3.850 E0.00552
G1 X-11.202 Y-4.160 E0.00690
G1 X-11.057 Y-4.410 E0.00587
G1 X-10.860 Y-4.665 E0.00655
G1 X-10.648 Y-4.884 E0.00621
G1 X-10.380 Y-5.094 E0.00692
G1 X-10.135 Y-5.244 E0.00583
G1 X-9.871 Y-5.364 E0.00592
G1 X-9.551 Y-5.467 E0.00682
G1 X-9.244 Y-5.521 E0.00636
G1 F2400
G1 X-8.626 Y-5.542 E0.01511
G1 F2400
G1 X-8.141 Y-5.483 E0.01462
G1 X-0.181 Y-5.497 F15000.000
G1 F2400
G1 X-0.257 Y-5.573 E0.00312
G1 X-0.765 Y-5.573 E0.01477
G1 X-0.300 Y-5.107 E0.01912
G1 X-0.601 Y-4.900 E0.01061
G1 X-1.274 Y-5.573 E0.02765
G1 X-1.782 Y-5.573 E0.01477
G1 X-0.844 Y-4.635 E0.03851
G1 X-1.041 Y-4.411 E0.00868
G1 X-1.071 Y-4.354 E0.00186
G1 X-2.290 Y-5.573 E0.05009
G1 X-2.798 Y-5.573 E0.01477
G1 X-1.244 Y-4.019 E0.06385
G1 X-1.325 Y-3.863 E0.00511
G1 X-1.379 Y-3.645 E0.00651
G1 X-3.307 Y-5.573 E0.07921
G1 X-3.815 Y-5.573 E0.01477
G1 X-1.468 Y-3.226 E0.09642
G1 X-1.471 Y-2.721 E0.01468
G1 X-4.323 Y-5.573 E0.11719
G1 X-4.832 Y-5.573 E0.01477
G1 X-1.324 Y-2.065 E0.14412
G1 X-1.040 Y-1.512 E0.01807
G1 X-0.631 Y-1.046 E0.01800
G1 X-0.268 Y-0.795 E0.01283
G1 X-0.355 Y-0.744 E0.00294
G1 X-0.171 Y-0.427 E0.01065
G1 X-0.194 Y-0.427 E0.00066
G1 X-5.340 Y-5.573 E0.21141
G1 X-5.848 Y-5.573 E0.01477
G1 X-0.702 Y-0.427 E0.21144
G1 X-1.209 Y-0.426 E0.01475
G1 X-6.357 Y-5.573 E0.21147
G1 X-6.865 Y-5.573 E0.01477
G1 X-1.717 Y-0.425 E0.21149
G1 X-1.882 Y-0.425 E0.00479
G1 X-1.882 Y-0.082 E0.00997
G1 X-7.373 Y-5.574 E0.22560
G1 X-7.813 Y-5.574 E0.01276
G1 X-7.820 Y-5.512 E0.00180
G1 X-1.882 Y0.426 E0.24395
G1 X-1.882 Y0.934 E0.01476
G1 X-6.522 Y-3.706 E0.19062
G1 X-6.494 Y-3.630 E0.00234
G1 X-6.431 Y-3.106 E0.01533
G1 X-1.882 Y1.443 E0.18687
G1 X-1.882 Y1.951 E0.01476
G1 X-6.471 Y-2.638 E0.18852
G1 X-6.497 Y-2.423 E0.00631
G1 X-6.570 Y-2.229 E0.00601
G1 X-1.882 Y2.459 E0.19261
G1 X-1.882 Y2.967 E0.01476
G1 X-6.710 Y-1.861 E0.19835
G1 X-6.914 Y-1.557 E0.01064
G1 X-1.882 Y3.476 E0.20674
G1 X-1.882 Y3.984 E0.01476
G1 X-7.138 Y-1.272 E0.21592
G1 X-7.407 Y-1.033 E0.01046
G1 X-1.882 Y4.492 E0.22699
