; generated by Slic3r 1.3.0 on 2020-06-10 at 10:22:46

; external perimeters extrusion width = 0.40mm (4.28mm^3/s)
; perimeters extrusion width = 0.40mm (4.28mm^3/s)
; infill extrusion width = 0.40mm (5.71mm^3/s)
; solid infill extrusion width = 0.40mm (5.71mm^3/s)
; top infill extrusion width = 0.40mm (5.71mm^3/s)

M107
M83
T0
M116
; Filament gcode

G21 ; set units to millimeters
G90 ; use absolute coordinates
M83 ; use relative distances for extrusion
G1 E-3.50000 F1500.00000
G1 Z0.400 F15000.000
G1 X-12.802 Y33.421 F15000.000
G1 Z0.300 F15000.000
G1 E3.50000 F1500.00000
G1 F960
G1 X-13.883 Y33.586 E0.08425
G1 X-22.133 Y33.586 E0.63579
G1 X-23.780 Y33.191 E0.13052
G1 X-24.859 Y32.355 E0.10517
G1 X-34.721 Y21.165 E1.14952
G1 X-35.066 Y20.699 E0.04467
G1 X-36.098 Y19.050 E0.14995
G1 X-36.365 Y18.535 E0.04467
G1 X-37.121 Y16.742 E0.14995
G1 X-37.270 Y16.315 E0.03491
G1 X-47.261 Y-19.188 E2.84234
G1 X-47.397 Y-20.173 E0.07662
G1 X-47.397 Y-29.827 E0.74394
G1 X-47.003 Y-31.474 E0.13052
G1 X-46.098 Y-32.612 E0.11201
G1 X-45.952 Y-32.735 E0.01478
G1 X-43.615 Y-33.586 E0.19166
G1 X-41.511 Y-33.584 E0.16211
G1 X-37.144 Y-33.436 E0.33674
G1 X-32.211 Y-32.938 E0.38210
G1 X-27.820 Y-32.190 E0.34326
G1 X31.540 Y-21.460 E4.64874
G1 X32.307 Y-21.211 E0.06217
G1 X32.604 Y-21.077 E0.02514
G1 X33.297 Y-20.666 E0.06206
G1 X33.557 Y-20.469 E0.02514
G1 X34.067 Y-20.002 E0.05330
G1 X46.090 Y-6.668 E1.38366
G1 X47.391 Y-5.162 E0.15336
G1 X47.777 Y-4.623 E0.05110
G1 X48.750 Y-2.959 E0.14852
G1 X49.032 Y-2.359 E0.05110
G1 X49.687 Y-0.546 E0.14852
G1 X49.854 Y0.095 E0.05110
G1 X50.169 Y1.996 E0.14852
G1 X50.218 Y2.658 E0.05110
G1 X50.182 Y4.584 E0.14852
G1 X50.110 Y5.244 E0.05110
G1 X49.725 Y7.132 E0.14852
G1 X49.534 Y7.767 E0.05110
G1 X48.812 Y9.554 E0.14852
G1 X48.509 Y10.144 E0.05110
G1 X47.475 Y11.770 E0.14852
G1 X47.070 Y12.295 E0.05110
G1 X45.758 Y13.706 E0.14852
G1 X45.264 Y14.149 E0.05110
G1 X43.717 Y15.298 E0.14852
G1 X43.151 Y15.644 E0.05110
G1 X41.421 Y16.493 E0.14852
G1 X40.899 Y16.701 E0.04332
G1 X-12.745 Y33.403 E4.32985
G1 E-3.50000 F1500.00000
G1 Z0.700 F15000.000
G1 X15.840 Y13.673 F15000.000
G1 Z0.300 F15000.000
G1 E3.50000 F1500.00000
G1 F600
G1 X15.544 Y13.244 E0.04015
G1 X15.223 Y12.398 E0.06972
G1 X15.114 Y11.500 E0.06972
G1 X15.223 Y10.602 E0.06972
G1 X15.544 Y9.756 E0.06972
G1 X16.058 Y9.011 E0.06972
G1 X16.735 Y8.411 E0.06972
G1 X17.536 Y7.991 E0.06972
G1 X18.415 Y7.774 E0.06972
G1 X19.320 Y7.774 E0.06972
G1 X20.198 Y7.991 E0.06972
G1 X20.999 Y8.411 E0.06972
G1 X21.676 Y9.011 E0.06972
G1 X22.190 Y9.756 E0.06972
G1 X22.511 Y10.602 E0.06972
G1 X22.620 Y11.500 E0.06972
G1 X22.511 Y12.398 E0.06972
G1 X22.190 Y13.244 E0.06972
G1 X21.676 Y13.989 E0.06972
G1 X20.999 Y14.589 E0.06972
G1 X20.198 Y15.009 E0.06972
G1 X19.320 Y15.226 E0.06972
G1 X18.415 Y15.226 E0.06972
G1 X17.536 Y15.009 E0.06972
G1 X16.735 Y14.589 E0.06972
G1 X16.058 Y13.989 E0.06972
G1 X15.874 Y13.722 E0.02495
G1 X15.444 Y13.728 F15000.000
G1 E-3.50000 F1500.00000
G1 Z0.700 F15000.000
G1 X23.332 Y7.843 F15000.000
G1 Z0.300 F15000.000
G1 E3.50000 F1500.00000
G1 F600
G1 X23.332 Y9.004 E0.08941
G1 X23.225 Y9.089 E0.01053
G1 X22.928 Y9.705 E0.05274
G1 X22.156 Y8.587 E0.10476
G1 X21.363 Y7.884 E0.08162
G1 X20.298 Y7.326 E0.09265
G1 X20.370 Y7.036 E0.02303
G1 X23.332 Y7.036 E0.22825
G1 X23.332 Y7.783 E0.05763
G1 E-3.50000 F1500.00000
G1 Z0.700 F15000.000
G1 X6.690 Y-2.256 F15000.000
G1 Z0.300 F15000.000
G1 E3.50000 F1500.00000
G1 F600
G1 X6.176 Y-1.511 E0.06972
G1 X5.499 Y-0.911 E0.06972
G1 X4.698 Y-0.491 E0.06972
G1 X3.820 Y-0.274 E0.06972
G1 X2.915 Y-0.274 E0.06972
G1 X2.036 Y-0.491 E0.06972
G1 X1.235 Y-0.911 E0.06972
G1 X0.558 Y-1.511 E0.06972
G1 X0.195 Y-2.037 E0.04926
G1 X0.044 Y-2.256 E0.02046
G1 X-0.277 Y-3.102 E0.06972
G1 X-0.386 Y-4.000 E0.06972
G1 X-0.277 Y-4.898 E0.06972
G1 X0.044 Y-5.744 E0.06972
G1 X0.558 Y-6.489 E0.06972
G1 X1.235 Y-7.089 E0.06972
G1 X2.036 Y-7.509 E0.06972
G1 X2.915 Y-7.726 E0.06972
G1 X3.820 Y-7.726 E0.06972
G1 X4.698 Y-7.509 E0.06972
G1 X5.499 Y-7.089 E0.06972
G1 X6.176 Y-6.489 E0.06972
G1 X6.690 Y-5.744 E0.06972
G1 X7.011 Y-4.898 E0.06972
G1 X7.120 Y-4.000 E0.06972
G1 X7.011 Y-3.102 E0.06972
G1 X6.712 Y-2.312 E0.06510
G1 X6.690 Y-2.256 F15000.000
G1 E-3.50000 F1500.00000
G1 Z0.700 F15000.000
G1 X-8.844 Y8.587 F15000.000
G1 Z0.300 F15000.000
G1 E3.50000 F1500.00000
G1 F720
G1 X-8.243 Y9.458 E0.08162
G1 X-7.867 Y10.449 E0.08162
G1 X-7.740 Y11.500 E0.08162
G1 X-7.867 Y12.551 E0.08162
G1 X-8.243 Y13.542 E0.08162
G1 X-8.844 Y14.413 E0.08162
G1 X-9.637 Y15.116 E0.08162
G1 X-10.575 Y15.608 E0.08162
G1 X-11.603 Y15.861 E0.08162
G1 X-12.662 Y15.861 E0.08162
G1 X-13.691 Y15.608 E0.08162
G1 X-14.628 Y15.116 E0.08162
G1 X-15.421 Y14.413 E0.08162
G1 X-16.023 Y13.542 E0.08162
G1 X-16.335 Y12.718 E0.06784
G1 X-16.920 Y14.262 E0.12721
G1 X-17.734 Y15.441 E0.11042
G1 X-18.807 Y16.391 E0.11042
G1 X-20.075 Y17.057 E0.11042
G1 X-21.466 Y17.400 E0.11042
G1 X-22.899 Y17.400 E0.11042
G1 X-24.290 Y17.057 E0.11042
G1 X-25.559 Y16.391 E0.11042
G1 X-26.631 Y15.441 E0.11042
G1 X-27.445 Y14.262 E0.11042
G1 X-27.953 Y12.922 E0.11042
G1 X-28.126 Y11.500 E0.11042
G1 X-27.953 Y10.078 E0.11042
G1 X-27.445 Y8.738 E0.11042
G1 X-26.631 Y7.559 E0.11042
G1 X-25.559 Y6.609 E0.11042
G1 X-24.290 Y5.943 E0.11042
G1 X-22.899 Y5.600 E0.11042
G1 X-21.466 Y5.600 E0.11042
G1 X-20.075 Y5.943 E0.11042
G1 X-18.807 Y6.609 E0.11042
G1 X-17.734 Y7.559 E0.11042
G1 X-16.920 Y8.738 E0.11042
G1 X-16.335 Y10.281 E0.12721
G1 X-16.023 Y9.458 E0.06784
G1 X-15.421 Y8.587 E0.08162
G1 X-14.628 Y7.884 E0.08162
G1 X-13.691 Y7.392 E0.08162
G1 X-12.662 Y7.139 E0.08162
G1 X-11.603 Y7.139 E0.08162
G1 X-10.575 Y7.392 E0.08162
G1 X-9.637 Y7.884 E0.08162
G1 X-8.889 Y8.547 E0.07700
G1 E-3.50000 F1500.00000
G1 Z0.700 F15000.000
G1 X-17.034 Y10.231 F15000.000
G1 Z0.300 F15000.000
G1 E3.50000 F1500.00000
G1 F600
G1 X-16.880 Y11.500 E0.09852
G1 X-17.034 Y12.769 E0.09852
G1 X-17.487 Y13.964 E0.09852
G1 X-18.213 Y15.017 E0.09852
G1 X-19.170 Y15.864 E0.09852
G1 X-20.302 Y16.458 E0.09852
G1 X-21.544 Y16.764 E0.09852
G1 X-22.822 Y16.764 E0.09852
G1 X-24.063 Y16.458 E0.09852
G1 X-25.195 Y15.864 E0.09852
G1 X-26.152 Y15.016 E0.09852
G1 X-26.878 Y13.964 E0.09852
G1 X-27.332 Y12.769 E0.09852
G1 X-27.486 Y11.500 E0.09852
G1 X-27.332 Y10.231 E0.09852
G1 X-26.878 Y9.036 E0.09852
G1 X-26.152 Y7.983 E0.09852
G1 X-25.195 Y7.136 E0.09852
G1 X-24.063 Y6.542 E0.09852
G1 X-22.822 Y6.236 E0.09852
G1 X-21.544 Y6.236 E0.09852
G1 X-20.302 Y6.542 E0.09852
G1 X-19.170 Y7.136 E0.09852
G1 X-18.213 Y7.983 E0.09852
G1 X-17.487 Y9.036 E0.09852
G1 X-17.055 Y10.175 E0.09390
G1 X-17.034 Y10.231 F15000.000
G1 X-15.777 Y10.602 F15000.000
G1 F600
G1 X-15.456 Y9.756 E0.06972
G1 X-14.942 Y9.011 E0.06972
G1 X-14.265 Y8.411 E0.06972
G1 X-13.464 Y7.991 E0.06972
G1 X-12.585 Y7.774 E0.06972
G1 X-11.680 Y7.774 E0.06972
G1 X-10.802 Y7.991 E0.06972
G1 X-10.001 Y8.411 E0.06972
G1 X-9.324 Y9.011 E0.06972
G1 X-8.810 Y9.756 E0.06972
G1 X-8.489 Y10.602 E0.06972
G1 X-8.380 Y11.500 E0.06972
G1 X-8.489 Y12.398 E0.06972
G1 X-8.810 Y13.244 E0.06972
G1 X-9.324 Y13.989 E0.06972
G1 X-10.001 Y14.589 E0.06972
G1 X-10.802 Y15.009 E0.06972
G1 X-11.680 Y15.226 E0.06972
G1 X-12.585 Y15.226 E0.06972
G1 X-13.464 Y15.009 E0.06972
G1 X-14.265 Y14.589 E0.06972
G1 X-14.942 Y13.989 E0.06972
G1 X-15.456 Y13.244 E0.06972
G1 X-15.777 Y12.398 E0.06972
G1 X-15.886 Y11.500 E0.06972
G1 X-15.784 Y10.661 E0.06510
G1 X-15.777 Y10.602 F15000.000
G1 E-3.50000 F1500.00000
G1 Z0.700 F15000.000
G1 X-42.776 Y-24.724 F15000.000
G1 Z0.300 F15000.000
G1 E3.50000 F1500.00000
G1 F720
G1 X-42.776 Y-28.964 E0.32676
G1 X-41.650 Y-28.964 E0.08675
G1 X-37.333 Y-28.819 E0.33292
G1 X-32.954 Y-28.377 E0.33915
G1 X-28.665 Y-27.646 E0.33532
G1 X-24.434 Y-26.628 E0.33534
G1 X-20.271 Y-25.322 E0.33626
G1 X-16.280 Y-23.770 E0.32998
G1 X-14.725 Y-23.042 E0.13234
G1 X-15.465 Y-22.363 E0.07740
G1 X-16.043 Y-21.502 E0.07991
G1 X-16.403 Y-20.530 E0.07991
G1 X-16.526 Y-19.499 E0.08001
G1 X-16.398 Y-18.449 E0.08152
G1 X-16.023 Y-17.458 E0.08162
G1 X-15.421 Y-16.587 E0.08162
G1 X-14.628 Y-15.884 E0.08162
G1 X-13.691 Y-15.392 E0.08162
G1 X-12.662 Y-15.139 E0.08162
G1 X-11.603 Y-15.139 E0.08162
G1 X-10.575 Y-15.392 E0.08162
G1 X-9.637 Y-15.884 E0.08162
G1 X-8.844 Y-16.587 E0.08162
G1 X-8.243 Y-17.458 E0.08162
G1 X-7.867 Y-18.449 E0.08162
G1 X-7.763 Y-19.311 E0.06691
G1 X-6.307 Y-18.426 E0.13130
G1 X-2.749 Y-15.920 E0.33537
G1 X0.677 Y-13.140 E0.34001
G1 X3.850 Y-10.189 E0.33396
G1 X5.996 Y-7.905 E0.24150
G1 X5.801 Y-7.648 E0.02486
G1 X4.925 Y-8.108 E0.07623
G1 X3.897 Y-8.361 E0.08162
G1 X2.838 Y-8.361 E0.08162
G1 X1.809 Y-8.108 E0.08162
G1 X0.872 Y-7.616 E0.08162
G1 X0.079 Y-6.913 E0.08162
G1 X-0.523 Y-6.042 E0.08162
G1 X-0.898 Y-5.051 E0.08162
G1 X-1.026 Y-4.000 E0.08162
G1 X-0.898 Y-2.949 E0.08162
G1 X-0.523 Y-1.958 E0.08162
G1 X0.079 Y-1.087 E0.08162
G1 X0.872 Y-0.384 E0.08162
G1 X1.809 Y0.108 E0.08162
G1 X2.838 Y0.361 E0.08162
G1 X3.897 Y0.361 E0.08162
G1 X4.925 Y0.108 E0.08162
G1 X5.863 Y-0.384 E0.08162
G1 X6.656 Y-1.087 E0.08162
G1 X7.257 Y-1.958 E0.08162
G1 X7.648 Y-2.988 E0.08483
G1 X7.960 Y-2.930 E0.02449
G1 X7.960 Y7.036 E0.76802
G1 X17.365 Y7.036 E0.72476
G1 X17.436 Y7.326 E0.02303
G1 X16.372 Y7.884 E0.09265
G1 X15.579 Y8.587 E0.08162
G1 X14.977 Y9.458 E0.08162
G1 X14.602 Y10.449 E0.08162
G1 X14.474 Y11.500 E0.08162
G1 X14.602 Y12.551 E0.08162
G1 X14.977 Y13.542 E0.08162
G1 X15.579 Y14.413 E0.08162
G1 X16.372 Y15.116 E0.08162
G1 X17.309 Y15.608 E0.08162
G1 X18.338 Y15.861 E0.08162
G1 X19.397 Y15.861 E0.08162
G1 X20.425 Y15.608 E0.08162
G1 X21.363 Y15.116 E0.08162
G1 X22.156 Y14.413 E0.08162
G1 X22.757 Y13.542 E0.08162
G1 X23.133 Y12.551 E0.08162
G1 X23.260 Y11.500 E0.08162
G1 X23.183 Y10.865 E0.04927
G1 X23.547 Y11.188 E0.03747
G1 X23.855 Y11.349 E0.02681
G1 X24.193 Y11.433 E0.02682
G1 X24.540 Y11.433 E0.02676
G1 X24.880 Y11.349 E0.02692
G1 X25.187 Y11.188 E0.02676
G1 X25.359 Y11.036 E0.01768
G1 X28.573 Y11.036 E0.24773
G1 X28.778 Y11.209 E0.02062
G1 X29.098 Y11.365 E0.02752
G1 X29.448 Y11.439 E0.02753
G1 X29.805 Y11.424 E0.02752
G1 X30.147 Y11.322 E0.02752
G1 X30.454 Y11.139 E0.02752
G1 X30.706 Y10.887 E0.02753
G1 X30.889 Y10.580 E0.02752
G1 X30.991 Y10.238 E0.02752
G1 X31.016 Y9.630 E0.04689
G1 X31.547 Y10.160 E0.05783
G1 X32.301 Y10.634 E0.06863
G1 X33.166 Y10.941 E0.07071
G1 X34.009 Y11.036 E0.06540
G1 X36.107 Y11.036 E0.16170
G1 X37.897 Y10.817 E0.13892
G1 X39.640 Y10.150 E0.14382
G1 X41.171 Y9.083 E0.14382
G1 X42.399 Y7.678 E0.14382
G1 X43.253 Y6.018 E0.14382
G1 X43.681 Y4.202 E0.14382
G1 X43.658 Y2.336 E0.14382
G1 X43.186 Y0.530 E0.14382
G1 X42.293 Y-1.108 E0.14382
G1 X41.031 Y-2.483 E0.14382
G1 X39.475 Y-3.513 E0.14382
G1 X37.818 Y-4.102 E0.13549
G1 X36.125 Y-4.635 E0.13682
G1 X34.839 Y-5.433 E0.11663
G1 X34.471 Y-5.549 E0.02971
G1 X33.386 Y-6.403 E0.10642
G1 X32.851 Y-6.932 E0.05796
G1 X32.614 Y-7.330 E0.03573
G1 X32.293 Y-7.574 E0.03103
G1 X31.728 Y-8.329 E0.07270
G1 X31.448 Y-8.823 E0.04376
G1 X31.271 Y-9.089 E0.02460
G1 X31.184 Y-9.302 E0.01774
G1 X30.901 Y-9.835 E0.04648
G1 X30.871 Y-9.928 E0.00754
G1 X30.779 Y-10.658 E0.05676
G1 X30.450 Y-11.050 E0.03941
G1 X30.256 Y-11.667 E0.04983
G1 X30.314 Y-12.477 E0.06263
G1 X30.018 Y-12.943 E0.04252
G1 X29.887 Y-14.542 E0.12365
G1 X29.887 Y-16.599 E0.15851
G1 X29.948 Y-16.750 E0.01255
G1 X30.013 Y-16.834 E0.00819
G1 X30.190 Y-16.949 E0.01628
G1 X30.400 Y-16.976 E0.01628
G1 X30.600 Y-16.911 E0.01628
G1 X30.726 Y-16.799 E0.01300
G1 X30.824 Y-16.566 E0.01945
G1 X30.825 Y-14.481 E0.16073
G1 X30.844 Y-13.933 E0.04222
G1 X30.890 Y-13.420 E0.03969
G1 X30.823 Y-13.115 E0.02405
G1 X30.987 Y-12.769 E0.02954
G1 X30.990 Y-12.539 E0.01769
G1 X30.904 Y-12.084 E0.03572
G1 X31.356 Y-11.483 E0.05796
G1 X31.732 Y-10.553 E0.07733
G1 X31.810 Y-10.568 E0.00611
G1 X32.090 Y-10.121 E0.04060
G1 X31.900 Y-9.910 E0.02188
G1 X33.348 Y-8.398 E0.16130
G1 X33.442 Y-8.377 E0.00746
G1 X33.445 Y-8.294 E0.00636
G1 X34.623 Y-7.480 E0.11037
G1 X34.847 Y-7.347 E0.02006
G1 X34.904 Y-7.114 E0.01847
G1 X36.636 Y-6.379 E0.14504
G1 X36.683 Y-6.406 E0.00416
G1 X37.086 Y-6.311 E0.03191
G1 X39.792 Y-5.453 E0.21878
G1 X41.329 Y-4.626 E0.13455
G1 X42.702 Y-3.521 E0.13579
G1 X43.834 Y-2.210 E0.13346
G1 X44.716 Y-0.703 E0.13461
G1 X45.310 Y0.940 E0.13461
G1 X45.596 Y2.663 E0.13461
G1 X45.563 Y4.409 E0.13461
G1 X45.215 Y6.121 E0.13461
G1 X44.561 Y7.740 E0.13461
G1 X43.624 Y9.214 E0.13461
G1 X42.435 Y10.494 E0.13461
G1 X41.033 Y11.536 E0.13461
G1 X39.465 Y12.306 E0.13461
G1 X37.784 Y12.778 E0.13461
G1 X35.997 Y12.942 E0.13827
G1 X23.785 Y12.942 E0.94109
G1 X22.776 Y14.599 E0.14953
G1 X21.899 Y15.461 E0.09477
G1 X20.838 Y16.083 E0.09477
G1 X19.657 Y16.426 E0.09477
G1 X18.429 Y16.469 E0.09477
G1 X17.226 Y16.211 E0.09477
G1 X16.124 Y15.667 E0.09477
G1 X15.188 Y14.869 E0.09477
G1 X14.476 Y13.866 E0.09477
G1 X14.030 Y12.720 E0.09477
G1 X13.750 Y10.464 E0.17519
G1 X-2.289 Y10.464 E1.23601
G1 X-2.518 Y13.326 E0.22126
G1 X-2.954 Y15.106 E0.14119
G1 X-3.667 Y16.792 E0.14113
G1 X-4.643 Y18.348 E0.14151
G1 X-5.852 Y19.726 E0.14128
G1 X-7.266 Y20.893 E0.14132
G1 X-8.848 Y21.820 E0.14132
G1 X-10.665 Y22.525 E0.15019
G1 X-11.743 Y22.976 E0.09001
G1 X-12.797 Y23.712 E0.09904
G1 X-13.660 Y24.639 E0.09765
G1 X-14.336 Y25.777 E0.10197
G1 X-14.734 Y26.976 E0.09736
G1 X-14.868 Y28.216 E0.09609
G1 X-14.868 Y28.964 E0.05771
G1 X-21.147 Y28.964 E0.48388
G1 X-21.147 Y27.960 E0.07742
G1 X-21.275 Y26.754 E0.09345
G1 X-21.670 Y25.544 E0.09806
G1 X-22.352 Y24.389 E0.10341
G1 X-23.201 Y23.471 E0.09634
G1 X-24.243 Y22.736 E0.09827
G1 X-25.326 Y22.276 E0.09071
G1 X-27.097 Y21.581 E0.14663
G1 X-28.637 Y20.672 E0.13780
G1 X-30.013 Y19.530 E0.13780
G1 X-31.189 Y18.183 E0.13780
G1 X-32.137 Y16.667 E0.13780
G1 X-32.832 Y15.019 E0.13780
G1 X-33.256 Y13.282 E0.13780
G1 X-33.398 Y11.504 E0.13750
G1 X-33.227 Y9.553 E0.15090
G1 X-32.714 Y7.649 E0.15201
G1 X-31.895 Y5.893 E0.14933
G1 X-30.774 Y4.291 E0.15065
G1 X-29.391 Y2.909 E0.15065
G1 X-27.790 Y1.788 E0.15065
G1 X-26.018 Y0.962 E0.15065
G1 X-24.130 Y0.456 E0.15065
G1 X-21.147 Y0.195 E0.23077
G1 X-21.147 Y-7.405 E0.58564
G1 X-21.357 Y-9.692 E0.17699
G1 X-21.908 Y-11.743 E0.16370
G1 X-22.888 Y-13.873 E0.18068
G1 X-24.162 Y-15.700 E0.17167
G1 X-25.704 Y-17.257 E0.16886
G1 X-25.979 Y-17.481 E0.02729
G1 X-27.507 Y-18.547 E0.14363
G1 X-27.773 Y-18.708 E0.02400
G1 X-29.774 Y-19.629 E0.16968
G1 X-31.929 Y-20.198 E0.17177
G1 X-35.161 Y-20.664 E0.25166
G1 X-38.391 Y-20.943 E0.24990
G1 X-41.618 Y-21.036 E0.24876
G1 X-42.776 Y-21.036 E0.08924
G1 X-42.776 Y-24.664 E0.27965
G1 X-43.412 Y-24.664 F15000.000
G1 F720
G1 X-43.412 Y-29.600 E0.38037
G1 X-41.640 Y-29.600 E0.13656
G1 X-37.290 Y-29.453 E0.33538
G1 X-32.869 Y-29.007 E0.34246
G1 X-28.537 Y-28.269 E0.33865
G1 X-24.265 Y-27.240 E0.33865
G1 X-20.061 Y-25.922 E0.33956
G1 X-16.030 Y-24.355 E0.33326
G1 X-13.336 Y-23.094 E0.22921
G1 X-14.327 Y-22.545 E0.08726
G1 X-14.979 Y-21.946 E0.06827
G1 X-15.473 Y-21.210 E0.06827
G1 X-15.781 Y-20.380 E0.06827
G1 X-15.886 Y-19.499 E0.06831
G1 X-15.777 Y-18.602 E0.06968
G1 X-15.456 Y-17.756 E0.06972
G1 X-14.942 Y-17.011 E0.06972
G1 X-14.265 Y-16.411 E0.06972
G1 X-13.464 Y-15.991 E0.06972
G1 X-12.585 Y-15.774 E0.06972
G1 X-11.680 Y-15.774 E0.06972
G1 X-10.802 Y-15.991 E0.06972
G1 X-10.001 Y-16.411 E0.06972
G1 X-9.324 Y-17.011 E0.06972
G1 X-8.810 Y-17.756 E0.06972
G1 X-8.489 Y-18.602 E0.06972
G1 X-8.380 Y-19.498 E0.06959
G1 X-8.492 Y-20.498 E0.07754
G1 X-5.958 Y-18.958 E0.22855
G1 X-2.365 Y-16.427 E0.33869
G1 X1.095 Y-13.620 E0.34333
G1 X4.299 Y-10.639 E0.33727
G1 X7.284 Y-7.463 E0.33594
G1 X8.001 Y-6.415 E0.09786
G1 X8.443 Y-5.243 E0.09650
G1 X8.596 Y-3.976 E0.09837
G1 X8.596 Y6.400 E0.79963
G1 X23.967 Y6.400 E1.18461
G1 X23.967 Y9.310 E0.22424
G1 X23.734 Y9.495 E0.02294
G1 X23.587 Y9.802 E0.02619
G1 X23.564 Y10.002 E0.01553
G1 X23.588 Y10.192 E0.01478
G1 X23.656 Y10.373 E0.01492
G1 X23.766 Y10.533 E0.01492
G1 X23.911 Y10.661 E0.01491
G1 X24.082 Y10.751 E0.01492
G1 X24.270 Y10.797 E0.01492
G1 X24.463 Y10.797 E0.01486
G1 X24.653 Y10.750 E0.01502
G1 X24.823 Y10.661 E0.01486
