; generated by Slic3r 1.3.0 on 2020-05-10 at 16:09:48

; external perimeters extrusion width = 0.40mm (4.28mm^3/s)
; perimeters extrusion width = 0.40mm (4.28mm^3/s)
; infill extrusion width = 0.40mm (5.71mm^3/s)
; solid infill extrusion width = 0.40mm (5.71mm^3/s)
; top infill extrusion width = 0.40mm (5.71mm^3/s)

M107
M83
T0
M116
; Filament gcode

G21 ; set units to millimeters
G90 ; use absolute coordinates
M83 ; use relative distances for extrusion
G1 E-3.50000 F1500.00000
G1 Z0.400 F15000.000
G1 X-0.782 Y7.590 F15000.000
G1 Z0.300 F15000.000
G1 E3.50000 F1500.00000
G1 F960
G1 X-12.782 Y0.590 E1.07063
G1 X-14.006 Y-0.580 E0.13052
G1 X-14.586 Y-2.550 E0.15824
G1 X-14.586 Y-4.450 E0.14642
G1 X-14.191 Y-6.097 E0.13052
G1 X-13.093 Y-7.387 E0.13052
G1 X-10.950 Y-8.086 E0.17373
G1 X10.950 Y-8.086 E1.68773
G1 X12.597 Y-7.691 E0.13052
G1 X13.887 Y-6.593 E0.13052
G1 X14.586 Y-4.450 E0.17373
G1 X14.586 Y4.450 E0.68588
G1 X14.191 Y6.097 E0.13052
G1 X13.093 Y7.387 E0.13052
G1 X10.950 Y8.086 E0.17373
G1 X1.050 Y8.086 E0.76295
G1 X-0.724 Y7.606 E0.14162
G1 X-0.147 Y7.029 F15000.000
G1 F960
G1 X-1.621 Y5.556 E0.18946
G1 X-1.621 Y0.351 E0.47330
G1 X-1.851 Y0.121 E0.02966
G1 X-12.056 Y0.121 E0.92797
G1 X-13.621 Y-1.444 E0.20118
G1 X-13.621 Y-5.556 E0.37396
G1 X-12.056 Y-7.121 E0.20118
G1 X12.056 Y-7.121 E2.19263
G1 X13.621 Y-5.556 E0.20118
G1 X13.621 Y5.556 E1.01049
G1 X12.056 Y7.121 E0.20118
G1 X-0.056 Y7.121 E1.10143
G1 X-0.105 Y7.072 E0.00627
G1 X0.254 Y6.371 F15000.000
G1 F960
G1 X-0.871 Y5.246 E0.14468
G1 X-0.871 Y0.004 E0.47659
G1 X-0.723 Y-0.143 E0.01899
G1 X-0.924 Y-0.629 E0.04785
G1 X-11.746 Y-0.629 E0.98401
G1 X-12.871 Y-1.754 E0.14468
G1 X-12.871 Y-5.246 E0.31746
G1 X-11.746 Y-6.371 E0.14468
G1 X11.746 Y-6.371 E2.13613
G1 X12.871 Y-5.246 E0.14468
G1 X12.871 Y5.246 E0.95399
G1 X11.746 Y6.371 E0.14468
G1 X0.314 Y6.371 E1.03947
G1 X0.565 Y5.621 F15000.000
G1 F960
G1 X-0.121 Y4.935 E0.08819
G1 X-0.121 Y0.315 E0.42009
G1 X0.281 Y-0.087 E0.05170
G1 X0.281 Y-0.413 E0.02966
G1 X-0.121 Y-0.815 E0.05170
G1 X-0.121 Y-1.149 E0.03034
G1 X-0.351 Y-1.379 E0.02966
G1 X-11.435 Y-1.379 E1.00787
G1 X-12.121 Y-2.065 E0.08819
G1 X-12.121 Y-4.935 E0.26096
G1 X-11.435 Y-5.621 E0.08819
G1 X11.435 Y-5.621 E2.07963
G1 X12.121 Y-4.935 E0.08819
G1 X12.121 Y4.935 E0.89749
G1 X11.435 Y5.621 E0.08819
G1 X0.625 Y5.621 E0.98297
G1 X0.876 Y4.871 F15000.000
G1 F960
G1 X0.629 Y4.624 E0.03169
G1 X0.629 Y0.626 E0.36359
G1 X0.876 Y0.379 E0.03169
G1 X7.099 Y0.379 E0.56587
G1 X7.329 Y0.149 E0.02966
G1 X7.329 Y-0.649 E0.07251
G1 X7.099 Y-0.879 E0.02966
G1 X0.876 Y-0.879 E0.56587
G1 X0.629 Y-1.126 E0.03169
G1 X0.629 Y-1.899 E0.07029
G1 X0.399 Y-2.129 E0.02966
G1 X-11.124 Y-2.129 E1.04782
G1 X-11.371 Y-2.376 E0.03169
G1 X-11.371 Y-4.624 E0.20446
G1 X-11.124 Y-4.871 E0.03169
G1 X11.124 Y-4.871 E2.02313
G1 X11.371 Y-4.624 E0.03169
G1 X11.371 Y4.624 E0.84100
G1 X11.124 Y4.871 E0.03169
G1 X0.936 Y4.871 E0.92647
G1 E-3.50000 F1500.00000
G1 Z0.700 F15000.000
G1 X5.990 Y3.464 F15000.000
G1 Z0.300 F15000.000
G1 E3.50000 F1500.00000
G1 F720
G1 X2.036 Y3.464 E0.30471
G1 X2.036 Y1.786 E0.12937
G1 X8.736 Y1.786 E0.51634
G1 X8.736 Y-2.286 E0.31375
G1 X2.036 Y-2.286 E0.51634
G1 X2.036 Y-3.464 E0.09084
G1 X9.964 Y-3.464 E0.61103
G1 X9.964 Y3.464 E0.53397
G1 X6.050 Y3.464 E0.30170
G1 X6.050 Y4.100 F15000.000
G1 F720
G1 X1.400 Y4.100 E0.35832
G1 X1.400 Y1.150 E0.22734
G1 X8.100 Y1.150 E0.51634
G1 X8.100 Y-1.650 E0.21578
G1 X1.400 Y-1.650 E0.51634
G1 X1.400 Y-2.900 E0.09633
G1 X-10.600 Y-2.900 E0.92479
G1 X-10.600 Y-4.100 E0.09248
G1 X10.600 Y-4.100 E1.63379
G1 X10.600 Y4.100 E0.63194
G1 X6.110 Y4.100 E0.34606
G1 X5.742 Y3.845 F15000.000
G1 E-3.50000 F1500.00000
G1 Z0.700 F15000.000
G1 X8.252 Y2.896 F15000.000
G1 Z0.300 F15000.000
G1 E3.50000 F1500.00000
G1 F960
G1 X8.485 Y2.663 E0.02855
G1 X8.485 Y2.354 E0.02675
G1 X7.785 Y2.354 E0.06058
G1 X7.243 Y2.896 E0.06637
G1 X6.233 Y2.896 E0.08733
G1 X6.776 Y2.354 E0.06637
G1 X5.767 Y2.354 E0.08733
G1 X5.224 Y2.896 E0.06637
G1 X4.215 Y2.896 E0.08733
G1 X4.757 Y2.354 E0.06637
G1 X3.748 Y2.354 E0.08733
G1 X3.206 Y2.896 E0.06637
G1 X2.604 Y2.896 E0.05208
G1 X2.604 Y2.489 E0.03525
G1 X2.739 Y2.354 E0.01652
G1 E-3.50000 F1500.00000
G1 Z0.700 F15000.000
G1 X9.261 Y2.896 F15000.000
G1 Z0.300 F15000.000
G1 E3.50000 F1500.00000
G1 F960
G1 X9.396 Y2.761 E0.01650
G1 E-3.50000 F1500.00000
G1 Z0.700 F15000.000
G1 X9.140 Y-2.854 F15000.000
G1 Z0.300 F15000.000
G1 E3.50000 F1500.00000
G1 F960
G1 X9.053 Y-2.875 E0.00561
G1 X2.353 Y-2.875 E0.42251
G1 E-3.50000 F1500.00000
G1 Z0.700 F15000.000
G1 X9.140 Y-2.854 F15000.000
G1 Z0.300 F15000.000
G1 E3.50000 F1500.00000
G1 F960
G1 X9.313 Y-2.813 E0.01300
G1 X9.331 Y-2.708 E0.00778
G1 F960
G1 X9.350 Y-2.603 E0.00682
G1 X9.350 Y2.103 E0.30176
G1 E-3.50000 F1500.00000
G1 Z0.700 F15000.000
G1 X1.718 Y-3.500 F15000.000
G1 Z0.300 F15000.000
G1 E3.50000 F1500.00000
G1 F960
G1 X-10.282 Y-3.500 E0.72747
G1 E-3.50000 F1500.00000
G1 Z0.700 F15000.000
G1 X1.607 Y1.679 F15000.000
G1 Z0.500 F15000.000
G1 E3.50000 F1500.00000
G1 F2400
G1 X1.607 Y1.357 E0.00930
G1 X8.307 Y1.357 E0.19338
G1 X8.307 Y-1.857 E0.09277
G1 X1.607 Y-1.857 E0.19338
G1 X1.607 Y-3.107 E0.03608
G1 X-10.393 Y-3.107 E0.34635
G1 X-10.393 Y-3.893 E0.02268
G1 X10.393 Y-3.893 E0.59994
G1 X10.393 Y3.893 E0.22472
G1 X1.607 Y3.893 E0.25358
G1 X1.607 Y1.739 E0.06216
G1 X1.250 Y1.739 F15000.000
G1 F3600
G1 X1.250 Y1.000 E0.02134
G1 X7.950 Y1.000 E0.19338
G1 X7.950 Y-1.500 E0.07216
G1 X1.250 Y-1.500 E0.19338
G1 X1.250 Y-2.750 E0.03608
G1 X-10.750 Y-2.750 E0.34635
G1 X-10.750 Y-4.250 E0.04329
G1 X10.750 Y-4.250 E0.62055
G1 X10.750 Y4.250 E0.24533
G1 X1.250 Y4.250 E0.27420
G1 X1.250 Y1.799 E0.07073
G1 X1.479 Y1.411 F15000.000
G1 X2.002 Y3.574 F15000.000
G1 F2400
G1 X1.926 Y3.498 E0.00320
G1 X1.926 Y2.976 E0.01558
G1 X2.524 Y3.574 E0.02524
G1 X3.047 Y3.574 E0.01558
G1 X1.926 Y2.453 E0.04728
G1 X1.926 Y1.931 E0.01558
G1 X3.569 Y3.574 E0.06932
G1 X4.091 Y3.574 E0.01558
G1 X2.193 Y1.676 E0.08009
G1 X2.716 Y1.676 E0.01558
G1 X4.613 Y3.574 E0.08009
G1 X5.135 Y3.574 E0.01558
G1 X3.238 Y1.676 E0.08009
G1 X3.760 Y1.676 E0.01558
G1 X5.657 Y3.574 E0.08009
G1 X6.180 Y3.574 E0.01558
G1 X4.282 Y1.676 E0.08009
G1 X4.804 Y1.676 E0.01558
G1 X6.702 Y3.574 E0.08009
G1 X7.224 Y3.574 E0.01558
G1 X5.326 Y1.676 E0.08009
G1 X5.849 Y1.676 E0.01558
G1 X7.746 Y3.574 E0.08009
G1 X8.268 Y3.574 E0.01558
G1 X6.371 Y1.676 E0.08009
G1 X6.893 Y1.676 E0.01558
G1 X8.790 Y3.574 E0.08009
G1 X9.313 Y3.574 E0.01558
G1 X7.415 Y1.676 E0.08009
G1 X7.937 Y1.676 E0.01558
G1 X9.835 Y3.574 E0.08009
G1 X10.074 Y3.574 E0.00713
G1 X10.074 Y3.290 E0.00845
G1 X8.460 Y1.676 E0.06813
G1 X8.626 Y1.676 E0.00498
G1 X8.626 Y1.321 E0.01061
G1 X10.074 Y2.768 E0.06109
G1 X10.074 Y2.246 E0.01558
G1 X8.626 Y0.799 E0.06109
G1 X8.626 Y0.276 E0.01558
G1 X10.074 Y1.724 E0.06109
G1 X10.074 Y1.202 E0.01558
G1 X8.626 Y-0.246 E0.06109
G1 X8.626 Y-0.768 E0.01558
G1 X10.074 Y0.680 E0.06109
G1 X10.074 Y0.157 E0.01558
G1 X8.626 Y-1.290 E0.06109
G1 X8.626 Y-1.812 E0.01558
G1 X10.074 Y-0.365 E0.06109
G1 X10.074 Y-0.887 E0.01558
G1 X7.387 Y-3.574 E0.11340
G1 X7.909 Y-3.574 E0.01558
G1 X10.074 Y-1.409 E0.09136
G1 X10.074 Y-1.931 E0.01558
G1 X8.431 Y-3.574 E0.06932
G1 X8.953 Y-3.574 E0.01558
G1 X10.074 Y-2.453 E0.04728
G1 X10.074 Y-2.976 E0.01558
G1 X9.476 Y-3.574 E0.02524
G1 X9.998 Y-3.574 E0.01558
G1 X10.074 Y-3.498 E0.00320
G1 X8.262 Y-2.176 F15000.000
G1 F2400
G1 X6.865 Y-3.574 E0.05898
G1 X6.343 Y-3.574 E0.01558
G1 X7.740 Y-2.176 E0.05898
G1 X7.218 Y-2.176 E0.01558
G1 X5.820 Y-3.574 E0.05898
G1 X5.298 Y-3.574 E0.01558
G1 X6.696 Y-2.176 E0.05898
G1 X6.174 Y-2.176 E0.01558
G1 X4.776 Y-3.574 E0.05898
G1 X4.254 Y-3.574 E0.01558
G1 X5.651 Y-2.176 E0.05898
G1 X5.129 Y-2.176 E0.01558
G1 X3.732 Y-3.574 E0.05898
G1 X3.210 Y-3.574 E0.01558
G1 X4.607 Y-2.176 E0.05898
G1 X4.085 Y-2.176 E0.01558
G1 X2.687 Y-3.574 E0.05898
G1 X2.165 Y-3.574 E0.01558
G1 X3.563 Y-2.176 E0.05898
G1 X3.040 Y-2.176 E0.01558
G1 X2.105 Y-3.112 E0.03949
G1 X2.105 Y-2.966 E0.00434
G1 X1.926 Y-2.966 E0.00533
G1 X1.926 Y-2.768 E0.00591
G1 X2.518 Y-2.176 E0.02499
G1 X2.002 Y-2.176 E0.01541
G1 X2.002 Y-2.693 E0.01541
G1 X1.786 Y-3.500 F15000.000
G1 F2400
G1 X-10.214 Y-3.500 E0.37425
G1 E-3.50000 F1500.00000
G1 Z0.900 F15000.000
G1 X10.393 Y-2.940 F15000.000
G1 Z0.700 F15000.000
G1 E3.50000 F1500.00000
G1 F2400
G1 X10.393 Y3.893 E0.19722
G1 X1.607 Y3.893 E0.25358
G1 X1.607 Y1.357 E0.07319
G1 X8.307 Y1.357 E0.19338
G1 X8.307 Y-1.857 E0.09277
G1 X1.607 Y-1.857 E0.19338
G1 X1.607 Y-3.107 E0.03608
G1 X-10.393 Y-3.107 E0.34635
G1 X-10.393 Y-3.893 E0.02268
G1 X10.393 Y-3.893 E0.59994
G1 X10.393 Y-3.000 E0.02577
G1 X10.750 Y-3.000 F15000.000
G1 F3600
G1 X10.750 Y4.250 E0.20926
G1 X1.250 Y4.250 E0.27420
G1 X1.250 Y1.000 E0.09380
G1 X7.950 Y1.000 E0.19338
G1 X7.950 Y-1.500 E0.07216
G1 X1.250 Y-1.500 E0.19338
G1 X1.250 Y-2.750 E0.03608
G1 X-10.750 Y-2.750 E0.34635
G1 X-10.750 Y-4.250 E0.04329
G1 X10.750 Y-4.250 E0.62055
G1 X10.750 Y-3.060 E0.03434
G1 X10.543 Y-2.658 F15000.000
G1 X10.088 Y0.070 F15000.000
G1 F2400
G1 X8.612 Y0.465 E0.04408
G1 X9.998 Y2.423 F15000.000
G1 F2400
G1 X9.998 Y-3.574 E0.17309
G1 X4.001 Y-3.574 E0.17309
G1 X5.399 Y-2.176 E0.05704
G1 X6.125 Y-2.162 F15000.000
G1 F2400
G1 X6.506 Y-3.588 E0.04259
G1 X2.900 Y-3.550 F15000.000
G1 F2400
G1 X2.091 Y-3.333 E0.02419
G1 E-3.50000 F1500.00000
G1 Z1.100 F15000.000
G1 X2.002 Y2.002 F15000.000
G1 Z0.700 F15000.000
G1 E3.50000 F1500.00000
G1 F2400
G1 X2.002 Y3.574 E0.04536
G1 X3.574 Y3.574 E0.04536
G1 X1.926 Y1.926 E0.06725
G1 X1.926 Y1.676 E0.00722
G1 X8.626 Y1.676 E0.19338
G1 X8.626 Y1.051 E0.01803
G1 X10.074 Y2.499 E0.05908
G1 X5.100 Y1.662 F15000.000
G1 F2400
G1 X4.584 Y3.588 E0.05753
G1 X4.002 Y1.700 F15000.000
G1 F2400
G1 X1.912 Y2.260 E0.06243
G1 E-3.50000 F1500.00000
G1 Z1.100 F15000.000
G1 X1.786 Y-3.500 F15000.000
G1 Z0.700 F15000.000
G1 E3.50000 F1500.00000
G1 F2400
G1 X-10.214 Y-3.500 E0.37425
M106 S255
G1 E-3.50000 F1500.00000
G1 Z1.100 F15000.000
G1 X-0.992 Y-3.107 F15000.000
G1 Z0.900 F15000.000
G1 E3.50000 F1500.00000
G1 F2400
G1 X-10.393 Y-3.107 E0.27134
G1 X-10.393 Y-3.893 E0.02268
G1 X10.393 Y-3.893 E0.59994
G1 X10.393 Y3.893 E0.22472
G1 X1.607 Y3.893 E0.25358
G1 X1.607 Y1.357 E0.07319
G1 X8.307 Y1.357 E0.19338
G1 X8.307 Y-1.857 E0.09277
G1 X1.607 Y-1.857 E0.19338
G1 X1.607 Y-3.107 E0.03608
G1 X-0.932 Y-3.107 E0.07328
G1 X-0.932 Y-2.750 F15000.000
G1 F3600
G1 X-10.750 Y-2.750 E0.28338
G1 X-10.750 Y-4.250 E0.04329
G1 X10.750 Y-4.250 E0.62055
G1 X10.750 Y4.250 E0.24533
G1 X1.250 Y4.250 E0.27420
G1 X1.250 Y1.000 E0.09380
G1 X7.950 Y1.000 E0.19338
G1 X7.950 Y-1.500 E0.07216
G1 X1.250 Y-1.500 E0.19338
G1 X1.250 Y-2.750 E0.03608
G1 X-0.872 Y-2.750 E0.06124
G1 X-1.069 Y-3.126 F15000.000
G1 X1.786 Y-3.500 F15000.000
G1 F2400
G1 X-10.214 Y-3.500 E0.37425
G1 X2.091 Y-3.333 F15000.000
G1 F2400
G1 X2.900 Y-3.550 E0.02419
G1 X5.399 Y-2.176 F15000.000
G1 F2400
G1 X4.001 Y-3.574 E0.05704
G1 X9.998 Y-3.574 E0.17309
G1 X9.998 Y2.423 E0.17309
G1 X10.074 Y2.499 F15000.000
G1 F2400
G1 X8.626 Y1.051 E0.05908
G1 X8.626 Y1.676 E0.01803
G1 X1.926 Y1.676 E0.19338
G1 X1.926 Y1.926 E0.00722
G1 X3.574 Y3.574 E0.06725
G1 X2.002 Y3.574 E0.04536
G1 X2.002 Y2.002 E0.04536
G1 X1.912 Y2.260 F15000.000
G1 F2400
G1 X4.002 Y1.700 E0.06243
G1 X5.100 Y1.662 F15000.000
G1 F2400
G1 X4.584 Y3.588 E0.05753
G1 X8.612 Y0.465 F15000.000
G1 F2400
G1 X10.088 Y0.070 E0.04408
G1 E-3.50000 F1500.00000
G1 Z1.300 F15000.000
G1 X6.125 Y-2.162 F15000.000
G1 Z0.900 F15000.000
G1 E3.50000 F1500.00000
G1 F2400
G1 X6.506 Y-3.588 E0.04259
G1 E-3.50000 F1500.00000
G1 Z1.300 F15000.000
G1 X2.595 Y3.893 F15000.000
G1 Z1.100 F15000.000
G1 E3.50000 F1500.00000
G1 F2400
G1 X1.607 Y3.893 E0.02852
G1 X1.607 Y1.357 E0.07319
G1 X8.307 Y1.357 E0.19338
G1 X8.307 Y-1.857 E0.09277
G1 X1.607 Y-1.857 E0.19338
G1 X1.607 Y-3.107 E0.03608
G1 X-10.393 Y-3.107 E0.34635
G1 X-10.393 Y-3.893 E0.02268
G1 X10.393 Y-3.893 E0.59994
G1 X10.393 Y3.893 E0.22472
G1 X2.655 Y3.893 E0.22333
G1 X2.655 Y4.250 F15000.000
G1 F3600
G1 X1.250 Y4.250 E0.04056
G1 X1.250 Y1.000 E0.09380
G1 X7.950 Y1.000 E0.19338
G1 X7.950 Y-1.500 E0.07216
G1 X1.250 Y-1.500 E0.19338
G1 X1.250 Y-2.750 E0.03608
G1 X-10.750 Y-2.750 E0.34635
G1 X-10.750 Y-4.250 E0.04329
G1 X10.750 Y-4.250 E0.62055
G1 X10.750 Y4.250 E0.24533
G1 X2.715 Y4.250 E0.23191
G1 X2.370 Y3.969 F15000.000
G1 X4.584 Y3.588 F15000.000
G1 F2400
G1 X5.100 Y1.662 E0.05753
G1 X4.002 Y1.700 F15000.000
G1 F2400
G1 X1.912 Y2.260 E0.06243
G1 X2.002 Y2.002 F15000.000
G1 F2400
G1 X2.002 Y3.574 E0.04536
G1 X3.574 Y3.574 E0.04536
G1 X1.926 Y1.926 E0.06725
G1 X1.926 Y1.676 E0.00722
G1 X8.626 Y1.676 E0.19338
G1 X8.626 Y1.051 E0.01803
G1 X10.074 Y2.499 E0.05908
G1 X9.998 Y2.423 F15000.000
G1 F2400
G1 X9.998 Y-3.574 E0.17309
G1 X4.001 Y-3.574 E0.17309
G1 X5.399 Y-2.176 E0.05704
G1 X6.125 Y-2.162 F15000.000
G1 F2400
G1 X6.506 Y-3.588 E0.04259
G1 X2.900 Y-3.550 F15000.000
G1 F2400
G1 X2.091 Y-3.333 E0.02419
G1 E-3.50000 F1500.00000
G1 Z1.500 F15000.000
G1 X8.612 Y0.465 F15000.000
G1 Z1.100 F15000.000
G1 E3.50000 F1500.00000
G1 F2400
G1 X10.088 Y0.070 E0.04408
G1 E-3.50000 F1500.00000
G1 Z1.500 F15000.000
G1 X1.786 Y-3.500 F15000.000
G1 Z1.100 F15000.000
G1 E3.50000 F1500.00000
G1 F2400
G1 X-10.214 Y-3.500 E0.37425
G1 E-3.50000 F1500.00000
G1 Z1.500 F15000.000
G1 X5.913 Y3.893 F15000.000
G1 Z1.300 F15000.000
G1 E3.50000 F1500.00000
G1 F2400
G1 X1.607 Y3.893 E0.12427
G1 X1.607 Y1.357 E0.07319
G1 X8.307 Y1.357 E0.19338
G1 X8.307 Y-1.857 E0.09277
G1 X1.607 Y-1.857 E0.19338
G1 X1.607 Y-3.107 E0.03608
G1 X-10.393 Y-3.107 E0.34635
G1 X-10.393 Y-3.893 E0.02268
G1 X10.393 Y-3.893 E0.59994
G1 X10.393 Y3.893 E0.22472
G1 X5.973 Y3.893 E0.12758
G1 X5.973 Y4.250 F15000.000
G1 F3600
G1 X1.250 Y4.250 E0.13631
G1 X1.250 Y1.000 E0.09380
G1 X7.950 Y1.000 E0.19338
G1 X7.950 Y-1.500 E0.07216
G1 X1.250 Y-1.500 E0.19338
G1 X1.250 Y-2.750 E0.03608
G1 X-10.750 Y-2.750 E0.34635
G1 X-10.750 Y-4.250 E0.04329
G1 X10.750 Y-4.250 E0.62055
G1 X10.750 Y4.250 E0.24533
G1 X6.033 Y4.250 E0.13616
G1 X5.665 Y3.994 F15000.000
G1 X4.584 Y3.588 F15000.000
G1 F2400
G1 X5.100 Y1.662 E0.05753
G1 X4.002 Y1.700 F15000.000
G1 F2400
G1 X1.912 Y2.260 E0.06243
G1 X2.002 Y2.002 F15000.000
G1 F2400
G1 X2.002 Y3.574 E0.04536
G1 X3.574 Y3.574 E0.04536
G1 X1.926 Y1.926 E0.06725
G1 X1.926 Y1.676 E0.00722
G1 X8.626 Y1.676 E0.19338
G1 X8.626 Y1.051 E0.01803
G1 X10.074 Y2.499 E0.05908
G1 X9.998 Y2.423 F15000.000
G1 F2400
G1 X9.998 Y-3.574 E0.17309
G1 X4.001 Y-3.574 E0.17309
G1 X5.399 Y-2.176 E0.05704
G1 X6.125 Y-2.162 F15000.000
G1 F2400
G1 X6.506 Y-3.588 E0.04259
G1 X2.900 Y-3.550 F15000.000
G1 F2400
G1 X2.091 Y-3.333 E0.02419
G1 E-3.50000 F1500.00000
G1 Z1.700 F15000.000
G1 X8.612 Y0.465 F15000.000
G1 Z1.300 F15000.000
G1 E3.50000 F1500.00000
G1 F2400
G1 X10.088 Y0.070 E0.04408
G1 E-3.50000 F1500.00000
G1 Z1.700 F15000.000
G1 X1.786 Y-3.500 F15000.000
G1 Z1.300 F15000.000
G1 E3.50000 F1500.00000
G1 F2400
G1 X-10.214 Y-3.500 E0.37425
G1 E-3.50000 F1500.00000
G1 Z1.700 F15000.000
G1 X3.097 Y3.893 F15000.000
G1 Z1.500 F15000.000
G1 E3.50000 F1500.00000
G1 F2400
G1 X1.607 Y3.893 E0.04301
G1 X1.607 Y1.357 E0.07319
G1 X8.307 Y1.357 E0.19338
G1 X8.307 Y-1.857 E0.09277
G1 X1.607 Y-1.857 E0.19338
G1 X1.607 Y-3.107 E0.03608
G1 X-10.393 Y-3.107 E0.34635
G1 X-10.393 Y-3.893 E0.02268
G1 X10.393 Y-3.893 E0.59994
G1 X10.393 Y3.893 E0.22472
G1 X3.157 Y3.893 E0.20885
G1 X3.157 Y4.250 F15000.000
G1 F3600
G1 X1.250 Y4.250 E0.05504
G1 X1.250 Y1.000 E0.09380
G1 X7.950 Y1.000 E0.19338
G1 X7.950 Y-1.500 E0.07216
G1 X1.250 Y-1.500 E0.19338
G1 X1.250 Y-2.750 E0.03608
G1 X-10.750 Y-2.750 E0.34635
G1 X-10.750 Y-4.250 E0.04329
G1 X10.750 Y-4.250 E0.62055
G1 X10.750 Y4.250 E0.24533
G1 X3.217 Y4.250 E0.21742
G1 X2.869 Y3.973 F15000.000
G1 X4.584 Y3.588 F15000.000
G1 F2400
G1 X5.100 Y1.662 E0.05753
G1 X4.002 Y1.700 F15000.000
G1 F2400
G1 X1.912 Y2.260 E0.06243
G1 X2.002 Y2.002 F15000.000
G1 F2400
G1 X2.002 Y3.574 E0.04536
G1 X3.574 Y3.574 E0.04536
G1 X1.926 Y1.926 E0.06725
G1 X1.926 Y1.676 E0.00722
G1 X8.626 Y1.676 E0.19338
