; generated by Slic3r 1.3.0 on 2020-06-10 at 11:33:24

; external perimeters extrusion width = 0.40mm (4.28mm^3/s)
; perimeters extrusion width = 0.40mm (4.28mm^3/s)
; infill extrusion width = 0.40mm (5.71mm^3/s)
; solid infill extrusion width = 0.40mm (5.71mm^3/s)
; top infill extrusion width = 0.40mm (5.71mm^3/s)

M107
M83
T0
M116
; Filament gcode

G21 ; set units to millimeters
G90 ; use absolute coordinates
M83 ; use relative distances for extrusion
G1 E-3.50000 F1500.00000
G1 Z0.400 F15000.000
G1 X11.652 Y9.064 F15000.000
G1 Z0.300 F15000.000
G1 E3.50000 F1500.00000
G1 F960
G1 X-15.971 Y6.021 E2.14168
G1 X-16.524 Y5.917 E0.04330
G1 X-17.427 Y5.672 E0.07212
G1 X-18.219 Y5.354 E0.06580
G1 X-18.985 Y4.936 E0.06726
G1 X-19.657 Y4.463 E0.06334
G1 X-20.403 Y3.800 E0.07689
G1 X-21.002 Y3.116 E0.07003
G1 X-21.526 Y2.341 E0.07212
G1 X-21.920 Y1.575 E0.06639
G1 X-22.246 Y0.697 E0.07212
G1 X-22.449 Y-0.140 E0.06639
G1 X-22.560 Y-1.069 E0.07214
G1 X-22.563 Y-1.902 E0.06418
G1 X-22.466 Y-2.770 E0.06732
G1 X-22.290 Y-3.555 E0.06197
G1 X-22.004 Y-4.381 E0.06733
G1 X-21.660 Y-5.107 E0.06197
G1 X-21.200 Y-5.850 E0.06733
G1 X-20.704 Y-6.483 E0.06197
G1 X-20.092 Y-7.107 E0.06733
G1 X-19.469 Y-7.615 E0.06197
G1 X-18.735 Y-8.089 E0.06733
G1 X-17.958 Y-8.469 E0.06663
G1 X-17.195 Y-8.749 E0.06264
G1 X-16.414 Y-8.941 E0.06197
G1 X-15.548 Y-9.054 E0.06733
G1 X-15.078 Y-9.085 E0.03628
G1 X18.950 Y-9.086 E2.62238
G1 X20.597 Y-8.691 E0.13052
G1 X21.887 Y-7.593 E0.13052
G1 X22.586 Y-5.450 E0.17373
G1 X22.586 Y5.450 E0.84001
G1 X22.191 Y7.097 E0.13052
G1 X21.093 Y8.387 E0.13052
G1 X18.950 Y9.086 E0.17373
G1 X12.050 Y9.086 E0.53175
G1 X11.712 Y9.067 E0.02609
G1 E-3.50000 F1500.00000
G1 Z0.700 F15000.000
G1 X-12.996 Y-0.740 F15000.000
G1 Z0.300 F15000.000
G1 E3.50000 F1500.00000
G1 F600
G1 X-13.236 Y-0.283 E0.03982
G1 X-13.579 Y0.104 E0.03982
G1 X-14.004 Y0.398 E0.03982
G1 X-14.487 Y0.581 E0.03982
G1 X-14.996 Y0.643 E0.03947
G1 X-15.477 Y0.588 E0.03732
G1 X-15.929 Y0.430 E0.03697
G1 X-16.336 Y0.175 E0.03697
G1 X-16.675 Y-0.164 E0.03697
G1 X-16.930 Y-0.571 E0.03697
G1 X-17.088 Y-1.023 E0.03697
G1 X-17.142 Y-1.500 E0.03697
G1 X-17.088 Y-1.977 E0.03697
G1 X-16.930 Y-2.429 E0.03697
G1 X-16.675 Y-2.836 E0.03697
G1 X-16.336 Y-3.175 E0.03697
G1 X-15.929 Y-3.430 E0.03697
G1 X-15.477 Y-3.588 E0.03697
G1 X-15.029 Y-3.639 E0.03472
G1 X-14.496 Y-3.584 E0.04130
G1 X-14.004 Y-3.398 E0.04054
G1 X-13.579 Y-3.104 E0.03982
G1 X-13.236 Y-2.717 E0.03982
G1 X-12.996 Y-2.260 E0.03982
G1 X-12.872 Y-1.758 E0.03982
G1 X-12.872 Y-1.242 E0.03982
G1 X-12.982 Y-0.798 E0.03519
G1 X-13.595 Y-0.967 F15000.000
G1 F600
G1 X-13.763 Y-0.646 E0.02792
G1 X-14.003 Y-0.375 E0.02792
G1 X-14.302 Y-0.169 E0.02792
G1 X-14.640 Y-0.041 E0.02792
G1 X-14.998 Y0.003 E0.02779
G1 X-15.334 Y-0.035 E0.02606
G1 X-15.652 Y-0.146 E0.02593
G1 X-15.937 Y-0.325 E0.02593
G1 X-16.175 Y-0.563 E0.02593
G1 X-16.354 Y-0.848 E0.02593
G1 X-16.465 Y-1.166 E0.02593
G1 X-16.503 Y-1.500 E0.02593
G1 X-16.465 Y-1.834 E0.02593
G1 X-16.354 Y-2.152 E0.02593
G1 X-16.175 Y-2.437 E0.02593
G1 X-15.937 Y-2.675 E0.02593
G1 X-15.652 Y-2.854 E0.02593
G1 X-15.334 Y-2.965 E0.02593
G1 X-15.026 Y-3.000 E0.02393
G1 X-14.643 Y-2.960 E0.02962
G1 X-14.302 Y-2.831 E0.02818
G1 X-14.003 Y-2.625 E0.02792
G1 X-13.763 Y-2.354 E0.02792
G1 X-13.595 Y-2.033 E0.02792
G1 X-13.508 Y-1.681 E0.02792
G1 X-13.508 Y-1.319 E0.02792
G1 X-13.580 Y-1.025 E0.02330
G1 X-13.595 Y-0.967 F15000.000
G1 E-3.50000 F1500.00000
G1 Z0.700 F15000.000
G1 X17.964 Y-2.628 F15000.000
G1 Z0.300 F15000.000
G1 E3.50000 F1500.00000
G1 F720
G1 X17.964 Y4.464 E0.54655
G1 X13.036 Y4.464 E0.37984
G1 X13.036 Y3.071 E0.10738
G1 X9.429 Y-0.536 E0.39308
G1 X-12.049 Y-0.536 E1.65522
G1 X-12.870 Y0.551 E0.10495
G1 X-13.412 Y0.994 E0.05398
G1 X-14.045 Y1.299 E0.05413
G1 X-14.674 Y1.435 E0.04959
G1 X-15.435 Y1.424 E0.05865
G1 X-16.107 Y1.242 E0.05362
G1 X-16.672 Y0.934 E0.04963
G1 X-17.241 Y0.428 E0.05869
G1 X-17.630 Y-0.148 E0.05349
G1 X-17.874 Y-0.804 E0.05400
G1 X-17.958 Y-1.504 E0.05432
G1 X-17.886 Y-2.150 E0.05011
G1 X-17.672 Y-2.769 E0.05042
G1 X-17.328 Y-3.325 E0.05042
G1 X-16.870 Y-3.792 E0.05042
G1 X-16.320 Y-4.147 E0.05042
G1 X-15.706 Y-4.373 E0.05042
G1 X-15.057 Y-4.457 E0.05042
G1 X-14.405 Y-4.398 E0.05042
G1 X-13.070 Y-3.965 E0.10816
G1 X-12.571 Y-4.464 E0.05441
G1 X17.964 Y-4.464 E2.35323
G1 X17.964 Y-2.688 E0.13693
G1 X18.600 Y-2.688 F15000.000
G1 F720
G1 X18.600 Y5.100 E0.60016
G1 X12.400 Y5.100 E0.47781
G1 X12.400 Y3.334 E0.13607
G1 X9.166 Y0.100 E0.35250
G1 X-11.733 Y0.100 E1.61055
G1 X-12.409 Y0.995 E0.08643
G1 X-13.069 Y1.534 E0.06568
G1 X-13.837 Y1.904 E0.06573
G1 X-14.611 Y2.072 E0.06098
G1 X-15.524 Y2.058 E0.07042
G1 X-16.345 Y1.836 E0.06555
G1 X-17.040 Y1.457 E0.06100
G1 X-17.723 Y0.850 E0.07043
G1 X-18.199 Y0.145 E0.06551
G1 X-18.496 Y-0.654 E0.06569
G1 X-18.597 Y-1.502 E0.06581
G1 X-18.510 Y-2.291 E0.06121
G1 X-18.250 Y-3.043 E0.06133
G1 X-17.831 Y-3.720 E0.06133
G1 X-17.274 Y-4.288 E0.06133
G1 X-16.605 Y-4.719 E0.06133
G1 X-15.858 Y-4.994 E0.06132
G1 X-15.069 Y-5.097 E0.06133
G1 X-14.277 Y-5.024 E0.06133
G1 X-13.245 Y-4.690 E0.08363
G1 X-12.834 Y-5.100 E0.04471
G1 X18.600 Y-5.100 E2.42250
G1 X18.600 Y-2.748 E0.18129
G1 X18.391 Y-2.346 F15000.000
G1 E-3.50000 F1500.00000
G1 Z0.700 F15000.000
G1 X17.261 Y3.896 F15000.000
G1 Z0.300 F15000.000
G1 E3.50000 F1500.00000
G1 F960
G1 X17.396 Y3.761 E0.01486
G1 X17.396 Y2.853 E0.07070
G1 X16.353 Y3.896 E0.11484
G1 X15.445 Y3.896 E0.07070
G1 X17.396 Y1.945 E0.21482
G1 X17.396 Y1.037 E0.07070
G1 X14.537 Y3.896 E0.31480
G1 X13.629 Y3.896 E0.07070
G1 X17.396 Y0.129 E0.41477
G1 X17.396 Y-0.779 E0.07070
G1 X13.604 Y3.013 E0.41754
G1 X13.604 Y2.875 E0.01075
G1 X13.219 Y2.490 E0.04239
G1 X17.396 Y-1.687 E0.45993
G1 X17.396 Y-2.595 E0.07070
G1 X12.765 Y2.036 E0.50992
G1 X12.311 Y1.582 E0.04999
G1 X17.396 Y-3.503 E0.55991
G1 X17.396 Y-3.896 E0.03058
G1 X16.881 Y-3.896 E0.04011
G1 X11.857 Y1.128 E0.55317
G1 X11.403 Y0.674 E0.04999
G1 X15.973 Y-3.896 E0.50318
G1 X15.065 Y-3.896 E0.07070
G1 X10.949 Y0.220 E0.45319
G1 X10.495 Y-0.234 E0.04999
G1 X14.157 Y-3.896 E0.40320
G1 X13.249 Y-3.896 E0.07070
G1 X10.041 Y-0.688 E0.35321
G1 X9.625 Y-1.104 E0.04577
G1 X9.548 Y-1.104 E0.00597
G1 X12.341 Y-3.896 E0.30744
G1 X11.433 Y-3.896 E0.07070
G1 X8.640 Y-1.104 E0.30744
G1 X7.732 Y-1.104 E0.07070
G1 X10.524 Y-3.896 E0.30744
G1 X9.616 Y-3.896 E0.07070
G1 X6.824 Y-1.104 E0.30744
G1 X5.916 Y-1.104 E0.07070
G1 X8.708 Y-3.896 E0.30744
G1 X7.800 Y-3.896 E0.07070
G1 X5.008 Y-1.104 E0.30744
G1 X4.100 Y-1.104 E0.07070
G1 X6.892 Y-3.896 E0.30744
G1 X5.984 Y-3.896 E0.07070
G1 X3.192 Y-1.104 E0.30744
G1 X2.284 Y-1.104 E0.07070
G1 X5.076 Y-3.896 E0.30744
G1 X4.168 Y-3.896 E0.07070
G1 X1.376 Y-1.104 E0.30744
G1 X0.467 Y-1.104 E0.07070
G1 X3.260 Y-3.896 E0.30744
G1 X2.352 Y-3.896 E0.07070
G1 X-0.441 Y-1.104 E0.30744
G1 X-1.349 Y-1.104 E0.07070
G1 X1.444 Y-3.896 E0.30744
G1 X0.536 Y-3.896 E0.07070
G1 X-2.257 Y-1.104 E0.30744
G1 X-3.165 Y-1.104 E0.07070
G1 X-0.372 Y-3.896 E0.30744
G1 X-1.281 Y-3.896 E0.07070
G1 X-4.073 Y-1.104 E0.30744
G1 X-4.981 Y-1.104 E0.07070
G1 X-2.189 Y-3.896 E0.30744
G1 X-3.097 Y-3.896 E0.07070
G1 X-5.889 Y-1.104 E0.30744
G1 X-6.797 Y-1.104 E0.07070
G1 X-4.005 Y-3.896 E0.30744
G1 X-4.913 Y-3.896 E0.07070
G1 X-7.705 Y-1.104 E0.30744
G1 X-8.613 Y-1.104 E0.07070
G1 X-5.821 Y-3.896 E0.30744
G1 X-6.729 Y-3.896 E0.07070
G1 X-9.521 Y-1.104 E0.30744
G1 X-10.429 Y-1.104 E0.07070
G1 X-7.637 Y-3.896 E0.30744
G1 X-8.545 Y-3.896 E0.07070
G1 X-11.338 Y-1.104 E0.30744
G1 X-11.754 Y-1.104 E0.03239
G1 X-12.071 Y-1.279 E0.02819
G1 X-9.453 Y-3.896 E0.28817
G1 X-10.361 Y-3.896 E0.07070
G1 X-12.341 Y-1.917 E0.21795
G1 X-12.465 Y-2.420 E0.04033
G1 X-12.562 Y-2.604 E0.01621
G1 X-11.269 Y-3.896 E0.14227
G1 X-12.177 Y-3.896 E0.07070
G1 X-12.312 Y-3.761 E0.01485
G1 X-13.146 Y-3.440 F15000.000
G1 F960
G1 X-13.472 Y-3.602 E0.01284
G1 F960
G1 X-13.799 Y-3.763 E0.00938
G1 F960
G1 X-14.414 Y-3.979 E0.01059
G1 X-15.049 Y-4.047 E0.01038
G1 X-15.576 Y-3.982 E0.00863
G1 X-16.097 Y-3.799 E0.00896
G1 X-16.597 Y-3.486 E0.00958
G1 X-17.006 Y-3.073 E0.00946
G1 X-17.301 Y-2.597 E0.00909
G1 X-17.483 Y-2.077 E0.00896
G1 X-17.549 Y-1.506 E0.00934
G1 X-17.476 Y-0.901 E0.00990
G1 X-17.264 Y-0.335 E0.00981
G1 X-16.931 Y0.157 E0.00965
G1 X-16.589 Y0.479 E0.00764
G1 X-16.435 Y0.596 E0.00315
G1 X-16.111 Y0.786 E0.00610
G1 X-15.952 Y0.858 E0.00283
G1 X-15.574 Y0.975 E0.00643
G1 X-15.377 Y1.014 E0.00326
G1 X-14.985 Y1.038 E0.00639
G1 X-14.715 Y1.023 E0.00439
G1 X-14.401 Y0.970 E0.00518
G1 X-14.181 Y0.906 E0.00373
G1 X-13.811 Y0.746 E0.00655
G1 X-13.635 Y0.644 E0.00329
G1 X-13.322 Y0.408 E0.00637
G1 X-13.169 Y0.263 E0.00342
G1 X-12.914 Y-0.049 E0.00655
G1 X-12.743 Y-0.316 E0.00515
G1 F960
G1 X-12.426 Y-0.853 E0.01446
G1 E-3.50000 F1500.00000
G1 Z0.700 F15000.000
G1 X-13.353 Y-1.082 F15000.000
G1 Z0.500 F15000.000
G1 E3.50000 F1500.00000
G1 F2400
G1 X-13.400 Y-0.893 E0.00562
G1 X-13.591 Y-0.528 E0.01191
G1 X-13.865 Y-0.219 E0.01191
G1 X-14.205 Y0.015 E0.01191
G1 X-14.590 Y0.162 E0.01191
G1 X-14.997 Y0.211 E0.01183
G1 X-15.381 Y0.168 E0.01113
G1 X-15.742 Y0.041 E0.01106
G1 X-16.067 Y-0.162 E0.01106
G1 X-16.338 Y-0.433 E0.01106
G1 X-16.541 Y-0.758 E0.01106
G1 X-16.668 Y-1.119 E0.01106
G1 X-16.711 Y-1.500 E0.01106
G1 X-16.668 Y-1.881 E0.01106
G1 X-16.563 Y-2.180 E0.00915
G1 X-16.345 Y-2.559 E0.01261
G1 X-16.067 Y-2.838 E0.01138
G1 X-15.742 Y-3.041 E0.01106
G1 X-15.381 Y-3.168 E0.01106
G1 X-15.063 Y-3.204 E0.00923
G1 X-14.601 Y-3.166 E0.01339
G1 X-14.205 Y-3.015 E0.01222
G1 X-13.865 Y-2.781 E0.01191
G1 X-13.591 Y-2.472 E0.01191
G1 X-13.400 Y-2.107 E0.01191
G1 X-13.301 Y-1.706 E0.01191
G1 X-13.301 Y-1.294 E0.01191
G1 X-13.339 Y-1.140 E0.00456
G1 X-13.685 Y-1.226 F15000.000
G1 F3000
G1 X-13.736 Y-1.021 E0.00610
G1 X-13.887 Y-0.732 E0.00941
G1 X-14.104 Y-0.488 E0.00941
G1 X-14.372 Y-0.303 E0.00941
G1 X-14.676 Y-0.187 E0.00941
G1 X-14.999 Y-0.148 E0.00937
G1 X-15.301 Y-0.182 E0.00877
G1 X-15.586 Y-0.282 E0.00874
G1 X-15.843 Y-0.443 E0.00874
G1 X-16.057 Y-0.657 E0.00874
G1 X-16.218 Y-0.914 E0.00874
G1 X-16.318 Y-1.199 E0.00874
G1 X-16.352 Y-1.500 E0.00874
G1 X-16.318 Y-1.801 E0.00874
G1 X-16.237 Y-2.031 E0.00704
G1 X-16.060 Y-2.340 E0.01029
G1 X-15.843 Y-2.557 E0.00885
G1 X-15.586 Y-2.718 E0.00874
G1 X-15.301 Y-2.818 E0.00874
G1 X-15.058 Y-2.845 E0.00706
G1 X-14.680 Y-2.814 E0.01093
G1 X-14.372 Y-2.697 E0.00952
G1 X-14.104 Y-2.512 E0.00941
G1 X-13.887 Y-2.268 E0.00941
G1 X-13.736 Y-1.979 E0.00941
G1 X-13.658 Y-1.663 E0.00941
G1 X-13.671 Y-1.284 E0.01094
G1 X-13.525 Y-1.089 F15000.000
G1 X-12.678 Y-4.893 F15000.000
G1 F2400
G1 X18.393 Y-4.893 E0.89679
G1 X18.393 Y4.893 E0.28245
G1 X12.607 Y4.893 E0.16699
G1 X12.607 Y3.249 E0.04746
G1 X9.251 Y-0.107 E0.13697
G1 X-11.839 Y-0.107 E0.60874
G1 X-12.583 Y0.872 E0.03548
G1 X-13.206 Y1.374 E0.02311
G1 X-13.914 Y1.711 E0.02261
G1 X-14.710 Y1.876 E0.02348
G1 X-15.510 Y1.850 E0.02309
G1 X-16.283 Y1.636 E0.02314
G1 X-16.975 Y1.254 E0.02284
G1 X-17.570 Y0.708 E0.02330
G1 X-18.016 Y0.045 E0.02309
G1 X-18.294 Y-0.706 E0.02309
G1 X-18.389 Y-1.502 E0.02316
G1 X-18.306 Y-2.245 E0.02157
G1 X-18.062 Y-2.954 E0.02164
G1 X-17.667 Y-3.591 E0.02164
G1 X-17.142 Y-4.126 E0.02164
G1 X-16.512 Y-4.533 E0.02164
G1 X-15.809 Y-4.791 E0.02164
G1 X-15.065 Y-4.889 E0.02164
G1 X-14.319 Y-4.820 E0.02164
G1 X-13.188 Y-4.454 E0.03431
G1 X-12.738 Y-4.893 E0.01814
G1 X-12.738 Y-5.250 F15000.000
G1 F3600
G1 X18.750 Y-5.250 E0.90883
G1 X18.750 Y5.250 E0.30306
G1 X12.250 Y5.250 E0.18761
G1 X12.250 Y3.396 E0.05350
G1 X9.104 Y0.250 E0.12843
G1 X-11.662 Y0.250 E0.59935
G1 X-12.325 Y1.123 E0.03163
G1 X-13.014 Y1.678 E0.02554
G1 X-13.809 Y2.054 E0.02536
G1 X-14.680 Y2.234 E0.02567
G1 X-15.564 Y2.205 E0.02554
G1 X-16.417 Y1.970 E0.02555
G1 X-17.189 Y1.543 E0.02545
G1 X-17.843 Y0.943 E0.02561
G1 X-18.336 Y0.208 E0.02554
G1 X-18.644 Y-0.621 E0.02554
G1 X-18.748 Y-1.501 E0.02557
G1 X-18.657 Y-2.324 E0.02391
G1 X-18.386 Y-3.108 E0.02393
G1 X-17.950 Y-3.813 E0.02393
G1 X-17.369 Y-4.405 E0.02393
G1 X-16.673 Y-4.855 E0.02393
G1 X-15.894 Y-5.140 E0.02393
G1 X-15.072 Y-5.248 E0.02393
G1 X-14.247 Y-5.172 E0.02393
G1 X-13.286 Y-4.861 E0.02915
G1 X-12.896 Y-5.250 E0.01589
G1 X-12.798 Y-5.250 E0.00284
G1 X-12.471 Y-4.952 F15000.000
G1 X-11.048 Y-0.426 F15000.000
G1 F2400
G1 X-13.330 Y-2.708 E0.09419
G1 X-13.101 Y-2.272 E0.01436
G1 X-13.002 Y-1.869 E0.01211
G1 X-11.559 Y-0.426 E0.05957
G1 X-11.979 Y-0.426 E0.01226
G1 X-12.018 Y-0.375 E0.00189
G1 X-12.982 Y-1.339 E0.03978
G1 X-13.073 Y-0.919 E0.01253
G1 X-12.238 Y-0.084 E0.03445
G1 X-12.459 Y0.206 E0.01064
G1 X-13.227 Y-0.563 E0.03174
G1 X-13.333 Y-0.361 E0.00665
G1 X-13.429 Y-0.254 E0.00420
G1 X-12.679 Y0.496 E0.03095
G1 X-12.803 Y0.659 E0.00598
G1 X-12.927 Y0.759 E0.00464
G1 X-13.670 Y0.016 E0.03067
G1 X-13.972 Y0.225 E0.01072
G1 X-13.210 Y0.987 E0.03146
G1 X-13.360 Y1.108 E0.00562
G1 X-13.522 Y1.185 E0.00525
G1 X-14.319 Y0.388 E0.03288
G1 X-14.542 Y0.473 E0.00697
G1 X-14.723 Y0.495 E0.00531
G1 X-13.868 Y1.350 E0.03527
G1 X-13.991 Y1.408 E0.00395
G1 X-14.264 Y1.464 E0.00816
G1 X-15.216 Y0.512 E0.03930
G1 X-15.499 Y0.480 E0.00829
G1 X-15.899 Y0.340 E0.01238
G1 X-14.687 Y1.552 E0.05001
G1 X-15.211 Y1.539 E0.01529
G1 X-17.260 Y0.511 F15000.000
G1 F2400
G1 X-17.336 Y0.436 E0.00313
G1 X-17.734 Y-0.157 E0.02085
G1 X-17.920 Y-0.660 E0.01564
G1 X-15.847 Y1.414 E0.08558
G1 X-15.418 Y1.532 E0.01299
G1 X-15.211 Y1.539 E0.00604
G1 X-18.037 Y-1.287 E0.11665
G1 X-18.067 Y-1.541 E0.00747
G1 X-18.039 Y-1.799 E0.00758
G1 X-16.840 Y-0.601 E0.04946
G1 X-16.980 Y-1.001 E0.01238
G1 X-17.012 Y-1.284 E0.00829
G1 X-17.978 Y-2.249 E0.03986
G1 X-17.847 Y-2.629 E0.01172
G1 X-16.997 Y-1.779 E0.03509
G1 X-16.980 Y-1.923 E0.00423
G1 X-16.890 Y-2.182 E0.00803
G1 X-17.687 Y-2.980 E0.03291
G1 X-17.492 Y-3.295 E0.01083
G1 X-16.719 Y-2.522 E0.03190
G1 X-16.594 Y-2.740 E0.00733
G1 X-16.510 Y-2.824 E0.00346
G1 X-17.259 Y-3.573 E0.03094
G1 X-17.006 Y-3.831 E0.01054
G1 X-16.254 Y-3.079 E0.03104
G1 X-15.941 Y-3.277 E0.01081
G1 X-16.708 Y-4.044 E0.03167
G1 X-16.398 Y-4.244 E0.01078
G1 X-15.579 Y-3.426 E0.03379
G1 X-15.423 Y-3.480 E0.00485
G1 X-15.154 Y-3.511 E0.00790
G1 X-16.026 Y-4.383 E0.03600
G1 X-15.761 Y-4.480 E0.00825
G1 X-15.630 Y-4.497 E0.00385
G1 X-14.624 Y-3.491 E0.04154
G1 X-14.483 Y-3.480 E0.00411
G1 X-14.000 Y-3.296 E0.01510
G1 X-13.736 Y-3.114 E0.00935
G1 X-15.178 Y-4.556 E0.05953
G1 X-15.096 Y-4.567 E0.00242
G1 X-14.636 Y-4.525 E0.01348
G1 X-10.537 Y-0.426 E0.16918
G1 X-10.027 Y-0.426 E0.01491
G1 X-13.952 Y-4.352 E0.16202
G1 X-13.197 Y-4.107 E0.02317
G1 X-9.516 Y-0.426 E0.15193
G1 X-9.005 Y-0.426 E0.01491
G1 X-12.896 Y-4.317 E0.16058
G1 X-12.640 Y-4.572 E0.01054
G1 X-8.495 Y-0.426 E0.17112
G1 X-7.984 Y-0.426 E0.01491
G1 X-12.132 Y-4.574 E0.17120
G1 X-11.621 Y-4.574 E0.01491
G1 X-7.473 Y-0.426 E0.17120
G1 X-6.963 Y-0.426 E0.01491
G1 X-11.110 Y-4.574 E0.17120
G1 X-10.600 Y-4.574 E0.01491
G1 X-6.452 Y-0.426 E0.17120
G1 X-5.941 Y-0.426 E0.01491
G1 X-10.089 Y-4.574 E0.17120
G1 X-9.578 Y-4.574 E0.01491
G1 X-5.431 Y-0.426 E0.17120
G1 X-4.920 Y-0.426 E0.01491
G1 X-9.068 Y-4.574 E0.17120
G1 X-8.557 Y-4.574 E0.01491
G1 X-4.409 Y-0.426 E0.17120
G1 X-3.899 Y-0.426 E0.01491
G1 X-8.046 Y-4.574 E0.17120
G1 X-7.536 Y-4.574 E0.01491
G1 X-3.388 Y-0.426 E0.17120
G1 X-2.877 Y-0.426 E0.01491
G1 X-7.025 Y-4.574 E0.17120
G1 X-6.514 Y-4.574 E0.01491
G1 X-2.367 Y-0.426 E0.17120
G1 X-1.856 Y-0.426 E0.01491
G1 X-6.004 Y-4.574 E0.17120
G1 X-5.493 Y-4.574 E0.01491
G1 X-1.345 Y-0.426 E0.17120
G1 X-0.835 Y-0.426 E0.01491
G1 X-4.982 Y-4.574 E0.17120
G1 X-4.472 Y-4.574 E0.01491
G1 X-0.324 Y-0.426 E0.17120
G1 X0.187 Y-0.426 E0.01491
G1 X-3.961 Y-4.574 E0.17120
G1 X-3.450 Y-4.574 E0.01491
G1 X0.697 Y-0.426 E0.17120
G1 X1.208 Y-0.426 E0.01491
G1 X-2.940 Y-4.574 E0.17120
G1 X-2.429 Y-4.574 E0.01491
G1 X1.719 Y-0.426 E0.17120
G1 X2.229 Y-0.426 E0.01491
G1 X-1.918 Y-4.574 E0.17120
G1 X-1.408 Y-4.574 E0.01491
G1 X2.740 Y-0.426 E0.17120
G1 X3.251 Y-0.426 E0.01491
G1 X-0.897 Y-4.574 E0.17120
G1 X-0.386 Y-4.574 E0.01491
G1 X3.761 Y-0.426 E0.17120
G1 X4.272 Y-0.426 E0.01491
G1 X0.124 Y-4.574 E0.17120
