; generated by Slic3r 1.3.0 on 2020-06-09 at 17:01:40

; external perimeters extrusion width = 0.40mm (4.28mm^3/s)
; perimeters extrusion width = 0.40mm (4.28mm^3/s)
; infill extrusion width = 0.40mm (5.71mm^3/s)
; solid infill extrusion width = 0.40mm (5.71mm^3/s)
; top infill extrusion width = 0.40mm (5.71mm^3/s)

M107
M83
T0
M116
; Filament gcode

G21 ; set units to millimeters
G90 ; use absolute coordinates
M83 ; use relative distances for extrusion
G1 E-3.50000 F1500.00000
G1 Z0.400 F15000.000
G1 X-12.281 Y7.073 F15000.000
G1 Z0.300 F15000.000
G1 E3.50000 F1500.00000
G1 F960
G1 X-12.963 Y6.950 E0.05345
G1 X-17.195 Y5.749 E0.33899
G1 X-18.015 Y5.448 E0.06733
G1 X-18.735 Y5.089 E0.06197
G1 X-19.469 Y4.615 E0.06733
G1 X-20.092 Y4.107 E0.06197
G1 X-20.704 Y3.483 E0.06733
G1 X-21.200 Y2.850 E0.06197
G1 X-21.660 Y2.107 E0.06733
G1 X-22.004 Y1.381 E0.06197
G1 X-22.290 Y0.555 E0.06733
G1 X-22.466 Y-0.230 E0.06197
G1 X-22.563 Y-1.098 E0.06733
G1 X-22.559 Y-1.935 E0.06448
G1 X-22.446 Y-2.872 E0.07278
G1 X-22.224 Y-3.758 E0.07038
G1 X-21.859 Y-4.694 E0.07738
G1 X-21.469 Y-5.431 E0.06434
G1 X-20.969 Y-6.159 E0.06805
G1 X-20.402 Y-6.805 E0.06626
G1 X-19.700 Y-7.436 E0.07275
G1 X-18.988 Y-7.936 E0.06699
G1 X-18.156 Y-8.382 E0.07275
G1 X-17.346 Y-8.698 E0.06700
G1 X-16.432 Y-8.934 E0.07274
G1 X-15.539 Y-9.049 E0.06945
G1 X-14.193 Y-9.039 E0.10368
G1 X19.271 Y-6.071 E2.58908
G1 X20.877 Y-5.533 E0.13052
G1 X22.065 Y-4.325 E0.13052
G1 X22.586 Y-2.450 E0.15001
G1 X22.586 Y5.450 E0.60882
G1 X22.191 Y7.097 E0.13052
G1 X21.093 Y8.387 E0.13052
G1 X18.950 Y9.086 E0.17373
G1 X12.050 Y9.086 E0.53175
G1 X-12.221 Y7.078 E1.87685
G1 E-3.50000 F1500.00000
G1 Z0.700 F15000.000
G1 X-14.477 Y0.579 F15000.000
G1 Z0.300 F15000.000
G1 E3.50000 F1500.00000
G1 F600
G1 X-14.994 Y0.643 E0.04017
G1 X-15.477 Y0.588 E0.03742
G1 X-15.929 Y0.430 E0.03697
G1 X-16.336 Y0.175 E0.03697
G1 X-16.675 Y-0.164 E0.03697
G1 X-16.930 Y-0.571 E0.03697
G1 X-17.088 Y-1.023 E0.03697
G1 X-17.142 Y-1.499 E0.03693
G1 X-17.089 Y-1.972 E0.03666
G1 X-16.934 Y-2.421 E0.03662
G1 X-16.683 Y-2.825 E0.03662
G1 X-16.350 Y-3.163 E0.03662
G1 X-15.942 Y-3.425 E0.03735
G1 X-15.470 Y-3.586 E0.03842
G1 X-15.032 Y-3.642 E0.03405
G1 X-14.559 Y-3.596 E0.03662
G1 X-14.102 Y-3.445 E0.03711
G1 X-13.658 Y-3.172 E0.04013
G1 X-13.291 Y-2.794 E0.04062
G1 X-13.027 Y-2.338 E0.04062
G1 X-12.882 Y-1.831 E0.04062
G1 X-12.865 Y-1.304 E0.04062
G1 X-12.978 Y-0.789 E0.04062
G1 X-13.217 Y-0.308 E0.04143
G1 X-13.585 Y0.105 E0.04261
G1 X-13.985 Y0.388 E0.03778
G1 X-14.421 Y0.557 E0.03600
G1 X-14.633 Y-0.042 F15000.000
G1 F600
G1 X-14.998 Y0.003 E0.02831
G1 X-15.334 Y-0.035 E0.02610
G1 X-15.652 Y-0.146 E0.02593
G1 X-15.937 Y-0.325 E0.02593
G1 X-16.175 Y-0.563 E0.02593
G1 X-16.354 Y-0.848 E0.02593
G1 X-16.465 Y-1.166 E0.02593
G1 X-16.503 Y-1.500 E0.02591
G1 X-16.466 Y-1.831 E0.02570
G1 X-16.356 Y-2.146 E0.02568
G1 X-16.181 Y-2.429 E0.02568
G1 X-15.947 Y-2.667 E0.02568
G1 X-15.663 Y-2.849 E0.02594
G1 X-15.326 Y-2.964 E0.02748
G1 X-15.022 Y-3.002 E0.02359
G1 X-14.691 Y-2.970 E0.02568
G1 X-14.372 Y-2.865 E0.02587
G1 X-14.059 Y-2.672 E0.02830
G1 X-13.802 Y-2.407 E0.02848
G1 X-13.616 Y-2.087 E0.02849
G1 X-13.515 Y-1.732 E0.02848
G1 X-13.503 Y-1.363 E0.02849
G1 X-13.582 Y-1.001 E0.02849
G1 X-13.748 Y-0.667 E0.02877
G1 X-14.012 Y-0.372 E0.03047
G1 X-14.289 Y-0.176 E0.02616
G1 X-14.577 Y-0.064 E0.02386
G1 X-14.633 Y-0.042 F15000.000
G1 E-3.50000 F1500.00000
G1 Z0.700 F15000.000
G1 X17.964 Y-0.774 F15000.000
G1 Z0.300 F15000.000
G1 E3.50000 F1500.00000
G1 F720
G1 X17.964 Y4.464 E0.40373
G1 X13.036 Y4.464 E0.37984
G1 X13.036 Y2.464 E0.15413
G1 X-11.571 Y2.464 E1.89632
G1 X-13.070 Y0.965 E0.16339
G1 X-14.405 Y1.398 E0.10816
G1 X-15.057 Y1.457 E0.05042
G1 X-15.706 Y1.373 E0.05042
G1 X-16.320 Y1.147 E0.05042
G1 X-16.870 Y0.792 E0.05042
G1 X-17.328 Y0.325 E0.05042
G1 X-17.672 Y-0.231 E0.05042
G1 X-17.886 Y-0.850 E0.05042
G1 X-17.957 Y-1.495 E0.05007
G1 X-17.873 Y-2.196 E0.05436
G1 X-17.595 Y-2.909 E0.05898
G1 X-17.226 Y-3.446 E0.05022
G1 X-16.700 Y-3.919 E0.05456
G1 X-16.077 Y-4.253 E0.05445
G1 X-15.397 Y-4.429 E0.05411
G1 X-14.629 Y-4.432 E0.05921
G1 X-13.998 Y-4.281 E0.05001
G1 X-13.360 Y-3.959 E0.05503
G1 X-12.822 Y-3.497 E0.05463
G1 X-12.393 Y-2.896 E0.05694
G1 X-11.830 Y-1.464 E0.11852
G1 X17.964 Y-1.464 E2.29614
G1 X17.964 Y-0.834 E0.04855
G1 X18.600 Y-0.834 F15000.000
G1 F720
G1 X18.600 Y5.100 E0.45734
G1 X12.400 Y5.100 E0.47781
G1 X12.400 Y3.100 E0.15413
G1 X-11.834 Y3.100 E1.86763
G1 X-13.245 Y1.690 E0.15370
G1 X-14.277 Y2.024 E0.08363
G1 X-15.069 Y2.097 E0.06133
G1 X-15.858 Y1.994 E0.06132
G1 X-16.605 Y1.719 E0.06133
G1 X-17.274 Y1.288 E0.06132
G1 X-17.831 Y0.720 E0.06133
G1 X-18.250 Y0.043 E0.06133
G1 X-18.510 Y-0.709 E0.06133
G1 X-18.597 Y-1.498 E0.06120
G1 X-18.495 Y-2.352 E0.06624
G1 X-18.161 Y-3.208 E0.07085
G1 X-17.707 Y-3.868 E0.06172
G1 X-17.067 Y-4.443 E0.06629
G1 X-16.310 Y-4.849 E0.06625
G1 X-15.479 Y-5.064 E0.06613
G1 X-14.555 Y-5.068 E0.07120
G1 X-13.777 Y-4.882 E0.06162
G1 X-13.005 Y-4.491 E0.06669
G1 X-12.349 Y-3.929 E0.06655
G1 X-11.830 Y-3.201 E0.06894
G1 X-11.397 Y-2.100 E0.09116
G1 X18.600 Y-2.100 E2.31175
G1 X18.600 Y-0.894 E0.09291
G1 X18.395 Y-0.491 F15000.000
G1 E-3.50000 F1500.00000
G1 Z0.700 F15000.000
G1 X17.261 Y3.896 F15000.000
G1 Z0.300 F15000.000
G1 E3.50000 F1500.00000
G1 F960
G1 X17.396 Y3.761 E0.01506
G1 X17.396 Y2.841 E0.07263
G1 X16.341 Y3.896 E0.11778
G1 X15.420 Y3.896 E0.07263
G1 X17.396 Y1.920 E0.22049
G1 X17.396 Y1.000 E0.07263
G1 X14.500 Y3.896 E0.32320
G1 X13.604 Y3.896 E0.07072
G1 X13.604 Y3.872 E0.00191
G1 X17.396 Y0.080 E0.42321
G1 X17.396 Y-0.841 E0.07263
G1 X13.604 Y2.952 E0.42321
G1 X13.604 Y2.031 E0.07263
G1 X16.531 Y-0.896 E0.32668
G1 X15.611 Y-0.896 E0.07263
G1 X12.818 Y1.896 E0.31162
G1 X11.898 Y1.896 E0.07263
G1 X14.690 Y-0.896 E0.31162
G1 X13.770 Y-0.896 E0.07263
G1 X10.978 Y1.896 E0.31162
G1 X10.057 Y1.896 E0.07263
G1 X12.850 Y-0.896 E0.31162
G1 X11.929 Y-0.896 E0.07263
G1 X9.137 Y1.896 E0.31162
G1 X8.216 Y1.896 E0.07263
G1 X11.009 Y-0.896 E0.31162
G1 X10.088 Y-0.896 E0.07263
G1 X7.296 Y1.896 E0.31162
G1 X6.376 Y1.896 E0.07263
G1 X9.168 Y-0.896 E0.31162
G1 X8.248 Y-0.896 E0.07263
G1 X5.455 Y1.896 E0.31162
G1 X4.535 Y1.896 E0.07263
G1 X7.327 Y-0.896 E0.31162
G1 X6.407 Y-0.896 E0.07263
G1 X3.614 Y1.896 E0.31162
G1 X2.694 Y1.896 E0.07263
G1 X5.486 Y-0.896 E0.31162
G1 X4.566 Y-0.896 E0.07263
G1 X1.773 Y1.896 E0.31162
G1 X0.853 Y1.896 E0.07263
G1 X3.645 Y-0.896 E0.31162
G1 X2.725 Y-0.896 E0.07263
G1 X-0.067 Y1.896 E0.31162
G1 X-0.988 Y1.896 E0.07263
G1 X1.805 Y-0.896 E0.31162
G1 X0.884 Y-0.896 E0.07263
G1 X-1.908 Y1.896 E0.31162
G1 X-2.829 Y1.896 E0.07263
G1 X-0.036 Y-0.896 E0.31162
G1 X-0.957 Y-0.896 E0.07263
G1 X-3.749 Y1.896 E0.31162
G1 X-4.669 Y1.896 E0.07263
G1 X-1.877 Y-0.896 E0.31162
G1 X-2.797 Y-0.896 E0.07263
G1 X-5.590 Y1.896 E0.31162
G1 X-6.510 Y1.896 E0.07263
G1 X-3.718 Y-0.896 E0.31162
G1 X-4.638 Y-0.896 E0.07263
G1 X-7.431 Y1.896 E0.31162
G1 X-8.351 Y1.896 E0.07263
G1 X-5.559 Y-0.896 E0.31162
G1 X-6.479 Y-0.896 E0.07263
G1 X-9.271 Y1.896 E0.31162
G1 X-10.192 Y1.896 E0.07263
G1 X-7.399 Y-0.896 E0.31162
G1 X-8.320 Y-0.896 E0.07263
G1 X-11.112 Y1.896 E0.31162
G1 X-11.375 Y1.896 E0.02075
G1 X-11.704 Y1.567 E0.03669
G1 X-9.240 Y-0.896 E0.27493
G1 X-10.161 Y-0.896 E0.07263
G1 X-12.164 Y1.107 E0.22358
G1 X-12.323 Y0.948 E0.01777
G1 X-12.291 Y0.932 E0.00290
G1 X-12.497 Y0.520 E0.03635
G1 X-11.081 Y-0.896 E0.15801
G1 X-11.314 Y-0.896 E0.01838
G1 X-11.286 Y-0.761 E0.01091
G1 X-12.358 Y-0.540 E0.08634
G1 X-12.493 Y-0.405 E0.01505
G1 X-12.303 Y-1.147 F15000.000
G1 F960
G1 X-12.379 Y-1.515 E0.01563
G1 F960
G1 X-12.455 Y-1.884 E0.01138
G1 F960
G1 X-12.657 Y-2.484 E0.01202
G1 F960
G1 X-12.759 Y-2.698 E0.00265
G1 X-12.981 Y-3.041 E0.00459
G1 X-13.128 Y-3.217 E0.00258
G1 X-13.403 Y-3.475 E0.00423
G1 X-13.590 Y-3.614 E0.00261
G1 X-13.942 Y-3.809 E0.00452
G1 X-14.140 Y-3.892 E0.00241
G1 X-14.468 Y-3.985 E0.00383
G1 X-14.676 Y-4.020 E0.00237
G1 X-15.029 Y-4.037 E0.00396
G1 X-15.344 Y-4.017 E0.00354
G1 X-15.568 Y-3.973 E0.00256
G1 X-15.926 Y-3.866 E0.00419
G1 X-16.123 Y-3.779 E0.00242
G1 X-16.462 Y-3.580 E0.00440
G1 X-16.608 Y-3.467 E0.00207
G1 X-16.916 Y-3.174 E0.00478
G1 X-17.232 Y-2.716 E0.00623
G1 X-17.476 Y-2.096 E0.00748
G1 X-17.549 Y-1.494 E0.00681
G1 X-17.483 Y-0.923 E0.00644
G1 X-17.301 Y-0.403 E0.00619
G1 X-17.006 Y0.073 E0.00628
G1 X-16.597 Y0.486 E0.00653
G1 X-16.097 Y0.799 E0.00662
G1 X-15.576 Y0.982 E0.00619
G1 X-15.049 Y1.047 E0.00596
G1 X-14.389 Y0.971 E0.00746
G1 X-13.775 Y0.753 E0.00730
G1 F960
G1 X-13.461 Y0.596 E0.00753
G1 F960
G1 X-13.148 Y0.438 E0.01083
G1 E-3.50000 F1500.00000
G1 Z0.700 F15000.000
G1 X-13.846 Y-0.235 F15000.000
G1 Z0.500 F15000.000
G1 E3.50000 F1500.00000
G1 F2400
G1 X-14.190 Y0.008 E0.01215
G1 X-14.582 Y0.160 E0.01215
G1 X-14.997 Y0.211 E0.01205
G1 X-15.381 Y0.168 E0.01116
G1 X-15.742 Y0.041 E0.01106
G1 X-16.067 Y-0.162 E0.01106
G1 X-16.338 Y-0.433 E0.01106
G1 X-16.541 Y-0.758 E0.01106
G1 X-16.668 Y-1.119 E0.01106
G1 X-16.711 Y-1.500 E0.01105
G1 X-16.669 Y-1.877 E0.01096
G1 X-16.545 Y-2.236 E0.01095
G1 X-16.344 Y-2.558 E0.01095
G1 X-16.078 Y-2.828 E0.01095
G1 X-15.749 Y-3.039 E0.01127
G1 X-15.337 Y-3.171 E0.01249
G1 X-15.025 Y-3.211 E0.00907
G1 X-14.648 Y-3.174 E0.01095
G1 X-14.284 Y-3.054 E0.01106
G1 X-13.918 Y-2.829 E0.01239
G1 X-13.599 Y-2.471 E0.01385
G1 X-13.424 Y-2.169 E0.01006
G1 X-13.380 Y-2.014 E0.00465
G1 X-13.149 Y-2.014 E0.00667
G1 X-13.385 Y-0.932 E0.03196
G1 X-13.573 Y-0.555 E0.01215
G1 X-13.807 Y-0.281 E0.01042
G1 X-14.079 Y-0.513 F15000.000
G1 F3000
G1 X-14.360 Y-0.309 E0.01004
G1 X-14.670 Y-0.189 E0.00960
G1 X-14.999 Y-0.148 E0.00955
G1 X-15.301 Y-0.182 E0.00878
G1 X-15.586 Y-0.282 E0.00874
G1 X-15.843 Y-0.443 E0.00874
G1 X-16.057 Y-0.657 E0.00874
G1 X-16.218 Y-0.914 E0.00874
G1 X-16.318 Y-1.199 E0.00874
G1 X-16.352 Y-1.500 E0.00873
G1 X-16.318 Y-1.798 E0.00866
G1 X-16.220 Y-2.081 E0.00865
G1 X-16.062 Y-2.336 E0.00865
G1 X-15.852 Y-2.549 E0.00865
G1 X-15.596 Y-2.714 E0.00877
G1 X-15.260 Y-2.821 E0.01019
G1 X-15.020 Y-2.851 E0.00697
G1 X-14.722 Y-2.823 E0.00865
G1 X-14.435 Y-2.728 E0.00870
G1 X-14.150 Y-2.552 E0.00968
G1 X-13.890 Y-2.260 E0.01129
G1 X-13.756 Y-2.028 E0.00773
G1 X-13.650 Y-1.657 E0.01114
G1 X-13.592 Y-1.657 E0.00165
G1 X-13.725 Y-1.052 E0.01789
G1 X-13.873 Y-0.754 E0.00960
G1 X-14.040 Y-0.559 E0.00741
G1 X-14.073 Y-0.499 F15000.000
G1 E-3.50000 F1500.00000
G1 Z0.900 F15000.000
G1 X-15.367 Y-4.868 F15000.000
G1 Z0.500 F15000.000
G1 E3.50000 F1500.00000
G1 F2400
G1 X-14.670 Y-4.872 E0.02013
G1 X-13.875 Y-4.696 E0.02351
G1 X-13.144 Y-4.335 E0.02351
G1 X-13.045 Y-4.266 E0.00348
G1 X-12.521 Y-3.810 E0.02005
G1 X-12.014 Y-3.102 E0.02514
G1 X-11.545 Y-1.893 E0.03743
G1 X18.393 Y-1.893 E0.86409
G1 X18.393 Y4.893 E0.19586
G1 X12.607 Y4.893 E0.16699
G1 X12.607 Y2.893 E0.05773
G1 X-11.749 Y2.893 E0.70297
G1 X-13.188 Y1.454 E0.05875
G1 X-14.319 Y1.820 E0.03431
G1 X-15.065 Y1.889 E0.02164
G1 X-15.809 Y1.791 E0.02164
G1 X-16.512 Y1.533 E0.02164
G1 X-17.142 Y1.126 E0.02164
G1 X-17.667 Y0.591 E0.02164
G1 X-18.062 Y-0.046 E0.02164
G1 X-18.306 Y-0.755 E0.02164
G1 X-18.389 Y-1.498 E0.02157
G1 X-18.293 Y-2.297 E0.02325
G1 X-18.010 Y-3.059 E0.02344
G1 X-17.565 Y-3.714 E0.02285
G1 X-16.970 Y-4.256 E0.02323
G1 X-16.248 Y-4.651 E0.02376
G1 X-15.427 Y-4.861 E0.02446
G1 X-15.467 Y-5.216 F15000.000
G1 F3600
G1 X-14.649 Y-5.229 E0.02361
G1 X-14.487 Y-5.209 E0.00472
G1 X-13.769 Y-5.038 E0.02131
G1 X-13.616 Y-4.979 E0.00472
G1 X-12.960 Y-4.641 E0.02131
G1 X-12.826 Y-4.548 E0.00472
G1 X-12.269 Y-4.064 E0.02131
G1 X-12.161 Y-3.942 E0.00470
G1 X-11.696 Y-3.271 E0.02357
G1 X-11.300 Y-2.250 E0.03159
G1 X18.750 Y-2.250 E0.86734
G1 X18.750 Y5.250 E0.21647
G1 X12.250 Y5.250 E0.18761
G1 X12.250 Y3.250 E0.05773
G1 X-11.896 Y3.250 E0.69693
G1 X-13.286 Y1.861 E0.05671
G1 X-14.247 Y2.172 E0.02915
G1 X-15.072 Y2.248 E0.02393
G1 X-15.894 Y2.140 E0.02393
G1 X-16.673 Y1.855 E0.02393
G1 X-17.369 Y1.405 E0.02393
G1 X-17.950 Y0.813 E0.02393
G1 X-18.386 Y0.108 E0.02393
G1 X-18.657 Y-0.676 E0.02393
G1 X-18.748 Y-1.499 E0.02391
G1 X-18.643 Y-2.382 E0.02567
G1 X-18.332 Y-3.218 E0.02573
G1 X-17.836 Y-3.950 E0.02552
G1 X-17.179 Y-4.548 E0.02565
G1 X-16.394 Y-4.978 E0.02584
G1 X-15.527 Y-5.209 E0.02590
G1 X-15.417 Y-5.154 F15000.000
G1 X-12.936 Y-2.333 F15000.000
G1 F2400
G1 X-13.724 Y-3.143 E0.03303
G1 X-13.780 Y-3.178 E0.00193
G1 X-15.147 Y-4.544 E0.05648
G1 X-15.461 Y-4.537 E0.00918
G1 X-15.612 Y-4.498 E0.00457
G1 X-14.609 Y-3.495 E0.04145
G1 X-14.993 Y-3.532 E0.01127
G1 X-15.139 Y-3.513 E0.00431
G1 X-16.016 Y-4.391 E0.03626
G1 X-16.153 Y-4.355 E0.00412
G1 X-16.372 Y-4.235 E0.00730
G1 X-15.561 Y-3.424 E0.03350
G1 X-15.865 Y-3.327 E0.00931
G1 X-15.932 Y-3.284 E0.00235
G1 X-16.702 Y-4.054 E0.03182
G1 X-16.799 Y-4.001 E0.00323
G1 X-16.988 Y-3.828 E0.00748
G1 X-16.244 Y-3.084 E0.03077
G1 X-16.502 Y-2.831 E0.01057
G1 X-17.256 Y-3.585 E0.03117
G1 X-17.332 Y-3.515 E0.00301
G1 X-17.481 Y-3.298 E0.00769
G1 X-16.718 Y-2.535 E0.03156
G1 X-16.831 Y-2.352 E0.00628
G1 X-16.887 Y-2.192 E0.00495
G1 X-17.689 Y-2.995 E0.03319
G1 X-17.839 Y-2.634 E0.01144
G1 X-16.996 Y-1.790 E0.03487
G1 X-17.032 Y-1.462 E0.00966
G1 X-17.014 Y-1.297 E0.00485
G1 X-17.978 Y-2.261 E0.03986
G1 X-18.035 Y-1.806 E0.01339
G1 X-16.846 Y-0.618 E0.04914
G1 X-16.581 Y-0.171 E0.01518
G1 X-16.253 Y0.156 E0.01355
G1 X-15.807 Y0.422 E0.01518
G1 X-16.962 Y0.801 F15000.000
G1 F2400
G1 X-16.877 Y0.886 E0.00353
G1 X-16.314 Y1.249 E0.01957
G1 X-15.821 Y1.430 E0.01536
G1 X-17.925 Y-0.674 E0.08699
G1 X-17.994 Y-0.872 E0.00612
G1 X-18.041 Y-1.302 E0.01264
G1 X-15.196 Y1.544 E0.11764
G1 X-15.020 Y1.567 E0.00516
G1 X-14.692 Y1.537 E0.00966
G1 X-15.882 Y0.346 E0.04923
G1 X-15.499 Y0.480 E0.01189
G1 X-15.203 Y0.514 E0.00868
G1 X-14.246 Y1.471 E0.03958
G1 X-13.860 Y1.346 E0.01187
G1 X-14.712 Y0.493 E0.03525
G1 X-14.532 Y0.471 E0.00530
G1 X-14.310 Y0.385 E0.00698
G1 X-13.473 Y1.221 E0.03457
G1 X-13.087 Y1.096 E0.01187
G1 X-13.963 Y0.220 E0.03621
G1 X-13.664 Y0.008 E0.01072
G1 X-11.098 Y2.574 E0.10607
G1 X-10.586 Y2.574 E0.01495
G1 X-13.423 Y-0.263 E0.11727
G1 X-13.310 Y-0.395 E0.00506
G1 X-13.222 Y-0.573 E0.00583
G1 X-10.075 Y2.574 E0.13009
G1 X-9.563 Y2.574 E0.01495
G1 X-13.066 Y-0.929 E0.14481
G1 X-12.975 Y-1.349 E0.01256
G1 X-9.052 Y2.574 E0.16217
G1 X-8.541 Y2.574 E0.01495
G1 X-12.883 Y-1.769 E0.17952
G1 X-12.792 Y-2.189 E0.01256
G1 X-8.029 Y2.574 E0.19688
G1 X-11.589 Y-1.498 F15000.000
G1 F2400
G1 X-11.752 Y-1.498 E0.00474
G1 X-11.854 Y-1.763 E0.00831
G1 X-14.629 Y-4.538 E0.11470
G1 X-14.035 Y-4.396 E0.01787
G1 X-13.918 Y-4.338 E0.00381
G1 X-12.178 Y-2.598 E0.07192
G1 X-11.665 Y-1.574 F15000.000
G1 F2400
G1 X-7.518 Y2.574 E0.17145
G1 X-7.006 Y2.574 E0.01495
G1 X-11.154 Y-1.574 E0.17145
G1 X-10.642 Y-1.574 E0.01495
G1 X-6.495 Y2.574 E0.17145
G1 X-5.983 Y2.574 E0.01495
G1 X-10.131 Y-1.574 E0.17145
G1 X-9.619 Y-1.574 E0.01495
G1 X-5.472 Y2.574 E0.17145
G1 X-4.960 Y2.574 E0.01495
G1 X-9.108 Y-1.574 E0.17145
G1 X-8.597 Y-1.574 E0.01495
G1 X-4.449 Y2.574 E0.17145
G1 X-3.938 Y2.574 E0.01495
G1 X-8.085 Y-1.574 E0.17145
G1 X-7.574 Y-1.574 E0.01495
G1 X-3.426 Y2.574 E0.17145
G1 X-2.915 Y2.574 E0.01495
G1 X-7.062 Y-1.574 E0.17145
G1 X-6.551 Y-1.574 E0.01495
G1 X-2.403 Y2.574 E0.17145
G1 X-1.892 Y2.574 E0.01495
G1 X-6.039 Y-1.574 E0.17145
G1 X-5.528 Y-1.574 E0.01495
G1 X-1.380 Y2.574 E0.17145
G1 X-0.869 Y2.574 E0.01495
G1 X-5.017 Y-1.574 E0.17145
G1 X-4.505 Y-1.574 E0.01495
G1 X-0.358 Y2.574 E0.17145
G1 X0.154 Y2.574 E0.01495
G1 X-3.994 Y-1.574 E0.17145
G1 X-3.482 Y-1.574 E0.01495
G1 X0.665 Y2.574 E0.17145
G1 X1.177 Y2.574 E0.01495
G1 X-2.971 Y-1.574 E0.17145
G1 X-2.459 Y-1.574 E0.01495
G1 X1.688 Y2.574 E0.17145
G1 X2.200 Y2.574 E0.01495
G1 X-1.948 Y-1.574 E0.17145
G1 X-1.437 Y-1.574 E0.01495
G1 X2.711 Y2.574 E0.17145
G1 X3.222 Y2.574 E0.01495
G1 X-0.925 Y-1.574 E0.17145
G1 X-0.414 Y-1.574 E0.01495
G1 X3.734 Y2.574 E0.17145
G1 X4.245 Y2.574 E0.01495
G1 X0.098 Y-1.574 E0.17145
G1 X0.609 Y-1.574 E0.01495
G1 X4.757 Y2.574 E0.17145
G1 X5.268 Y2.574 E0.01495
G1 X1.121 Y-1.574 E0.17145
