; generated by Slic3r 1.3.0 on 2020-05-11 at 17:01:46

; external perimeters extrusion width = 0.40mm (4.28mm^3/s)
; perimeters extrusion width = 0.40mm (4.28mm^3/s)
; infill extrusion width = 0.40mm (5.71mm^3/s)
; solid infill extrusion width = 0.40mm (5.71mm^3/s)
; top infill extrusion width = 0.40mm (5.71mm^3/s)

M107
M83
T0
M116
; Filament gcode

G21 ; set units to millimeters
G90 ; use absolute coordinates
M83 ; use relative distances for extrusion
G1 E-3.50000 F1500.00000
G1 Z0.400 F15000.000
G1 X26.450 Y-27.586 F15000.000
G1 Z0.300 F15000.000
G1 E3.50000 F1500.00000
G1 F960
G1 X28.097 Y-27.191 E0.13052
G1 X29.387 Y-26.093 E0.13052
G1 X30.086 Y-23.950 E0.17373
G1 X30.086 Y23.950 E3.69144
G1 X29.691 Y25.597 E0.13052
G1 X28.593 Y26.887 E0.13052
G1 X26.450 Y27.586 E0.17373
G1 X-26.450 Y27.586 E4.07676
G1 X-28.097 Y27.191 E0.13052
G1 X-29.387 Y26.093 E0.13052
G1 X-30.086 Y23.950 E0.17373
G1 X-30.086 Y-23.950 E3.69144
G1 X-29.691 Y-25.597 E0.13052
G1 X-28.593 Y-26.887 E0.13052
G1 X-26.450 Y-27.586 E0.17373
G1 X26.390 Y-27.586 E4.07214
G1 E-3.50000 F1500.00000
G1 Z0.700 F15000.000
G1 X-21.875 Y19.003 F15000.000
G1 Z0.300 F15000.000
G1 E3.50000 F1500.00000
G1 F600
G1 X-21.669 Y19.302 E0.02792
G1 X-21.541 Y19.640 E0.02792
G1 X-21.497 Y20.000 E0.02792
G1 X-21.541 Y20.360 E0.02792
G1 X-21.669 Y20.698 E0.02792
G1 X-21.875 Y20.997 E0.02792
G1 X-22.146 Y21.237 E0.02792
G1 X-22.467 Y21.405 E0.02792
G1 X-22.819 Y21.492 E0.02792
G1 X-23.181 Y21.492 E0.02792
G1 X-23.533 Y21.405 E0.02792
G1 X-23.854 Y21.237 E0.02792
G1 X-24.125 Y20.997 E0.02792
G1 X-24.331 Y20.698 E0.02792
G1 X-24.459 Y20.360 E0.02792
G1 X-24.503 Y19.998 E0.02808
G1 X-24.454 Y19.625 E0.02897
G1 X-24.331 Y19.302 E0.02668
G1 X-24.125 Y19.003 E0.02792
G1 X-23.820 Y18.733 E0.03137
G1 X-23.820 Y18.666 E0.00523
G1 X-23.181 Y18.508 E0.05073
G1 X-22.819 Y18.508 E0.02792
G1 X-22.467 Y18.595 E0.02792
G1 X-22.146 Y18.763 E0.02792
G1 X-21.920 Y18.964 E0.02330
G1 X-21.875 Y19.003 F15000.000
G1 E-3.50000 F1500.00000
G1 Z0.700 F15000.000
G1 X-25.464 Y2.420 F15000.000
G1 Z0.300 F15000.000
G1 E3.50000 F1500.00000
G1 F720
G1 X-25.464 Y-19.672 E1.70255
G1 X-25.106 Y-19.694 E0.02767
G1 X-25.081 Y-19.487 E0.01605
G1 X-24.898 Y-19.004 E0.03982
G1 X-24.604 Y-18.579 E0.03982
G1 X-24.217 Y-18.236 E0.03982
G1 X-23.760 Y-17.996 E0.03982
G1 X-23.258 Y-17.872 E0.03982
G1 X-22.742 Y-17.872 E0.03982
G1 X-22.240 Y-17.996 E0.03982
G1 X-21.783 Y-18.236 E0.03982
G1 X-21.396 Y-18.579 E0.03982
G1 X-21.102 Y-19.004 E0.03982
G1 X-20.919 Y-19.487 E0.03982
G1 X-20.857 Y-20.000 E0.03982
G1 X-20.919 Y-20.513 E0.03982
G1 X-21.102 Y-20.996 E0.03982
G1 X-21.396 Y-21.421 E0.03982
G1 X-21.783 Y-21.764 E0.03982
G1 X-22.240 Y-22.004 E0.03982
G1 X-22.742 Y-22.128 E0.03982
G1 X-23.258 Y-22.128 E0.03982
G1 X-23.760 Y-22.004 E0.03982
G1 X-24.217 Y-21.764 E0.03982
G1 X-24.604 Y-21.421 E0.03982
G1 X-24.898 Y-20.996 E0.03982
G1 X-25.081 Y-20.513 E0.03982
G1 X-25.106 Y-20.306 E0.01604
G1 X-25.464 Y-20.328 E0.02767
G1 X-25.464 Y-22.964 E0.20318
G1 X-17.536 Y-22.964 E0.61103
G1 X-17.536 Y-18.942 E0.31000
G1 X-17.491 Y-18.546 E0.03073
G1 X-17.340 Y-18.114 E0.03524
G1 X-17.097 Y-17.727 E0.03524
G1 X-16.773 Y-17.403 E0.03524
G1 X-16.386 Y-17.160 E0.03524
G1 X-15.954 Y-17.009 E0.03524
G1 X-15.558 Y-16.964 E0.03073
G1 X17.558 Y-16.964 E2.55213
G1 X17.954 Y-17.009 E0.03073
G1 X18.386 Y-17.160 E0.03524
G1 X18.773 Y-17.403 E0.03524
G1 X19.097 Y-17.727 E0.03524
G1 X19.340 Y-18.114 E0.03524
G1 X19.491 Y-18.546 E0.03524
G1 X19.536 Y-18.942 E0.03073
G1 X19.536 Y-22.964 E0.31000
G1 X25.464 Y-22.964 E0.45690
G1 X25.464 Y-20.328 E0.20318
G1 X25.106 Y-20.306 E0.02767
G1 X25.083 Y-20.493 E0.01452
G1 X24.901 Y-20.991 E0.04087
G1 X24.604 Y-21.421 E0.04026
G1 X24.217 Y-21.764 E0.03982
G1 X23.760 Y-22.004 E0.03982
G1 X23.278 Y-22.123 E0.03829
G1 X22.747 Y-22.129 E0.04087
G1 X22.240 Y-22.004 E0.04026
G1 X21.783 Y-21.764 E0.03982
G1 X21.396 Y-21.421 E0.03982
G1 X21.102 Y-20.996 E0.03982
G1 X20.919 Y-20.513 E0.03982
G1 X20.857 Y-20.000 E0.03982
G1 X20.917 Y-19.507 E0.03829
G1 X21.099 Y-19.009 E0.04087
G1 X21.396 Y-18.579 E0.04026
G1 X21.783 Y-18.236 E0.03982
G1 X22.240 Y-17.996 E0.03982
G1 X22.742 Y-17.872 E0.03982
G1 X23.258 Y-17.872 E0.03982
G1 X23.760 Y-17.996 E0.03982
G1 X24.217 Y-18.236 E0.03982
G1 X24.604 Y-18.579 E0.03982
G1 X24.898 Y-19.004 E0.03982
G1 X25.081 Y-19.487 E0.03982
G1 X25.106 Y-19.694 E0.01605
G1 X25.464 Y-19.672 E0.02767
G1 X25.464 Y22.964 E3.28580
G1 X23.732 Y22.964 E0.13352
G1 X24.396 Y22.033 E0.08814
G1 X24.770 Y21.031 E0.08246
G1 X24.893 Y20.000 E0.07999
G1 X24.770 Y18.969 E0.08000
G1 X24.396 Y17.967 E0.08246
G1 X23.727 Y17.029 E0.08875
G1 X23.017 Y16.400 E0.07314
G1 X21.996 Y15.874 E0.08849
G1 X20.799 Y15.579 E0.09499
G1 X21.357 Y14.834 E0.07175
G1 X22.727 Y12.324 E0.22033
G1 X23.727 Y9.645 E0.22033
G1 X24.334 Y6.852 E0.22033
G1 X24.538 Y4.000 E0.22033
G1 X24.334 Y1.148 E0.22033
G1 X23.727 Y-1.645 E0.22033
G1 X22.727 Y-4.324 E0.22033
G1 X21.357 Y-6.834 E0.22033
G1 X20.799 Y-7.579 E0.07175
G1 X21.996 Y-7.874 E0.09499
G1 X23.017 Y-8.400 E0.08849
G1 X23.727 Y-9.029 E0.07314
G1 X24.396 Y-9.967 E0.08875
G1 X24.770 Y-10.969 E0.08246
G1 X24.893 Y-12.000 E0.07999
G1 X24.770 Y-13.031 E0.08000
G1 X24.396 Y-14.033 E0.08246
G1 X23.727 Y-14.971 E0.08875
G1 X23.017 Y-15.600 E0.07314
G1 X21.996 Y-16.126 E0.08849
G1 X21.074 Y-16.353 E0.07321
G1 X19.926 Y-16.353 E0.08843
G1 X19.004 Y-16.126 E0.07321
G1 X17.983 Y-15.600 E0.08849
G1 X17.293 Y-14.989 E0.07107
G1 X17.094 Y-14.740 E0.02452
G1 X16.603 Y-14.028 E0.06663
G1 X16.284 Y-13.186 E0.06940
G1 X16.213 Y-12.876 E0.02452
G1 X16.138 Y-12.255 E0.04820
G1 X15.334 Y-12.857 E0.07742
G1 X12.824 Y-14.227 E0.22033
G1 X10.145 Y-15.227 E0.22033
G1 X7.352 Y-15.834 E0.22033
G1 X4.500 Y-16.038 E0.22033
G1 X1.648 Y-15.834 E0.22033
G1 X-1.145 Y-15.227 E0.22033
G1 X-3.824 Y-14.227 E0.22033
G1 X-6.334 Y-12.857 E0.22033
G1 X-7.137 Y-12.255 E0.07740
G1 X-7.230 Y-13.031 E0.06017
G1 X-7.604 Y-14.033 E0.08246
G1 X-8.273 Y-14.971 E0.08875
G1 X-8.983 Y-15.600 E0.07314
G1 X-10.004 Y-16.126 E0.08849
G1 X-10.926 Y-16.353 E0.07321
G1 X-12.074 Y-16.353 E0.08843
G1 X-12.996 Y-16.126 E0.07321
G1 X-14.017 Y-15.600 E0.08849
G1 X-14.707 Y-14.989 E0.07107
G1 X-14.906 Y-14.740 E0.02452
G1 X-15.397 Y-14.028 E0.06663
G1 X-15.716 Y-13.186 E0.06940
G1 X-15.787 Y-12.876 E0.02452
G1 X-15.893 Y-12.000 E0.06801
G1 X-15.787 Y-11.124 E0.06801
G1 X-15.716 Y-10.814 E0.02452
G1 X-15.394 Y-9.965 E0.06998
G1 X-14.727 Y-9.029 E0.08854
G1 X-14.017 Y-8.400 E0.07314
G1 X-12.996 Y-7.874 E0.08849
G1 X-11.799 Y-7.579 E0.09499
G1 X-12.357 Y-6.834 E0.07175
G1 X-13.727 Y-4.324 E0.22033
G1 X-14.727 Y-1.645 E0.22033
G1 X-15.334 Y1.148 E0.22033
G1 X-15.538 Y4.000 E0.22033
G1 X-15.334 Y6.852 E0.22033
G1 X-14.727 Y9.645 E0.22033
G1 X-13.727 Y12.324 E0.22033
G1 X-12.357 Y14.834 E0.22033
G1 X-11.799 Y15.579 E0.07175
G1 X-12.996 Y15.874 E0.09499
G1 X-14.017 Y16.400 E0.08849
G1 X-14.707 Y17.011 E0.07107
G1 X-14.906 Y17.260 E0.02452
G1 X-15.397 Y17.972 E0.06663
G1 X-15.716 Y18.814 E0.06940
G1 X-15.787 Y19.124 E0.02452
G1 X-15.893 Y20.000 E0.06801
G1 X-15.787 Y20.876 E0.06801
G1 X-15.716 Y21.186 E0.02452
G1 X-15.394 Y22.035 E0.06998
G1 X-14.732 Y22.964 E0.08792
G1 X-25.464 Y22.964 E0.82711
G1 X-25.464 Y20.328 E0.20318
G1 X-25.106 Y20.306 E0.02767
G1 X-25.081 Y20.513 E0.01604
G1 X-24.898 Y20.996 E0.03982
G1 X-24.604 Y21.421 E0.03982
G1 X-24.217 Y21.764 E0.03982
G1 X-23.760 Y22.004 E0.03982
G1 X-23.258 Y22.128 E0.03982
G1 X-22.742 Y22.128 E0.03982
G1 X-22.240 Y22.004 E0.03982
G1 X-21.783 Y21.764 E0.03982
G1 X-21.396 Y21.421 E0.03982
G1 X-21.102 Y20.996 E0.03982
G1 X-20.919 Y20.513 E0.03982
G1 X-20.857 Y20.000 E0.03982
G1 X-20.919 Y19.487 E0.03982
G1 X-21.102 Y19.004 E0.03982
G1 X-21.396 Y18.579 E0.03982
G1 X-21.783 Y18.236 E0.03982
G1 X-22.240 Y17.996 E0.03982
G1 X-22.742 Y17.872 E0.03982
G1 X-23.258 Y17.872 E0.03982
G1 X-24.456 Y18.168 E0.09505
G1 X-24.456 Y18.447 E0.02156
G1 X-24.604 Y18.579 E0.01527
G1 X-24.898 Y19.004 E0.03982
G1 X-25.074 Y19.469 E0.03829
G1 X-25.108 Y19.726 E0.02003
G1 X-25.464 Y19.703 E0.02751
G1 X-25.464 Y2.480 E1.32726
G1 E-3.50000 F1500.00000
G1 Z0.700 F15000.000
G1 X-23.181 Y-18.508 F15000.000
G1 Z0.300 F15000.000
G1 E3.50000 F1500.00000
G1 F600
G1 X-23.533 Y-18.595 E0.02792
G1 X-23.854 Y-18.763 E0.02792
G1 X-24.125 Y-19.003 E0.02792
G1 X-24.331 Y-19.302 E0.02792
G1 X-24.459 Y-19.640 E0.02792
G1 X-24.503 Y-20.000 E0.02792
G1 X-24.459 Y-20.360 E0.02792
G1 X-24.331 Y-20.698 E0.02792
G1 X-24.125 Y-20.997 E0.02792
G1 X-23.854 Y-21.237 E0.02792
G1 X-23.533 Y-21.405 E0.02792
G1 X-23.181 Y-21.492 E0.02792
G1 X-22.819 Y-21.492 E0.02792
G1 X-22.467 Y-21.405 E0.02792
G1 X-22.146 Y-21.237 E0.02792
G1 X-21.875 Y-20.997 E0.02792
G1 X-21.669 Y-20.698 E0.02792
G1 X-21.541 Y-20.360 E0.02792
G1 X-21.497 Y-20.000 E0.02792
G1 X-21.541 Y-19.640 E0.02792
G1 X-21.669 Y-19.302 E0.02792
G1 X-21.875 Y-19.003 E0.02792
G1 X-22.146 Y-18.763 E0.02792
G1 X-22.467 Y-18.595 E0.02792
G1 X-22.819 Y-18.508 E0.02792
G1 X-23.121 Y-18.508 E0.02330
G1 X-23.181 Y-18.508 F15000.000
G1 E-3.50000 F1500.00000
G1 Z0.700 F15000.000
G1 X21.497 Y-20.000 F15000.000
G1 Z0.300 F15000.000
G1 E3.50000 F1500.00000
G1 F600
G1 X21.541 Y-20.360 E0.02792
G1 X21.669 Y-20.698 E0.02792
G1 X21.875 Y-20.997 E0.02792
G1 X22.146 Y-21.237 E0.02792
G1 X22.467 Y-21.405 E0.02792
G1 X22.821 Y-21.492 E0.02808
G1 X23.197 Y-21.488 E0.02897
G1 X23.533 Y-21.405 E0.02668
G1 X23.854 Y-21.237 E0.02792
G1 X24.125 Y-20.997 E0.02792
G1 X24.332 Y-20.697 E0.02808
G1 X24.461 Y-20.344 E0.02897
G1 X24.503 Y-20.000 E0.02668
G1 X24.459 Y-19.640 E0.02792
G1 X24.331 Y-19.302 E0.02792
G1 X24.125 Y-19.003 E0.02792
G1 X23.854 Y-18.763 E0.02792
G1 X23.533 Y-18.595 E0.02792
G1 X23.181 Y-18.508 E0.02792
G1 X22.819 Y-18.508 E0.02792
G1 X22.467 Y-18.595 E0.02792
G1 X22.146 Y-18.763 E0.02792
G1 X21.875 Y-19.003 E0.02792
G1 X21.668 Y-19.303 E0.02808
G1 X21.539 Y-19.656 E0.02897
G1 X21.504 Y-19.940 E0.02206
G1 X21.497 Y-20.000 F15000.000
G1 E-3.50000 F1500.00000
G1 Z0.700 F15000.000
G1 X18.900 Y-19.940 F15000.000
G1 Z0.300 F15000.000
G1 E3.50000 F1500.00000
G1 F720
G1 X18.900 Y-23.600 E0.28203
G1 X26.100 Y-23.600 E0.55487
G1 X26.100 Y23.600 E3.63749
G1 X22.266 Y23.600 E0.29547
G1 X22.195 Y23.309 E0.02312
G1 X22.655 Y23.072 E0.03985
G1 X23.252 Y22.543 E0.06144
G1 X23.830 Y21.732 E0.07673
G1 X24.148 Y20.880 E0.07013
G1 X24.253 Y20.000 E0.06828
G1 X24.148 Y19.120 E0.06828
G1 X23.830 Y18.268 E0.07013
G1 X23.252 Y17.457 E0.07673
G1 X22.655 Y16.928 E0.06144
G1 X21.771 Y16.473 E0.07659
G1 X20.997 Y16.282 E0.06150
G1 X20.003 Y16.282 E0.07654
G1 X19.360 Y16.441 E0.05106
G1 X20.821 Y14.489 E0.18788
G1 X22.148 Y12.059 E0.21333
G1 X23.115 Y9.466 E0.21333
G1 X23.704 Y6.761 E0.21333
G1 X23.901 Y4.000 E0.21333
G1 X23.704 Y1.239 E0.21333
G1 X23.115 Y-1.466 E0.21333
G1 X22.148 Y-4.059 E0.21333
G1 X20.821 Y-6.489 E0.21333
G1 X19.360 Y-8.441 E0.18788
G1 X20.003 Y-8.282 E0.05106
G1 X20.997 Y-8.282 E0.07654
G1 X21.771 Y-8.473 E0.06150
G1 X22.655 Y-8.928 E0.07659
G1 X23.252 Y-9.457 E0.06144
G1 X23.830 Y-10.268 E0.07673
G1 X24.148 Y-11.120 E0.07013
G1 X24.253 Y-12.000 E0.06828
G1 X24.148 Y-12.880 E0.06828
G1 X23.830 Y-13.732 E0.07013
G1 X23.252 Y-14.543 E0.07673
G1 X22.655 Y-15.072 E0.06144
G1 X21.771 Y-15.527 E0.07659
G1 X20.997 Y-15.718 E0.06150
G1 X20.003 Y-15.718 E0.07654
G1 X19.229 Y-15.527 E0.06150
G1 X18.345 Y-15.072 E0.07659
G1 X17.756 Y-14.549 E0.06070
G1 X17.605 Y-14.361 E0.01859
G1 X17.170 Y-13.731 E0.05900
G1 X16.894 Y-13.002 E0.06006
G1 X16.840 Y-12.767 E0.01859
G1 X16.747 Y-12.000 E0.05953
G1 X16.880 Y-10.906 E0.08496
G1 X14.989 Y-12.321 E0.18204
G1 X12.559 Y-13.648 E0.21333
G1 X9.966 Y-14.615 E0.21333
G1 X7.261 Y-15.204 E0.21333
G1 X4.500 Y-15.401 E0.21333
G1 X1.739 Y-15.204 E0.21333
G1 X-0.966 Y-14.615 E0.21333
G1 X-3.559 Y-13.648 E0.21333
G1 X-5.989 Y-12.321 E0.21333
G1 X-7.877 Y-10.908 E0.18176
G1 X-7.747 Y-12.000 E0.08476
G1 X-7.852 Y-12.880 E0.06828
G1 X-8.170 Y-13.732 E0.07013
G1 X-8.748 Y-14.543 E0.07673
G1 X-9.345 Y-15.072 E0.06144
G1 X-10.229 Y-15.527 E0.07659
G1 X-11.003 Y-15.718 E0.06150
G1 X-11.997 Y-15.718 E0.07654
G1 X-12.771 Y-15.527 E0.06150
G1 X-13.655 Y-15.072 E0.07659
G1 X-14.244 Y-14.549 E0.06070
G1 X-14.395 Y-14.361 E0.01859
G1 X-14.830 Y-13.731 E0.05899
G1 X-15.106 Y-13.002 E0.06006
G1 X-15.160 Y-12.767 E0.01859
G1 X-15.253 Y-12.000 E0.05953
G1 X-15.160 Y-11.233 E0.05953
G1 X-15.106 Y-10.998 E0.01859
G1 X-14.829 Y-10.267 E0.06027
G1 X-14.252 Y-9.457 E0.07664
G1 X-13.655 Y-8.928 E0.06144
G1 X-12.771 Y-8.473 E0.07659
G1 X-11.997 Y-8.282 E0.06150
G1 X-11.003 Y-8.282 E0.07654
G1 X-10.360 Y-8.441 E0.05106
G1 X-11.821 Y-6.489 E0.18788
G1 X-13.148 Y-4.059 E0.21333
G1 X-14.115 Y-1.466 E0.21333
G1 X-14.704 Y1.239 E0.21333
G1 X-14.901 Y4.000 E0.21333
G1 X-14.704 Y6.761 E0.21333
G1 X-14.115 Y9.466 E0.21333
G1 X-13.148 Y12.059 E0.21333
G1 X-11.821 Y14.489 E0.21333
G1 X-10.360 Y16.441 E0.18788
G1 X-11.003 Y16.282 E0.05106
G1 X-11.997 Y16.282 E0.07654
G1 X-12.771 Y16.473 E0.06150
G1 X-13.655 Y16.928 E0.07659
G1 X-14.244 Y17.451 E0.06070
G1 X-14.395 Y17.639 E0.01859
G1 X-14.830 Y18.269 E0.05899
G1 X-15.106 Y18.998 E0.06006
G1 X-15.160 Y19.233 E0.01859
G1 X-15.253 Y20.000 E0.05953
G1 X-15.160 Y20.767 E0.05953
G1 X-15.106 Y21.002 E0.01859
G1 X-14.829 Y21.733 E0.06027
G1 X-14.252 Y22.543 E0.07664
G1 X-13.655 Y23.072 E0.06144
G1 X-13.195 Y23.308 E0.03985
G1 X-13.266 Y23.600 E0.02312
G1 X-26.100 Y23.600 E0.98906
G1 X-26.100 Y-23.600 E3.63749
G1 X-16.900 Y-23.600 E0.70900
G1 X-16.900 Y-18.978 E0.35623
G1 X-16.867 Y-18.688 E0.02246
G1 X-16.764 Y-18.391 E0.02420
G1 X-16.597 Y-18.126 E0.02420
G1 X-16.374 Y-17.903 E0.02420
G1 X-16.109 Y-17.736 E0.02420
G1 X-15.812 Y-17.633 E0.02420
G1 X-15.522 Y-17.600 E0.02246
G1 X17.522 Y-17.600 E2.54662
G1 X17.812 Y-17.633 E0.02246
G1 X18.109 Y-17.736 E0.02420
G1 X18.374 Y-17.903 E0.02420
G1 X18.597 Y-18.126 E0.02420
G1 X18.764 Y-18.391 E0.02420
G1 X18.867 Y-18.688 E0.02420
G1 X18.900 Y-18.978 E0.02246
G1 X18.900 Y-19.880 E0.06958
G1 X19.248 Y-20.137 F15000.000
G1 E-3.50000 F1500.00000
G1 Z0.700 F15000.000
G1 X-8.310 Y-10.726 F15000.000
G1 Z0.300 F15000.000
G1 E3.50000 F1500.00000
G1 F720
G1 X-8.390 Y-10.399 E0.00412
G1 X-8.580 Y-9.792 E0.00780
G1 X-8.774 Y-9.791 F15000.000
G1 F720
G1 X-8.933 Y-9.605 E0.00614
G1 X-9.430 Y-9.137 E0.01714
G1 X-8.774 Y-9.791 F15000.000
G1 F720
G1 X-8.492 Y-10.123 E0.01476
G1 E-3.50000 F1500.00000
G1 Z0.700 F15000.000
G1 X17.316 Y-10.708 F15000.000
G1 Z0.300 F15000.000
G1 E3.50000 F1500.00000
G1 F720
G1 X17.392 Y-10.399 E0.00536
G1 X17.585 Y-9.787 E0.01082
G1 X17.636 Y-9.953 F15000.000
G1 F720
G1 X17.497 Y-10.118 E0.00727
G1 X17.636 Y-9.953 F15000.000
G1 F720
G1 X17.933 Y-9.605 E0.01169
G1 X18.430 Y-9.137 E0.01745
G1 E-3.50000 F1500.00000
G1 Z0.700 F15000.000
G1 X18.430 Y17.137 F15000.000
G1 Z0.300 F15000.000
G1 E3.50000 F1500.00000
G1 F720
G1 X17.933 Y17.605 E0.01745
G1 X17.637 Y17.946 E0.01153
G1 F720
G1 X17.495 Y18.117 E0.00741
G1 X17.582 Y17.791 F15000.000
G1 F720
G1 X17.392 Y18.399 E0.01069
G1 X17.316 Y18.708 E0.00533
G1 E-3.50000 F1500.00000
G1 Z0.700 F15000.000
G1 X12.558 Y22.327 F15000.000
G1 Z0.300 F15000.000
G1 E3.50000 F1500.00000
G1 F600
G1 X12.824 Y22.227 E0.02192
G1 X15.334 Y20.857 E0.22033
G1 X16.138 Y20.255 E0.07742
G1 X16.213 Y20.876 E0.04820
G1 X16.284 Y21.186 E0.02452
G1 X16.606 Y22.035 E0.06998
G1 X17.268 Y22.964 E0.08792
G1 X11.746 Y22.964 E0.42557
G1 X11.689 Y22.651 E0.02456
G1 X12.501 Y22.348 E0.06680
G1 X12.279 Y21.752 F15000.000
G1 F600
G1 X12.559 Y21.648 E0.02304
G1 X14.989 Y20.321 E0.21333
G1 X16.880 Y18.906 E0.18204
G1 X16.747 Y20.000 E0.08496
G1 X16.840 Y20.767 E0.05953
G1 X16.894 Y21.002 E0.01859
G1 X17.171 Y21.733 E0.06027
G1 X17.748 Y22.543 E0.07664
G1 X18.345 Y23.072 E0.06144
G1 X18.805 Y23.309 E0.03985
G1 X18.734 Y23.600 E0.02312
G1 X6.873 Y23.600 E0.91408
G1 X6.860 Y23.232 E0.02836
G1 X7.261 Y23.204 E0.03100
G1 X9.966 Y22.615 E0.21333
G1 X12.223 Y21.773 E0.18566
G1 X12.505 Y21.948 F15000.000
G1 E-3.50000 F1500.00000
G1 Z0.700 F15000.000
G1 X19.107 Y23.549 F15000.000
G1 Z0.300 F15000.000
G1 E3.50000 F1500.00000
