; generated by Slic3r 1.3.0 on 2020-05-08 at 09:52:30

; external perimeters extrusion width = 0.40mm (4.28mm^3/s)
; perimeters extrusion width = 0.40mm (4.28mm^3/s)
; infill extrusion width = 0.40mm (5.71mm^3/s)
; solid infill extrusion width = 0.40mm (5.71mm^3/s)
; top infill extrusion width = 0.40mm (5.71mm^3/s)

M107
M83
T0
M116
; Filament gcode

G21 ; set units to millimeters
G90 ; use absolute coordinates
M83 ; use relative distances for extrusion
G1 E-3.50000 F1500.00000
G1 Z0.400 F15000.000
G1 X-19.531 Y-17.564 F15000.000
G1 Z0.300 F15000.000
G1 E3.50000 F1500.00000
G1 F960
G1 X23.551 Y-12.636 E3.34176
G1 X25.143 Y-12.057 E0.13052
G1 X26.299 Y-10.820 E0.13052
G1 X26.771 Y-8.898 E0.15256
G1 X26.591 Y-3.833 E0.39053
G1 X23.816 Y30.358 E2.64366
G1 X23.289 Y31.968 E0.13052
G1 X22.091 Y33.165 E0.13052
G1 X20.954 Y33.619 E0.09436
G1 X6.954 Y36.619 E1.10341
G1 X6.192 Y36.700 E0.05903
G1 X-11.708 Y36.700 E1.37947
G1 X-13.355 Y36.305 E0.13052
G1 X-14.742 Y35.068 E0.14325
G1 X-23.738 Y21.445 E1.25807
G1 X-23.999 Y20.978 E0.04123
G1 X-26.369 Y15.894 E0.43231
G1 X-26.689 Y14.748 E0.09168
G1 X-29.145 Y-7.975 E1.76138
G1 X-28.929 Y-9.655 E0.13052
G1 X-28.101 Y-10.936 E0.11760
G1 X-22.515 Y-16.522 E0.60882
G1 X-21.071 Y-17.408 E0.13052
G1 X-19.591 Y-17.558 E0.11468
G1 E-3.50000 F1500.00000
G1 Z0.700 F15000.000
G1 X19.375 Y-7.015 F15000.000
G1 Z0.300 F15000.000
G1 E3.50000 F1500.00000
G1 F600
G1 X19.514 Y-7.324 E0.02606
G1 X19.723 Y-7.590 E0.02606
G1 X19.991 Y-7.800 E0.02623
G1 X20.312 Y-7.940 E0.02706
G1 X20.630 Y-7.998 E0.02488
G1 X20.968 Y-7.978 E0.02606
G1 X21.290 Y-7.877 E0.02606
G1 X21.580 Y-7.702 E0.02606
G1 X21.819 Y-7.463 E0.02606
G1 X21.994 Y-7.174 E0.02606
G1 X22.095 Y-6.851 E0.02606
G1 X22.115 Y-6.513 E0.02606
G1 X22.054 Y-6.180 E0.02606
G1 X21.914 Y-5.870 E0.02623
G1 X21.695 Y-5.596 E0.02706
G1 X21.440 Y-5.397 E0.02488
G1 X21.132 Y-5.258 E0.02606
G1 X20.799 Y-5.197 E0.02606
G1 X20.462 Y-5.218 E0.02606
G1 X20.139 Y-5.318 E0.02606
G1 X19.849 Y-5.493 E0.02606
G1 X19.610 Y-5.733 E0.02606
G1 X19.435 Y-6.022 E0.02606
G1 X19.335 Y-6.345 E0.02606
G1 X19.314 Y-6.682 E0.02606
G1 X19.364 Y-6.956 E0.02144
G1 X19.375 Y-7.015 F15000.000
G1 E-3.50000 F1500.00000
G1 Z0.700 F15000.000
G1 X-4.685 Y-6.079 F15000.000
G1 Z0.300 F15000.000
G1 E3.50000 F1500.00000
G1 F720
G1 X-18.954 Y-6.578 E1.10031
G1 X-20.651 Y-4.880 E0.18497
G1 X-24.136 Y-8.366 E0.37984
G1 X-19.944 Y-12.558 E0.45690
G1 X-16.820 Y-9.434 E0.34050
G1 X19.370 Y-8.170 E2.79065
G1 X18.966 Y-7.655 E0.05042
G1 X18.764 Y-7.206 E0.03796
G1 X18.675 Y-6.721 E0.03796
G1 X18.705 Y-6.229 E0.03796
G1 X18.851 Y-5.759 E0.03796
G1 X19.161 Y-5.246 E0.04617
G1 X-4.625 Y-6.077 E1.83424
G1 X-4.647 Y-5.442 F15000.000
G1 F720
G1 X-18.700 Y-5.933 E1.08363
G1 X-20.651 Y-3.981 E0.21265
G1 X-25.035 Y-8.366 E0.47781
G1 X-19.944 Y-13.457 E0.55487
G1 X-16.547 Y-10.060 E0.37019
G1 X22.776 Y-8.687 E3.03230
G1 X22.629 Y-4.489 E0.32368
G1 X-4.587 Y-5.440 E2.09874
G1 X-4.853 Y-5.785 F15000.000
G1 E-3.50000 F1500.00000
G1 Z0.700 F15000.000
G1 X-19.876 Y-11.726 F15000.000
G1 Z0.300 F15000.000
G1 E3.50000 F1500.00000
G1 F960
G1 X-23.305 Y-8.298 E0.37576
G1 X-22.853 Y-7.846 E0.04954
G1 X-19.424 Y-11.274 E0.37576
G1 X-18.972 Y-10.822 E0.04954
G1 X-22.401 Y-7.394 E0.37576
G1 X-21.949 Y-6.942 E0.04954
G1 X-18.520 Y-10.370 E0.37576
G1 X-18.068 Y-9.918 E0.04954
G1 X-21.497 Y-6.490 E0.37576
G1 X-21.045 Y-6.038 E0.04954
G1 X-17.616 Y-9.466 E0.37576
G1 X-17.164 Y-9.014 E0.04954
G1 X-19.032 Y-7.146 E0.20472
G1 X-18.159 Y-7.116 E0.06774
G1 X-16.421 Y-8.853 E0.19044
G1 X-15.548 Y-8.823 E0.06774
G1 X-17.285 Y-7.085 E0.19044
G1 X-16.412 Y-7.055 E0.06774
G1 X-14.674 Y-8.792 E0.19044
G1 X-13.801 Y-8.762 E0.06774
G1 X-15.538 Y-7.024 E0.19044
G1 X-14.665 Y-6.994 E0.06774
G1 X-12.927 Y-8.731 E0.19044
G1 X-12.054 Y-8.701 E0.06774
G1 X-13.791 Y-6.963 E0.19044
G1 X-12.918 Y-6.933 E0.06774
G1 X-11.180 Y-8.670 E0.19044
G1 X-10.307 Y-8.640 E0.06774
G1 X-12.044 Y-6.902 E0.19044
G1 X-11.171 Y-6.872 E0.06774
G1 X-9.433 Y-8.609 E0.19044
G1 X-8.560 Y-8.579 E0.06774
G1 X-10.297 Y-6.841 E0.19044
G1 X-9.423 Y-6.811 E0.06774
G1 X-7.686 Y-8.548 E0.19044
G1 X-6.813 Y-8.518 E0.06774
G1 X-8.550 Y-6.780 E0.19044
G1 X-7.676 Y-6.750 E0.06774
G1 X-5.939 Y-8.487 E0.19044
G1 X-5.066 Y-8.457 E0.06774
G1 X-6.803 Y-6.719 E0.19044
G1 X-5.929 Y-6.689 E0.06774
G1 X-4.192 Y-8.426 E0.19044
G1 X-3.318 Y-8.396 E0.06774
G1 X-5.056 Y-6.658 E0.19044
G1 X-4.182 Y-6.628 E0.06774
G1 X-2.445 Y-8.365 E0.19044
G1 X-1.571 Y-8.335 E0.06774
G1 X-3.309 Y-6.597 E0.19044
G1 X-2.435 Y-6.567 E0.06774
G1 X-0.698 Y-8.304 E0.19044
G1 X0.176 Y-8.274 E0.06774
G1 X-1.562 Y-6.536 E0.19044
G1 X-0.688 Y-6.506 E0.06774
G1 X1.049 Y-8.243 E0.19044
G1 X1.923 Y-8.213 E0.06774
G1 X0.185 Y-6.475 E0.19044
G1 X1.059 Y-6.445 E0.06774
G1 X2.796 Y-8.182 E0.19044
G1 X3.670 Y-8.152 E0.06774
G1 X1.932 Y-6.414 E0.19044
G1 X2.806 Y-6.384 E0.06774
G1 X4.543 Y-8.121 E0.19044
G1 X5.417 Y-8.091 E0.06774
G1 X3.679 Y-6.353 E0.19044
G1 X4.553 Y-6.323 E0.06774
G1 X6.290 Y-8.060 E0.19044
G1 X7.164 Y-8.030 E0.06774
G1 X5.426 Y-6.292 E0.19044
G1 X6.300 Y-6.262 E0.06774
G1 X8.037 Y-7.999 E0.19044
G1 X8.911 Y-7.969 E0.06774
G1 X7.173 Y-6.231 E0.19044
G1 X8.047 Y-6.201 E0.06774
G1 X9.784 Y-7.938 E0.19044
G1 X10.658 Y-7.908 E0.06774
G1 X8.920 Y-6.170 E0.19044
G1 X9.794 Y-6.140 E0.06774
G1 X11.531 Y-7.877 E0.19044
G1 X12.405 Y-7.847 E0.06774
G1 X10.667 Y-6.109 E0.19044
G1 X11.541 Y-6.079 E0.06774
G1 X13.278 Y-7.816 E0.19044
G1 X14.152 Y-7.786 E0.06774
G1 X12.414 Y-6.048 E0.19044
G1 X13.288 Y-6.018 E0.06774
G1 X15.025 Y-7.755 E0.19044
G1 X15.899 Y-7.725 E0.06774
G1 X14.161 Y-5.987 E0.19044
G1 X15.035 Y-5.957 E0.06774
G1 X16.772 Y-7.694 E0.19044
G1 X17.646 Y-7.664 E0.06774
G1 X15.908 Y-5.926 E0.19044
G1 X16.782 Y-5.896 E0.06774
G1 X18.056 Y-7.170 E0.13966
G1 X18.160 Y-7.137 E0.00847
G1 X18.104 Y-6.827 E0.02445
G1 X18.123 Y-6.512 E0.02445
G1 X17.710 Y-6.437 E0.03248
G1 X17.790 Y-6.000 E0.03440
G1 X17.655 Y-5.865 E0.01479
G1 X18.445 Y-5.870 F15000.000
G1 F960
G1 X18.497 Y-5.588 E0.00219
G1 X19.547 Y-5.294 F15000.000
G1 F960
G1 X19.885 Y-4.903 E0.00257
G1 X19.656 Y-5.042 F15000.000
G1 F960
G1 X20.199 Y-4.929 E0.00439
G1 X21.132 Y-4.897 F15000.000
G1 F960
G1 X22.331 Y-5.053 E0.00544
G1 X22.335 Y-5.163 F15000.000
G1 F960
G1 X21.168 Y-4.858 E0.03695
G1 X22.013 Y-4.829 F15000.000
G1 F960
G1 X22.266 Y-5.667 E0.01273
G1 F960
G1 X22.328 Y-5.931 E0.00210
G1 X22.369 Y-7.155 F15000.000
G1 F960
G1 X22.136 Y-8.391 E0.01070
G1 X22.026 Y-8.395 F15000.000
G1 F960
G1 X22.407 Y-7.232 E0.05234
G1 X22.433 Y-7.965 F15000.000
G1 F960
G1 X21.177 Y-8.425 E0.07372
G1 X21.184 Y-8.336 F15000.000
G1 F960
G1 X21.029 Y-8.361 E0.00214
G1 X20.599 Y-8.381 E0.00588
G1 X19.883 Y-8.310 E0.00982
G1 X21.184 Y-8.336 F15000.000
G1 F960
G1 X21.459 Y-8.289 E0.00675
G1 X22.436 Y-8.061 E0.02423
G1 E-3.50000 F1500.00000
G1 Z0.700 F15000.000
G1 X18.638 Y-7.877 F15000.000
G1 Z0.300 F15000.000
G1 E3.50000 F1500.00000
G1 F960
G1 X18.550 Y-7.593 E0.00234
G1 E-3.50000 F1500.00000
G1 Z0.700 F15000.000
G1 X-6.961 Y25.960 F15000.000
G1 Z0.300 F15000.000
G1 E3.50000 F1500.00000
G1 F600
G1 X-6.708 Y26.184 E0.02606
G1 X-6.514 Y26.464 E0.02625
G1 X-6.394 Y26.796 E0.02720
G1 X-6.355 Y27.114 E0.02472
G1 X-6.396 Y27.450 E0.02606
G1 X-6.516 Y27.766 E0.02606
G1 X-6.708 Y28.045 E0.02606
G1 X-6.961 Y28.269 E0.02606
G1 X-7.261 Y28.426 E0.02606
G1 X-7.589 Y28.507 E0.02606
G1 X-7.927 Y28.507 E0.02606
G1 X-8.239 Y28.430 E0.02472
G1 X-8.553 Y28.270 E0.02720
G1 X-8.808 Y28.045 E0.02625
G1 X-9.000 Y27.766 E0.02606
G1 X-9.120 Y27.450 E0.02606
G1 X-9.161 Y27.114 E0.02606
G1 X-9.120 Y26.779 E0.02606
G1 X-9.000 Y26.462 E0.02606
G1 X-8.808 Y26.184 E0.02606
G1 X-8.555 Y25.960 E0.02606
G1 X-8.256 Y25.802 E0.02606
G1 X-7.927 Y25.722 E0.02607
G1 X-7.589 Y25.722 E0.02606
G1 X-7.261 Y25.802 E0.02606
G1 X-7.014 Y25.932 E0.02144
G1 X-6.961 Y25.960 F15000.000
G1 E-3.50000 F1500.00000
G1 Z0.700 F15000.000
G1 X4.028 Y32.079 F15000.000
G1 Z0.300 F15000.000
G1 E3.50000 F1500.00000
G1 F720
G1 X-10.722 Y32.079 E1.13672
G1 X-10.722 Y25.150 E0.53397
G1 X-8.599 Y25.150 E0.16361
G1 X-9.287 Y25.759 E0.07083
G1 X-9.567 Y26.165 E0.03796
G1 X-9.742 Y26.625 E0.03796
G1 X-9.801 Y27.114 E0.03796
G1 X-9.742 Y27.603 E0.03796
G1 X-9.567 Y28.064 E0.03796
G1 X-9.287 Y28.469 E0.03796
G1 X-8.914 Y28.800 E0.03848
G1 X-8.461 Y29.030 E0.03909
G1 X-8.004 Y29.143 E0.03628
G1 X-7.512 Y29.143 E0.03796
G1 X-7.034 Y29.025 E0.03796
G1 X-6.597 Y28.796 E0.03796
G1 X-6.229 Y28.469 E0.03796
G1 X-5.949 Y28.064 E0.03796
G1 X-5.774 Y27.603 E0.03796
G1 X-5.715 Y27.114 E0.03796
G1 X-5.772 Y26.647 E0.03628
G1 X-5.945 Y26.170 E0.03909
G1 X-6.229 Y25.759 E0.03848
G1 X-6.917 Y25.150 E0.07083
G1 X5.206 Y25.150 E0.93426
G1 X5.206 Y28.150 E0.23120
G1 X10.671 Y28.150 E0.42113
G1 X16.278 Y22.543 E0.61105
G1 X16.278 Y-1.850 E1.87989
G1 X21.206 Y-1.850 E0.37984
G1 X21.206 Y3.079 E0.37984
G1 X19.206 Y3.079 E0.15413
G1 X19.206 Y29.079 E2.00370
G1 X5.206 Y29.079 E1.07892
G1 X5.206 Y32.079 E0.23120
G1 X4.088 Y32.079 E0.08621
G1 X4.088 Y32.714 F15000.000
G1 F720
G1 X-11.358 Y32.714 E1.19033
G1 X-11.358 Y24.514 E0.63194
G1 X5.842 Y24.514 E1.32553
G1 X5.842 Y27.514 E0.23120
G1 X10.408 Y27.514 E0.35186
G1 X15.642 Y22.280 E0.57047
G1 X15.642 Y-2.486 E1.90858
G1 X21.842 Y-2.486 E0.47781
G1 X21.842 Y3.714 E0.47781
G1 X19.842 Y3.714 E0.15413
G1 X19.842 Y29.714 E2.00370
G1 X5.842 Y29.714 E1.07892
G1 X5.842 Y32.714 E0.23120
G1 X4.148 Y32.714 E0.13057
G1 X3.782 Y32.457 F15000.000
G1 X4.503 Y31.510 F15000.000
G1 F960
G1 X4.638 Y31.375 E0.01493
G1 X4.638 Y30.463 E0.07140
G1 X3.591 Y31.510 E0.11591
G1 X2.678 Y31.510 E0.07140
G1 X4.638 Y29.550 E0.21688
G1 X4.638 Y29.329 E0.01732
G1 X4.320 Y29.329 E0.02486
G1 X4.320 Y28.956 E0.02922
G1 X1.765 Y31.510 E0.28269
G1 X0.853 Y31.510 E0.07140
G1 X4.320 Y28.043 E0.38366
G1 X4.464 Y27.900 F15000.000
G1 F960
G1 X4.638 Y27.725 E0.01929
G1 X4.638 Y26.813 E0.07140
G1 X-0.060 Y31.510 E0.51979
G1 X-0.972 Y31.510 E0.07140
G1 X4.638 Y25.900 E0.62076
G1 X4.638 Y25.718 E0.01424
G1 X3.908 Y25.718 E0.05716
G1 X-1.885 Y31.510 E0.64090
G1 X-2.797 Y31.510 E0.07140
G1 X2.995 Y25.718 E0.64090
G1 X2.082 Y25.718 E0.07140
G1 X-3.710 Y31.510 E0.64090
G1 X-4.623 Y31.510 E0.07140
G1 X1.170 Y25.718 E0.64090
G1 X0.257 Y25.718 E0.07140
G1 X-5.535 Y31.510 E0.64090
G1 X-6.448 Y31.510 E0.07140
G1 X-0.655 Y25.718 E0.64090
G1 X-1.568 Y25.718 E0.07140
G1 X-7.360 Y31.510 E0.64090
G1 X-8.273 Y31.510 E0.07140
G1 X-2.480 Y25.718 E0.64090
G1 X-3.393 Y25.718 E0.07140
G1 X-5.181 Y27.506 E0.19788
G1 X-5.142 Y27.182 E0.02560
G1 X-5.210 Y26.622 E0.04408
G1 X-4.306 Y25.718 E0.10006
G1 E-3.50000 F1500.00000
G1 Z0.700 F15000.000
G1 X-10.019 Y28.694 F15000.000
G1 Z0.300 F15000.000
G1 E3.50000 F1500.00000
G1 F960
G1 X-10.154 Y28.829 E0.01494
G1 X-10.154 Y29.742 E0.07140
G1 X-9.455 Y29.043 E0.07734
G1 X-9.207 Y29.263 E0.02597
G1 X-8.912 Y29.412 E0.02584
G1 X-10.154 Y30.654 E0.13742
G1 X-10.154 Y31.510 E0.06700
G1 X-10.098 Y31.510 E0.00440
G1 X-8.242 Y29.655 E0.20535
G1 X-8.014 Y29.711 E0.01837
G1 X-7.386 Y29.711 E0.04916
G1 X-9.185 Y31.510 E0.19913
G1 E-3.50000 F1500.00000
G1 Z0.700 F15000.000
G1 X-10.153 Y28.127 F15000.000
G1 Z0.300 F15000.000
G1 E3.50000 F1500.00000
G1 F960
G1 X-10.223 Y27.744 E0.01363
G1 X-10.245 Y27.416 E0.01151
G1 F960
G1 X-10.263 Y27.097 E0.00852
G1 F960
G1 X-10.228 Y26.527 E0.01999
G1 F960
G1 X-10.202 Y26.370 E0.00659
G1 F960
G1 X-10.160 Y26.142 E0.01193
G1 F960
G1 X-10.118 Y25.914 E0.01427
G1 F960
G1 X-9.984 Y25.468 E0.03267
G1 X-8.485 Y25.522 F15000.000
G1 F960
G1 X-7.593 Y24.976 E0.00521
G1 X-7.523 Y25.038 F15000.000
G1 F960
G1 X-8.477 Y25.466 E0.03425
G1 X-7.994 Y25.038 F15000.000
G1 F960
G1 X-7.039 Y25.466 E0.03425
G1 X-7.031 Y25.522 F15000.000
G1 F960
G1 X-7.924 Y24.976 E0.00463
G1 X-6.059 Y25.468 F15000.000
G1 F960
G1 X-5.911 Y25.537 E0.00094
G1 X-5.793 Y25.767 E0.00148
G1 E-3.50000 F1500.00000
G1 Z0.700 F15000.000
G1 X4.889 Y28.614 F15000.000
G1 Z0.300 F15000.000
G1 E3.50000 F1500.00000
G1 F960
G1 X10.656 Y28.614 E0.15997
G1 E-3.50000 F1500.00000
G1 Z0.700 F15000.000
G1 X18.503 Y28.510 F15000.000
G1 Z0.300 F15000.000
G1 E3.50000 F1500.00000
G1 F960
G1 X18.638 Y28.375 E0.01507
G1 X18.638 Y27.454 E0.07273
G1 X17.582 Y28.510 E0.11792
G1 X16.661 Y28.510 E0.07273
G1 X18.638 Y26.533 E0.22077
G1 X18.638 Y25.612 E0.07273
G1 X15.740 Y28.510 E0.32362
G1 X14.819 Y28.510 E0.07273
G1 X18.638 Y24.691 E0.42647
G1 X18.638 Y23.770 E0.07273
G1 X13.898 Y28.510 E0.52932
G1 X12.977 Y28.510 E0.07273
G1 X18.638 Y22.849 E0.63217
G1 X18.638 Y21.928 E0.07273
G1 X12.056 Y28.510 E0.73502
G1 X11.224 Y28.510 E0.06568
G1 X11.224 Y28.496 E0.00118
G1 X16.846 Y22.874 E0.62776
G1 X16.846 Y22.800 E0.00586
G1 X18.638 Y21.007 E0.20016
G1 X18.638 Y20.086 E0.07273
G1 X16.846 Y21.879 E0.20016
G1 X16.846 Y20.958 E0.07273
G1 X18.638 Y19.165 E0.20016
G1 X18.638 Y18.244 E0.07273
G1 X16.846 Y20.037 E0.20016
G1 X16.846 Y19.116 E0.07273
G1 X18.638 Y17.323 E0.20016
G1 X18.638 Y16.402 E0.07273
G1 X16.846 Y18.195 E0.20016
G1 X16.846 Y17.274 E0.07273
G1 X18.638 Y15.481 E0.20016
G1 X18.638 Y14.560 E0.07273
G1 X16.846 Y16.353 E0.20016
G1 X16.846 Y15.431 E0.07273
G1 X18.638 Y13.639 E0.20016
G1 X18.638 Y12.718 E0.07273
G1 X16.846 Y14.510 E0.20016
G1 X16.846 Y13.589 E0.07273
G1 X18.638 Y11.797 E0.20016
G1 X18.638 Y10.876 E0.07273
G1 X16.846 Y12.668 E0.20016
G1 X16.846 Y11.747 E0.07273
G1 X18.638 Y9.955 E0.20016
G1 X18.638 Y9.034 E0.07273
G1 X16.846 Y10.826 E0.20016
G1 X16.846 Y9.905 E0.07273
G1 X18.638 Y8.113 E0.20016
G1 X18.638 Y7.192 E0.07273
G1 X16.846 Y8.984 E0.20016
G1 X16.846 Y8.063 E0.07273
G1 X18.638 Y6.271 E0.20016
G1 X18.638 Y5.350 E0.07273
G1 X16.846 Y7.142 E0.20016
G1 X16.846 Y6.221 E0.07273
G1 X18.638 Y4.429 E0.20016
G1 X18.638 Y3.508 E0.07273
G1 X16.846 Y5.300 E0.20016
G1 X16.846 Y4.379 E0.07273
G1 X18.638 Y2.587 E0.20016
G1 X18.503 Y2.722 F15000.000
G1 F960
G1 X18.503 Y2.510 E0.01667
G1 X18.714 Y2.510 E0.01667
G1 X20.638 Y0.587 E0.21481
G1 X20.638 Y1.508 E0.07273
G1 X19.636 Y2.510 E0.11196
G1 E-3.50000 F1500.00000
G1 Z0.700 F15000.000
G1 X16.846 Y3.458 F15000.000
G1 Z0.300 F15000.000
G1 E3.50000 F1500.00000
G1 F960
G1 X20.638 Y-0.334 E0.42350
G1 X20.638 Y-1.255 E0.07273
G1 X16.846 Y2.537 E0.42350
G1 X16.846 Y1.616 E0.07273
G1 X19.744 Y-1.282 E0.32362
G1 X18.823 Y-1.282 E0.07273
G1 X16.846 Y0.695 E0.22077
G1 X16.846 Y-0.226 E0.07273
G1 X17.902 Y-1.282 E0.11792
G1 X16.981 Y-1.282 E0.07273
G1 X16.846 Y-1.147 E0.01506
G1 E-3.50000 F1500.00000
G1 Z0.700 F15000.000
G1 X-14.784 Y15.527 F15000.000
G1 Z0.300 F15000.000
G1 E3.50000 F1500.00000
G1 F720
G1 X11.840 Y15.527 E2.05175
G1 X11.840 Y21.456 E0.45690
G1 X6.911 Y21.456 E0.37984
G1 X6.911 Y18.456 E0.23120
G1 X-20.076 Y18.456 E2.07977
G1 X-20.477 Y17.595 E0.07320
G1 X-20.124 Y17.633 E0.02734
G1 X-19.668 Y17.584 E0.03539
G1 X-19.229 Y17.438 E0.03566
G1 X-18.814 Y17.187 E0.03733
G1 X-18.465 Y16.847 E0.03760
G1 X-18.201 Y16.436 E0.03760
G1 X-18.038 Y15.977 E0.03760
G1 X-17.986 Y15.527 E0.03484
G1 X-14.844 Y15.527 E0.24218
G1 E-3.50000 F1500.00000
G1 Z0.700 F15000.000
G1 X-22.089 Y12.900 F15000.000
G1 Z0.300 F15000.000
G1 E3.50000 F1500.00000
G1 F600
G1 X-22.089 Y12.527 E0.02875
G1 X-18.160 Y12.527 E0.30277
G1 X-18.160 Y14.434 E0.14691
G1 X-18.814 Y13.797 E0.07038
G1 X-19.229 Y13.546 E0.03733
G1 X-19.668 Y13.399 E0.03566
G1 X-20.124 Y13.350 E0.03539
G1 X-20.564 Y13.398 E0.03404
G1 X-21.016 Y13.543 E0.03660
G1 X-21.435 Y13.797 E0.03772
G1 X-22.089 Y14.434 E0.07038
G1 X-22.089 Y12.960 E0.11354
G1 X-22.724 Y12.960 F15000.000
G1 F720
G1 X-22.724 Y11.892 E0.08236
G1 X-17.524 Y11.892 E0.40074
G1 X-17.524 Y14.892 E0.23120
G1 X12.476 Y14.892 E2.31196
G1 X12.476 Y22.092 E0.55487
G1 X6.276 Y22.092 E0.47781
G1 X6.276 Y19.092 E0.23120
G1 X-20.481 Y19.092 E2.06199
G1 X-21.730 Y16.413 E0.22781
G1 X-21.418 Y16.241 E0.02748
G1 X-21.288 Y16.442 E0.01844
G1 X-21.043 Y16.681 E0.02637
G1 X-20.752 Y16.857 E0.02627
G1 X-20.445 Y16.960 E0.02493
G1 X-20.124 Y16.994 E0.02483
G1 X-19.804 Y16.960 E0.02483
G1 X-19.497 Y16.857 E0.02493
G1 X-19.206 Y16.681 E0.02627
G1 X-18.961 Y16.442 E0.02637
G1 X-18.776 Y16.154 E0.02637
G1 X-18.661 Y15.832 E0.02637
