; generated by Slic3r 1.3.0 on 2020-05-07 at 15:48:06

; external perimeters extrusion width = 0.40mm (4.28mm^3/s)
; perimeters extrusion width = 0.40mm (4.28mm^3/s)
; infill extrusion width = 0.40mm (5.71mm^3/s)
; solid infill extrusion width = 0.40mm (5.71mm^3/s)
; top infill extrusion width = 0.40mm (5.71mm^3/s)

M107
M83
T0
M116
; Filament gcode

G21 ; set units to millimeters
G90 ; use absolute coordinates
M83 ; use relative distances for extrusion
G1 E-3.50000 F1500.00000
G1 Z0.400 F15000.000
G1 X-23.757 Y-1.883 F15000.000
G1 Z0.300 F15000.000
G1 E3.50000 F1500.00000
G1 F960
G1 X-23.758 Y-11.873 E0.76993
G1 X-23.364 Y-13.520 E0.13052
G1 X-22.266 Y-14.810 E0.13052
G1 X-20.123 Y-15.509 E0.17373
G1 X19.777 Y-15.509 E3.07491
G1 X21.424 Y-15.114 E0.13052
G1 X22.714 Y-14.017 E0.13052
G1 X23.412 Y-11.964 E0.16707
G1 X23.757 Y1.883 E1.06744
G1 X23.758 Y11.873 E0.76993
G1 X23.364 Y13.520 E0.13052
G1 X22.266 Y14.810 E0.13052
G1 X20.123 Y15.509 E0.17373
G1 X-19.777 Y15.509 E3.07491
G1 X-21.424 Y15.114 E0.13052
G1 X-22.714 Y14.017 E0.13052
G1 X-23.412 Y11.964 E0.16707
G1 X-23.756 Y-1.823 E1.06281
G1 E-3.50000 F1500.00000
G1 Z0.700 F15000.000
G1 X-2.102 Y6.363 F15000.000
G1 Z0.300 F15000.000
G1 E3.50000 F1500.00000
G1 F720
G1 X-1.902 Y5.834 E0.04353
G1 X-1.581 Y5.370 E0.04353
G1 X-1.158 Y4.995 E0.04353
G1 X-0.658 Y4.732 E0.04353
G1 X-0.110 Y4.597 E0.04353
G1 X0.455 Y4.597 E0.04353
G1 X1.004 Y4.732 E0.04353
G1 X1.504 Y4.995 E0.04353
G1 X1.927 Y5.370 E0.04353
G1 X2.248 Y5.834 E0.04353
G1 X2.620 Y6.816 E0.08087
G1 X3.009 Y5.788 E0.08470
G1 X3.344 Y5.303 E0.04539
G1 X3.785 Y4.913 E0.04539
G1 X4.306 Y4.639 E0.04539
G1 X4.878 Y4.498 E0.04539
G1 X5.467 Y4.498 E0.04539
G1 X6.039 Y4.639 E0.04539
G1 X6.561 Y4.913 E0.04539
G1 X7.001 Y5.303 E0.04539
G1 X7.336 Y5.788 E0.04539
G1 X7.567 Y6.396 E0.05009
G1 X7.832 Y5.695 E0.05775
G1 X8.194 Y5.171 E0.04911
G1 X8.671 Y4.748 E0.04911
G1 X9.235 Y4.452 E0.04911
G1 X9.854 Y4.299 E0.04911
G1 X10.491 Y4.299 E0.04911
G1 X11.110 Y4.452 E0.04911
G1 X11.674 Y4.748 E0.04911
G1 X12.151 Y5.171 E0.04911
G1 X12.612 Y5.839 E0.06257
G1 X13.119 Y5.104 E0.06878
G1 X13.614 Y4.666 E0.05097
G1 X14.200 Y4.358 E0.05096
G1 X14.842 Y4.200 E0.05096
G1 X15.503 Y4.200 E0.05097
G1 X16.145 Y4.358 E0.05096
G1 X16.731 Y4.666 E0.05096
G1 X17.229 Y5.106 E0.05122
G1 X17.607 Y5.663 E0.05188
G1 X17.836 Y6.267 E0.04976
G1 X17.916 Y6.923 E0.05096
G1 X17.836 Y7.580 E0.05097
G1 X17.602 Y8.198 E0.05096
G1 X17.226 Y8.742 E0.05096
G1 X16.731 Y9.181 E0.05096
G1 X16.145 Y9.488 E0.05096
G1 X15.503 Y9.647 E0.05096
G1 X14.842 Y9.647 E0.05097
G1 X14.200 Y9.488 E0.05096
G1 X13.614 Y9.181 E0.05096
G1 X13.119 Y8.742 E0.05096
G1 X12.612 Y8.008 E0.06878
G1 X12.151 Y8.676 E0.06257
G1 X11.674 Y9.099 E0.04911
G1 X11.110 Y9.395 E0.04911
G1 X10.491 Y9.547 E0.04911
G1 X9.854 Y9.547 E0.04911
G1 X9.235 Y9.395 E0.04911
G1 X8.671 Y9.099 E0.04911
G1 X8.194 Y8.676 E0.04911
G1 X7.832 Y8.152 E0.04911
G1 X7.567 Y7.451 E0.05775
G1 X7.336 Y8.059 E0.05009
G1 X7.001 Y8.544 E0.04539
G1 X6.561 Y8.934 E0.04539
G1 X6.039 Y9.208 E0.04539
G1 X5.467 Y9.349 E0.04539
G1 X4.878 Y9.349 E0.04539
G1 X4.306 Y9.208 E0.04539
G1 X3.785 Y8.934 E0.04539
G1 X3.344 Y8.544 E0.04539
G1 X3.009 Y8.059 E0.04539
G1 X2.620 Y7.031 E0.08470
G1 X2.248 Y8.012 E0.08087
G1 X1.927 Y8.477 E0.04353
G1 X1.504 Y8.852 E0.04353
G1 X1.004 Y9.114 E0.04353
G1 X0.455 Y9.249 E0.04353
G1 X-0.110 Y9.249 E0.04353
G1 X-0.658 Y9.114 E0.04353
G1 X-1.158 Y8.852 E0.04353
G1 X-1.581 Y8.477 E0.04353
G1 X-1.902 Y8.012 E0.04353
G1 X-2.102 Y7.484 E0.04353
G1 X-2.171 Y6.923 E0.04353
G1 X-2.110 Y6.422 E0.03891
G1 E-3.50000 F1500.00000
G1 Z0.700 F15000.000
G1 X13.070 Y6.923 F15000.000
G1 Z0.300 F15000.000
G1 E3.50000 F1500.00000
G1 F600
G1 X13.131 Y6.420 E0.03907
G1 X13.311 Y5.946 E0.03907
G1 X13.599 Y5.529 E0.03907
G1 X13.978 Y5.193 E0.03907
G1 X14.427 Y4.957 E0.03907
G1 X14.919 Y4.836 E0.03907
G1 X15.426 Y4.836 E0.03907
G1 X15.918 Y4.957 E0.03907
G1 X16.367 Y5.193 E0.03907
G1 X16.748 Y5.530 E0.03916
G1 X17.040 Y5.959 E0.03998
G1 X17.215 Y6.420 E0.03804
G1 X17.276 Y6.923 E0.03907
G1 X17.215 Y7.427 E0.03907
G1 X17.035 Y7.901 E0.03907
G1 X16.747 Y8.318 E0.03907
G1 X16.367 Y8.654 E0.03907
G1 X15.918 Y8.890 E0.03907
G1 X15.426 Y9.011 E0.03907
G1 X14.919 Y9.011 E0.03907
G1 X14.427 Y8.890 E0.03907
G1 X13.978 Y8.654 E0.03907
G1 X13.599 Y8.318 E0.03907
G1 X13.311 Y7.901 E0.03907
G1 X13.131 Y7.427 E0.03907
G1 X13.077 Y6.983 E0.03444
G1 X13.070 Y6.923 F15000.000
G1 X12.176 Y6.923 F15000.000
G1 F600
G1 X12.117 Y7.403 E0.03721
G1 X11.946 Y7.854 E0.03721
G1 X11.672 Y8.252 E0.03721
G1 X11.310 Y8.572 E0.03721
G1 X10.883 Y8.796 E0.03721
G1 X10.414 Y8.912 E0.03721
G1 X9.931 Y8.912 E0.03721
G1 X9.462 Y8.796 E0.03721
G1 X9.035 Y8.572 E0.03721
G1 X8.673 Y8.252 E0.03721
G1 X8.399 Y7.854 E0.03721
G1 X8.228 Y7.403 E0.03721
G1 X8.170 Y6.923 E0.03721
G1 X8.228 Y6.444 E0.03721
G1 X8.399 Y5.993 E0.03721
G1 X8.673 Y5.595 E0.03721
G1 X9.035 Y5.275 E0.03721
G1 X9.462 Y5.051 E0.03721
G1 X9.931 Y4.935 E0.03721
G1 X10.414 Y4.935 E0.03721
G1 X10.883 Y5.051 E0.03721
G1 X11.310 Y5.275 E0.03721
G1 X11.672 Y5.595 E0.03721
G1 X11.946 Y5.993 E0.03721
G1 X12.117 Y6.444 E0.03721
G1 X12.168 Y6.864 E0.03259
G1 X12.176 Y6.923 F15000.000
G1 E-3.50000 F1500.00000
G1 Z0.700 F15000.000
G1 X6.976 Y6.923 F15000.000
G1 Z0.300 F15000.000
G1 E3.50000 F1500.00000
G1 F600
G1 X6.923 Y7.355 E0.03350
G1 X6.769 Y7.761 E0.03350
G1 X6.522 Y8.119 E0.03350
G1 X6.197 Y8.407 E0.03350
G1 X5.812 Y8.609 E0.03350
G1 X5.390 Y8.713 E0.03350
G1 X4.955 Y8.713 E0.03350
G1 X4.533 Y8.609 E0.03350
G1 X4.149 Y8.407 E0.03350
G1 X3.823 Y8.119 E0.03350
G1 X3.576 Y7.761 E0.03350
G1 X3.422 Y7.355 E0.03350
G1 X3.370 Y6.923 E0.03350
G1 X3.422 Y6.492 E0.03350
G1 X3.576 Y6.085 E0.03350
G1 X3.823 Y5.728 E0.03350
G1 X4.149 Y5.440 E0.03350
G1 X4.533 Y5.238 E0.03350
G1 X4.955 Y5.134 E0.03350
G1 X5.390 Y5.134 E0.03350
G1 X5.812 Y5.238 E0.03350
G1 X6.197 Y5.440 E0.03350
G1 X6.522 Y5.728 E0.03350
G1 X6.769 Y6.085 E0.03350
G1 X6.923 Y6.492 E0.03350
G1 X6.968 Y6.864 E0.02887
G1 X6.976 Y6.923 F15000.000
G1 E-3.50000 F1500.00000
G1 Z0.700 F15000.000
G1 X1.876 Y6.923 F15000.000
G1 Z0.300 F15000.000
G1 E3.50000 F1500.00000
G1 F600
G1 X1.826 Y7.331 E0.03164
G1 X1.681 Y7.715 E0.03164
G1 X1.447 Y8.053 E0.03164
G1 X1.140 Y8.325 E0.03164
G1 X0.777 Y8.516 E0.03164
G1 X0.378 Y8.614 E0.03164
G1 X-0.033 Y8.614 E0.03164
G1 X-0.431 Y8.516 E0.03164
G1 X-0.795 Y8.325 E0.03164
G1 X-1.102 Y8.053 E0.03164
G1 X-1.335 Y7.715 E0.03164
G1 X-1.481 Y7.331 E0.03164
G1 X-1.530 Y6.923 E0.03164
G1 X-1.481 Y6.516 E0.03164
G1 X-1.335 Y6.132 E0.03164
G1 X-1.102 Y5.794 E0.03164
G1 X-0.795 Y5.522 E0.03164
G1 X-0.431 Y5.331 E0.03164
G1 X-0.033 Y5.233 E0.03164
G1 X0.378 Y5.233 E0.03164
G1 X0.777 Y5.331 E0.03164
G1 X1.140 Y5.522 E0.03164
G1 X1.447 Y5.794 E0.03164
G1 X1.681 Y6.132 E0.03164
G1 X1.826 Y6.516 E0.03164
G1 X1.868 Y6.864 E0.02701
G1 X1.876 Y6.923 F15000.000
G1 E-3.50000 F1500.00000
G1 Z0.700 F15000.000
G1 X-2.584 Y6.923 F15000.000
G1 Z0.300 F15000.000
G1 E3.50000 F1500.00000
G1 F600
G1 X-2.649 Y7.460 E0.04168
G1 X-2.841 Y7.966 E0.04168
G1 X-3.148 Y8.411 E0.04168
G1 X-3.553 Y8.769 E0.04168
G1 X-4.032 Y9.021 E0.04168
G1 X-4.557 Y9.150 E0.04168
G1 X-5.098 Y9.150 E0.04168
G1 X-5.623 Y9.021 E0.04168
G1 X-6.102 Y8.769 E0.04168
G1 X-6.506 Y8.411 E0.04168
G1 X-6.814 Y7.966 E0.04168
G1 X-7.005 Y7.460 E0.04168
G1 X-7.071 Y6.923 E0.04168
G1 X-7.005 Y6.387 E0.04168
G1 X-6.814 Y5.881 E0.04168
G1 X-6.506 Y5.436 E0.04168
G1 X-6.102 Y5.077 E0.04168
G1 X-5.623 Y4.826 E0.04168
G1 X-5.098 Y4.696 E0.04168
G1 X-4.557 Y4.696 E0.04167
G1 X-4.032 Y4.826 E0.04168
G1 X-3.553 Y5.077 E0.04168
G1 X-3.148 Y5.436 E0.04168
G1 X-2.841 Y5.881 E0.04168
G1 X-2.649 Y6.387 E0.04168
G1 X-2.591 Y6.864 E0.03705
G1 X-3.224 Y6.923 F15000.000
G1 F600
G1 X-3.271 Y7.307 E0.02978
G1 X-3.408 Y7.668 E0.02978
G1 X-3.627 Y7.986 E0.02978
G1 X-3.917 Y8.243 E0.02978
G1 X-4.259 Y8.422 E0.02978
G1 X-4.634 Y8.515 E0.02978
G1 X-5.021 Y8.515 E0.02978
G1 X-5.396 Y8.422 E0.02978
G1 X-5.738 Y8.243 E0.02978
G1 X-6.027 Y7.986 E0.02978
G1 X-6.247 Y7.668 E0.02978
G1 X-6.384 Y7.307 E0.02978
G1 X-6.430 Y6.923 E0.02978
G1 X-6.384 Y6.540 E0.02978
G1 X-6.247 Y6.178 E0.02978
G1 X-6.027 Y5.860 E0.02978
G1 X-5.738 Y5.604 E0.02978
G1 X-5.396 Y5.425 E0.02978
G1 X-5.021 Y5.332 E0.02978
G1 X-4.634 Y5.332 E0.02978
G1 X-4.259 Y5.425 E0.02978
G1 X-3.917 Y5.604 E0.02978
G1 X-3.627 Y5.860 E0.02978
G1 X-3.408 Y6.178 E0.02978
G1 X-3.271 Y6.540 E0.02978
G1 X-3.232 Y6.864 E0.02516
G1 X-3.224 Y6.923 F15000.000
G1 E-3.50000 F1500.00000
G1 Z0.700 F15000.000
G1 X-7.784 Y6.923 F15000.000
G1 Z0.300 F15000.000
G1 E3.50000 F1500.00000
G1 F600
G1 X-7.843 Y7.412 E0.03796
G1 X-8.018 Y7.873 E0.03796
G1 X-8.298 Y8.278 E0.03796
G1 X-8.667 Y8.605 E0.03796
G1 X-9.103 Y8.834 E0.03796
G1 X-9.581 Y8.952 E0.03796
G1 X-10.074 Y8.952 E0.03796
G1 X-10.552 Y8.834 E0.03796
G1 X-10.988 Y8.605 E0.03796
G1 X-11.357 Y8.278 E0.03796
G1 X-11.636 Y7.873 E0.03796
G1 X-11.811 Y7.412 E0.03796
G1 X-11.871 Y6.923 E0.03796
G1 X-11.811 Y6.434 E0.03796
G1 X-11.636 Y5.974 E0.03796
G1 X-11.357 Y5.568 E0.03796
G1 X-10.988 Y5.242 E0.03796
G1 X-10.552 Y5.013 E0.03796
G1 X-10.074 Y4.895 E0.03796
G1 X-9.581 Y4.895 E0.03796
G1 X-9.103 Y5.013 E0.03796
G1 X-8.667 Y5.242 E0.03796
G1 X-8.298 Y5.568 E0.03796
G1 X-8.018 Y5.974 E0.03796
G1 X-7.843 Y6.434 E0.03796
G1 X-7.791 Y6.864 E0.03334
G1 X-8.424 Y6.923 F15000.000
G1 F600
G1 X-8.465 Y7.259 E0.02606
G1 X-8.585 Y7.575 E0.02606
G1 X-8.777 Y7.854 E0.02606
G1 X-9.030 Y8.078 E0.02606
G1 X-9.330 Y8.235 E0.02606
G1 X-9.658 Y8.316 E0.02606
G1 X-9.996 Y8.316 E0.02606
G1 X-10.325 Y8.235 E0.02606
G1 X-10.624 Y8.078 E0.02606
G1 X-10.877 Y7.854 E0.02606
G1 X-11.070 Y7.575 E0.02606
G1 X-11.189 Y7.259 E0.02606
G1 X-11.230 Y6.923 E0.02606
G1 X-11.189 Y6.588 E0.02606
G1 X-11.070 Y6.271 E0.02606
G1 X-10.877 Y5.993 E0.02606
G1 X-10.624 Y5.769 E0.02606
G1 X-10.325 Y5.612 E0.02606
G1 X-9.996 Y5.531 E0.02606
G1 X-9.658 Y5.531 E0.02606
G1 X-9.330 Y5.612 E0.02606
G1 X-9.030 Y5.769 E0.02606
G1 X-8.777 Y5.993 E0.02606
G1 X-8.585 Y6.271 E0.02606
G1 X-8.465 Y6.588 E0.02606
G1 X-8.432 Y6.864 E0.02144
G1 X-8.424 Y6.923 F15000.000
G1 E-3.50000 F1500.00000
G1 Z0.700 F15000.000
G1 X-12.884 Y6.923 F15000.000
G1 Z0.300 F15000.000
G1 E3.50000 F1500.00000
G1 F600
G1 X-12.941 Y7.388 E0.03610
G1 X-13.107 Y7.826 E0.03610
G1 X-13.373 Y8.212 E0.03610
G1 X-13.723 Y8.523 E0.03610
G1 X-14.138 Y8.740 E0.03610
G1 X-14.593 Y8.852 E0.03610
G1 X-15.062 Y8.852 E0.03610
G1 X-15.516 Y8.740 E0.03610
G1 X-15.931 Y8.523 E0.03610
G1 X-16.282 Y8.212 E0.03610
G1 X-16.548 Y7.826 E0.03610
G1 X-16.714 Y7.388 E0.03610
G1 X-16.771 Y6.923 E0.03610
G1 X-16.714 Y6.458 E0.03610
G1 X-16.548 Y6.020 E0.03610
G1 X-16.282 Y5.635 E0.03610
G1 X-15.931 Y5.324 E0.03610
G1 X-15.516 Y5.106 E0.03610
G1 X-15.062 Y4.994 E0.03610
G1 X-14.593 Y4.994 E0.03610
G1 X-14.138 Y5.106 E0.03610
G1 X-13.723 Y5.324 E0.03610
G1 X-13.373 Y5.635 E0.03610
G1 X-13.107 Y6.020 E0.03610
G1 X-12.941 Y6.458 E0.03610
G1 X-12.891 Y6.864 E0.03148
G1 X-13.524 Y6.923 F15000.000
G1 F600
G1 X-13.562 Y7.235 E0.02421
G1 X-13.674 Y7.529 E0.02421
G1 X-13.852 Y7.787 E0.02421
G1 X-14.087 Y7.996 E0.02421
G1 X-14.365 Y8.142 E0.02421
G1 X-14.670 Y8.217 E0.02421
G1 X-14.984 Y8.217 E0.02421
G1 X-15.289 Y8.142 E0.02421
G1 X-15.567 Y7.996 E0.02421
G1 X-15.803 Y7.787 E0.02421
G1 X-15.981 Y7.529 E0.02421
G1 X-16.092 Y7.235 E0.02421
G1 X-16.130 Y6.923 E0.02421
G1 X-16.092 Y6.612 E0.02421
G1 X-15.981 Y6.318 E0.02421
G1 X-15.803 Y6.059 E0.02421
G1 X-15.567 Y5.851 E0.02421
G1 X-15.289 Y5.705 E0.02421
G1 X-14.984 Y5.630 E0.02421
G1 X-14.670 Y5.630 E0.02421
G1 X-14.365 Y5.705 E0.02421
G1 X-14.087 Y5.851 E0.02421
G1 X-13.852 Y6.059 E0.02421
G1 X-13.674 Y6.318 E0.02421
G1 X-13.562 Y6.612 E0.02421
G1 X-13.532 Y6.864 E0.01958
G1 X-13.524 Y6.923 F15000.000
G1 E-3.50000 F1500.00000
G1 Z0.700 F15000.000
G1 X-16.192 Y2.959 F15000.000
G1 Z0.300 F15000.000
G1 E3.50000 F1500.00000
G1 F720
G1 X19.137 Y2.959 E2.72264
G1 X19.137 Y10.888 E0.61103
G1 X-18.792 Y10.888 E2.92300
G1 X-18.792 Y2.959 E0.61103
G1 X-16.252 Y2.959 E0.19574
G1 X-16.252 Y2.323 F15000.000
G1 F720
G1 X19.773 Y2.323 E2.77625
G1 X19.773 Y11.523 E0.70900
G1 X-19.427 Y11.523 E3.02097
G1 X-19.427 Y2.323 E0.70900
G1 X-16.312 Y2.323 E0.24010
G1 X-15.930 Y2.560 F15000.000
G1 E-3.50000 F1500.00000
G1 Z0.700 F15000.000
G1 X-18.088 Y3.527 F15000.000
G1 Z0.300 F15000.000
G1 E3.50000 F1500.00000
G1 F960
G1 X-18.224 Y3.662 E0.01477
G1 X-18.224 Y4.565 E0.06982
G1 X-17.186 Y3.527 E0.11351
G1 X-16.284 Y3.527 E0.06982
G1 X-18.224 Y5.467 E0.21225
G1 X-18.224 Y6.369 E0.06982
G1 X-15.381 Y3.527 E0.31099
G1 X-14.479 Y3.527 E0.06982
G1 X-15.434 Y4.482 E0.10450
G1 X-15.206 Y4.426 E0.01815
G1 X-14.583 Y4.426 E0.04818
G1 X-14.497 Y4.447 E0.00691
G1 X-13.576 Y3.527 E0.10070
G1 X-12.674 Y3.527 E0.06982
G1 X-13.810 Y4.664 E0.12433
G1 X-13.427 Y4.865 E0.03348
G1 X-13.258 Y5.014 E0.01744
G1 X-11.771 Y3.527 E0.16269
G1 X-10.869 Y3.527 E0.06982
G1 X-12.822 Y5.480 E0.21363
G1 X-12.795 Y5.517 E0.00355
G1 X-12.396 Y5.308 E0.03487
G1 X-12.223 Y5.674 E0.03135
G1 X-11.903 Y5.211 E0.04349
G1 X-11.419 Y4.782 E0.05005
G1 X-11.004 Y4.564 E0.03629
G1 X-9.967 Y3.527 E0.11348
G1 X-9.064 Y3.527 E0.06982
G1 X-9.864 Y4.327 E0.08750
G1 X-9.571 Y4.327 E0.02264
G1 X-9.082 Y4.447 E0.03898
G1 X-8.162 Y3.527 E0.10069
G1 X-7.259 Y3.527 E0.06982
G1 X-8.465 Y4.733 E0.13190
G1 X-8.370 Y4.782 E0.00826
G1 X-7.968 Y5.139 E0.04156
G1 X-6.357 Y3.527 E0.17630
G1 X-5.454 Y3.527 E0.06982
G1 X-6.641 Y4.713 E0.12978
G1 X-6.533 Y4.618 E0.01115
G1 X-5.917 Y4.295 E0.05378
G1 X-5.242 Y4.128 E0.05378
G1 X-5.153 Y4.128 E0.00689
G1 X-4.552 Y3.527 E0.06577
G1 X-3.650 Y3.527 E0.06982
G1 X-4.309 Y4.187 E0.07219
G1 X-3.872 Y4.295 E0.03483
G1 X-3.638 Y4.418 E0.02049
G1 X-2.747 Y3.527 E0.09744
G1 X-1.845 Y3.527 E0.06982
G1 X-3.086 Y4.769 E0.13584
G1 X-2.736 Y5.079 E0.03617
G1 X-2.637 Y5.222 E0.01349
G1 X-0.942 Y3.527 E0.18546
G1 X-0.040 Y3.527 E0.06982
G1 X-0.636 Y4.123 E0.06520
G1 X-0.254 Y4.029 E0.03040
G1 X0.361 Y4.029 E0.04758
G1 X0.863 Y3.527 E0.05491
G1 X1.765 Y3.527 E0.06982
G1 X1.105 Y4.187 E0.07218
G1 X1.163 Y4.201 E0.00462
G1 X1.708 Y4.487 E0.04757
G1 X2.667 Y3.527 E0.10501
G1 X3.570 Y3.527 E0.06982
G1 X2.204 Y4.893 E0.14945
G1 X2.338 Y5.012 E0.01391
G1 X2.545 Y5.312 E0.02813
G1 X2.797 Y4.946 E0.03436
G1 X3.354 Y4.453 E0.05751
G1 X3.759 Y4.240 E0.03542
G1 X4.472 Y3.527 E0.07803
G1 X5.375 Y3.527 E0.06982
G1 X4.972 Y3.930 E0.04405
G1 X5.477 Y3.930 E0.03906
G1 X5.796 Y4.008 E0.02541
G1 X6.277 Y3.527 E0.05265
G1 X7.179 Y3.527 E0.06982
G1 X6.461 Y4.245 E0.07859
G1 X6.857 Y4.453 E0.03457
G1 X7.015 Y4.594 E0.01639
G1 X8.082 Y3.527 E0.11668
G1 X8.644 Y3.527 E0.04348
G1 X8.681 Y3.831 E0.02366
G1 X8.091 Y4.421 E0.06456
G1 X7.610 Y4.901 F15000.000
G1 F960
G1 X7.619 Y4.915 E0.00125
G1 X7.670 Y4.842 E0.00684
G1 X7.475 Y5.036 E0.02126
G1 E-3.50000 F1500.00000
G1 Z0.700 F15000.000
G1 X8.509 Y10.320 F15000.000
G1 Z0.300 F15000.000
G1 E3.50000 F1500.00000
G1 F960
G1 X8.644 Y10.185 E0.01477
G1 X8.699 Y9.728 E0.03555
G1 X8.371 Y9.555 E0.02872
G1 X7.607 Y10.320 E0.08366
G1 X6.704 Y10.320 E0.06982
G1 X7.893 Y9.131 E0.13005
G1 X7.782 Y9.033 E0.01140
G1 X7.619 Y8.797 E0.02219
G1 X7.548 Y8.901 E0.00972
G1 X6.992 Y9.394 E0.05751
G1 X6.436 Y9.685 E0.04856
G1 X5.802 Y10.320 E0.06940
G1 X4.899 Y10.320 E0.06982
G1 X5.302 Y9.917 E0.04405
G1 X4.868 Y9.917 E0.03353
G1 X4.492 Y9.824 E0.02998
G1 X3.997 Y10.320 E0.05420
G1 X3.094 Y10.320 E0.06982
G1 X3.837 Y9.577 E0.08128
G1 X3.488 Y9.394 E0.03048
G1 X3.292 Y9.220 E0.02031
G1 X2.192 Y10.320 E0.12036
G1 X1.290 Y10.320 E0.06982
G1 X2.841 Y8.768 E0.16973
G1 X2.680 Y8.535 E0.02192
G1 X2.473 Y8.834 E0.02813
G1 X1.935 Y9.311 E0.05565
G1 X1.298 Y9.646 E0.05565
G1 X0.984 Y9.723 E0.02506
G1 X0.387 Y10.320 E0.06527
G1 X-0.515 Y10.320 E0.06982
G1 X-0.013 Y9.818 E0.05491
G1 X-0.120 Y9.818 E0.00821
G1 X-0.758 Y9.660 E0.05091
G1 X-1.418 Y10.320 E0.07214
G1 X-2.320 Y10.320 E0.06982
G1 X-1.361 Y9.360 E0.10494
G1 X-1.455 Y9.311 E0.00818
G1 X-1.858 Y8.954 E0.04163
G1 X-3.223 Y10.320 E0.14936
G1 X-4.125 Y10.320 E0.06982
G1 X-2.257 Y8.452 E0.20437
