; generated by Slic3r 1.3.0 on 2020-05-11 at 15:53:19

; external perimeters extrusion width = 0.40mm (4.28mm^3/s)
; perimeters extrusion width = 0.40mm (4.28mm^3/s)
; infill extrusion width = 0.40mm (5.71mm^3/s)
; solid infill extrusion width = 0.40mm (5.71mm^3/s)
; top infill extrusion width = 0.40mm (5.71mm^3/s)

M107
M83
T0
M116
; Filament gcode

G21 ; set units to millimeters
G90 ; use absolute coordinates
M83 ; use relative distances for extrusion
G1 E-3.50000 F1500.00000
G1 Z0.400 F15000.000
G1 X-11.509 Y-19.496 F15000.000
G1 Z0.300 F15000.000
G1 E3.50000 F1500.00000
G1 F960
G1 X19.725 Y-21.503 E2.41204
G1 X22.625 Y-21.503 E0.22349
G1 X24.272 Y-21.109 E0.13052
G1 X25.860 Y-19.525 E0.17283
G1 X38.559 Y5.256 E2.14592
G1 X38.959 Y6.914 E0.13144
G1 X38.959 Y30.814 E1.84187
G1 X38.565 Y32.461 E0.13052
G1 X37.467 Y33.750 E0.13052
G1 X35.324 Y34.449 E0.17373
G1 X-32.576 Y34.449 E5.23275
G1 X-34.223 Y34.055 E0.13052
G1 X-35.513 Y32.957 E0.13052
G1 X-36.202 Y31.081 E0.15398
G1 X-38.929 Y-5.847 E2.85367
G1 X-38.657 Y-7.519 E0.13052
G1 X-37.874 Y-8.686 E0.10829
G1 X-32.288 Y-14.272 E0.60882
G1 X-30.518 Y-15.247 E0.15572
G1 X-12.076 Y-19.414 E1.45704
G1 X-11.569 Y-19.487 E0.03953
G1 E-3.50000 F1500.00000
G1 Z0.700 F15000.000
G1 X28.820 Y24.545 F15000.000
G1 Z0.300 F15000.000
G1 E3.50000 F1500.00000
G1 F600
G1 X29.315 Y24.106 E0.05096
G1 X29.901 Y23.799 E0.05097
G1 X30.543 Y23.640 E0.05096
G1 X31.204 Y23.640 E0.05096
G1 X31.846 Y23.799 E0.05096
G1 X32.432 Y24.106 E0.05097
G1 X32.927 Y24.545 E0.05096
G1 X33.305 Y25.092 E0.05124
G1 X33.539 Y25.724 E0.05193
G1 X33.617 Y26.364 E0.04970
G1 X33.537 Y27.020 E0.05096
G1 X33.303 Y27.639 E0.05097
G1 X32.927 Y28.183 E0.05096
G1 X32.432 Y28.621 E0.05096
G1 X31.846 Y28.929 E0.05097
G1 X31.204 Y29.087 E0.05096
G1 X30.543 Y29.087 E0.05096
G1 X29.901 Y28.929 E0.05096
G1 X29.315 Y28.621 E0.05097
G1 X28.820 Y28.183 E0.05096
G1 X28.443 Y27.636 E0.05124
G1 X28.208 Y27.004 E0.05193
G1 X28.130 Y26.364 E0.04970
G1 X28.210 Y25.707 E0.05097
G1 X28.445 Y25.089 E0.05096
G1 X28.786 Y24.594 E0.04634
G1 X29.300 Y24.969 F15000.000
G1 F600
G1 X29.679 Y24.633 E0.03907
G1 X30.128 Y24.397 E0.03907
G1 X30.620 Y24.276 E0.03907
G1 X31.127 Y24.276 E0.03907
G1 X31.619 Y24.397 E0.03907
G1 X32.068 Y24.633 E0.03907
G1 X32.448 Y24.969 E0.03907
G1 X32.736 Y25.387 E0.03917
G1 X32.917 Y25.874 E0.04004
G1 X32.977 Y26.364 E0.03798
G1 X32.916 Y26.867 E0.03907
G1 X32.736 Y27.341 E0.03907
G1 X32.448 Y27.758 E0.03907
G1 X32.068 Y28.094 E0.03907
G1 X31.619 Y28.330 E0.03907
G1 X31.127 Y28.451 E0.03907
G1 X30.620 Y28.451 E0.03907
G1 X30.128 Y28.330 E0.03907
G1 X29.679 Y28.094 E0.03907
G1 X29.300 Y27.758 E0.03907
G1 X29.011 Y27.340 E0.03917
G1 X28.830 Y26.853 E0.04004
G1 X28.771 Y26.364 E0.03798
G1 X28.832 Y25.860 E0.03907
G1 X29.012 Y25.386 E0.03907
G1 X29.266 Y25.019 E0.03445
G1 X29.300 Y24.969 F15000.000
G1 E-3.50000 F1500.00000
G1 Z0.700 F15000.000
G1 X-9.866 Y29.828 F15000.000
G1 Z0.300 F15000.000
G1 E3.50000 F1500.00000
G1 F720
G1 X-15.241 Y29.828 E0.41418
G1 X-15.241 Y18.653 E0.86120
G1 X31.409 Y18.653 E3.59511
G1 X31.409 Y7.899 E0.82875
G1 X34.338 Y7.899 E0.22571
G1 X34.338 Y29.828 E1.68995
G1 X21.429 Y29.828 E0.99482
G1 X21.429 Y26.301 E0.27181
G1 X21.328 Y25.468 E0.06468
G1 X21.008 Y24.624 E0.06954
G1 X20.496 Y23.881 E0.06954
G1 X19.835 Y23.296 E0.06801
G1 X19.024 Y22.864 E0.07081
G1 X18.145 Y22.648 E0.06977
G1 X17.243 Y22.648 E0.06954
G1 X16.366 Y22.864 E0.06954
G1 X15.585 Y23.274 E0.06801
G1 X14.894 Y23.879 E0.07081
G1 X14.379 Y24.624 E0.06977
G1 X14.059 Y25.468 E0.06954
G1 X13.958 Y26.301 E0.06468
G1 X13.958 Y29.828 E0.27181
G1 X10.929 Y29.828 E0.23341
G1 X10.929 Y29.303 E0.04050
G1 X11.217 Y29.049 E0.02955
G1 X11.772 Y28.246 E0.07525
G1 X12.119 Y27.333 E0.07525
G1 X12.237 Y26.364 E0.07524
G1 X12.119 Y25.396 E0.07515
G1 X11.773 Y24.484 E0.07515
G1 X11.219 Y23.682 E0.07515
G1 X10.526 Y23.068 E0.07139
G1 X9.632 Y22.584 E0.07832
G1 X8.679 Y22.350 E0.07565
G1 X7.704 Y22.350 E0.07515
G1 X6.804 Y22.573 E0.07139
G1 X5.899 Y23.034 E0.07832
G1 X5.165 Y23.686 E0.07565
G1 X4.639 Y24.448 E0.07139
G1 X4.268 Y25.394 E0.07832
G1 X4.150 Y26.369 E0.07565
G1 X4.269 Y27.337 E0.07515
G1 X4.616 Y28.248 E0.07515
G1 X5.172 Y29.050 E0.07515
G1 X5.458 Y29.303 E0.02945
G1 X5.458 Y29.828 E0.04049
G1 X2.429 Y29.828 E0.23341
G1 X2.429 Y26.301 E0.27181
G1 X2.328 Y25.468 E0.06468
G1 X2.008 Y24.624 E0.06954
G1 X1.496 Y23.881 E0.06954
G1 X0.820 Y23.283 E0.06954
G1 X0.021 Y22.864 E0.06954
G1 X-0.855 Y22.648 E0.06954
G1 X-1.758 Y22.648 E0.06954
G1 X-2.634 Y22.864 E0.06954
G1 X-3.433 Y23.283 E0.06954
G1 X-4.108 Y23.881 E0.06954
G1 X-4.621 Y24.624 E0.06954
G1 X-4.941 Y25.468 E0.06954
G1 X-5.042 Y26.301 E0.06468
G1 X-5.042 Y29.828 E0.27181
G1 X-9.806 Y29.828 E0.36717
G1 X-9.806 Y30.464 F15000.000
G1 F720
G1 X-15.876 Y30.464 E0.46779
G1 X-15.876 Y18.018 E0.95917
G1 X30.774 Y18.018 E3.59511
G1 X30.774 Y7.264 E0.82875
G1 X34.974 Y7.264 E0.32368
G1 X34.974 Y30.464 E1.78792
G1 X20.794 Y30.464 E1.09279
G1 X20.794 Y26.340 E0.31783
G1 X20.706 Y25.621 E0.05577
G1 X20.441 Y24.922 E0.05765
G1 X20.016 Y24.306 E0.05765
G1 X19.470 Y23.822 E0.05626
G1 X18.795 Y23.463 E0.05891
G1 X18.068 Y23.283 E0.05773
G1 X17.320 Y23.283 E0.05765
G1 X16.593 Y23.462 E0.05765
G1 X15.947 Y23.802 E0.05626
G1 X15.372 Y24.305 E0.05891
G1 X14.946 Y24.922 E0.05773
G1 X14.681 Y25.621 E0.05765
G1 X14.594 Y26.340 E0.05577
G1 X14.594 Y30.464 E0.31783
G1 X10.294 Y30.464 E0.33138
G1 X10.294 Y29.016 E0.11157
G1 X10.738 Y28.624 E0.04568
G1 X11.206 Y27.948 E0.06333
G1 X11.497 Y27.179 E0.06333
G1 X11.597 Y26.364 E0.06333
G1 X11.498 Y25.549 E0.06325
G1 X11.207 Y24.782 E0.06325
G1 X10.740 Y24.106 E0.06325
G1 X10.159 Y23.592 E0.05981
G1 X9.401 Y23.182 E0.06641
G1 X8.602 Y22.985 E0.06343
G1 X7.781 Y22.986 E0.06325
G1 X7.028 Y23.172 E0.05981
G1 X6.260 Y23.563 E0.06641
G1 X5.644 Y24.110 E0.06343
G1 X5.204 Y24.749 E0.05981
G1 X4.889 Y25.551 E0.06641
G1 X4.791 Y26.368 E0.06343
G1 X4.891 Y27.183 E0.06325
G1 X5.183 Y27.950 E0.06325
G1 X5.650 Y28.624 E0.06325
G1 X6.094 Y29.016 E0.04560
G1 X6.094 Y30.464 E0.11157
G1 X1.794 Y30.464 E0.33138
G1 X1.794 Y26.340 E0.31783
G1 X1.706 Y25.621 E0.05577
G1 X1.441 Y24.922 E0.05765
G1 X1.016 Y24.306 E0.05765
G1 X0.456 Y23.810 E0.05765
G1 X-0.206 Y23.462 E0.05765
G1 X-0.932 Y23.283 E0.05765
G1 X-1.680 Y23.283 E0.05765
G1 X-2.407 Y23.462 E0.05765
G1 X-3.069 Y23.810 E0.05765
G1 X-3.629 Y24.306 E0.05765
G1 X-4.054 Y24.922 E0.05765
G1 X-4.319 Y25.621 E0.05765
G1 X-4.406 Y26.340 E0.05577
G1 X-4.406 Y30.464 E0.31783
G1 X-9.746 Y30.464 E0.41153
G1 X-10.076 Y30.169 F15000.000
G1 E-3.50000 F1500.00000
G1 Z0.700 F15000.000
G1 X-16.226 Y30.648 F15000.000
G1 Z0.300 F15000.000
G1 E3.50000 F1500.00000
G1 F720
G1 X-24.326 Y30.648 E0.26144
G1 E-3.50000 F1500.00000
G1 Z0.700 F15000.000
G1 X-26.743 Y27.927 F15000.000
G1 Z0.300 F15000.000
G1 E3.50000 F1500.00000
G1 F600
G1 X-26.930 Y28.093 E0.01932
G1 X-27.375 Y28.328 E0.03878
G1 X-27.869 Y28.451 E0.03920
G1 X-28.389 Y28.449 E0.04012
G1 X-28.868 Y28.331 E0.03802
G1 X-29.318 Y28.096 E0.03907
G1 X-29.698 Y27.761 E0.03910
G1 X-29.988 Y27.343 E0.03918
G1 X-30.170 Y26.855 E0.04010
G1 X-30.229 Y26.366 E0.03801
G1 X-30.168 Y25.862 E0.03908
G1 X-29.989 Y25.388 E0.03910
G1 X-29.700 Y24.969 E0.03920
G1 X-29.309 Y24.627 E0.04008
G1 X-28.872 Y24.397 E0.03799
G1 X-28.379 Y24.276 E0.03909
G1 X-27.872 Y24.276 E0.03909
G1 X-27.393 Y24.394 E0.03800
G1 X-26.931 Y24.633 E0.04012
G1 X-26.551 Y24.971 E0.03916
G1 X-26.276 Y25.368 E0.03725
G1 X-26.085 Y25.859 E0.04061
G1 X-26.023 Y26.364 E0.03916
G1 X-26.085 Y26.868 E0.03916
G1 X-26.276 Y27.359 E0.04061
G1 X-26.551 Y27.757 E0.03725
G1 X-26.698 Y27.887 E0.01512
G1 X-26.679 Y28.169 F15000.000
G1 E-3.50000 F1500.00000
G1 Z0.700 F15000.000
G1 X-31.591 Y21.591 F15000.000
G1 Z0.300 F15000.000
G1 E3.50000 F1500.00000
G1 F720
G1 X-31.591 Y7.899 E1.05518
G1 X-28.662 Y7.899 E0.22571
G1 X-28.662 Y18.653 E0.82875
G1 X-25.312 Y18.653 E0.25817
G1 X-25.312 Y25.237 E0.50736
G1 X-25.623 Y25.295 E0.02437
G1 X-25.711 Y25.068 E0.01878
G1 X-26.072 Y24.546 E0.04886
G1 X-26.569 Y24.105 E0.05121
G1 X-27.168 Y23.795 E0.05204
G1 X-27.795 Y23.641 E0.04974
G1 X-28.457 Y23.640 E0.05099
G1 X-29.099 Y23.799 E0.05099
G1 X-29.670 Y24.099 E0.04972
G1 X-30.178 Y24.542 E0.05199
G1 X-30.556 Y25.090 E0.05128
G1 X-30.790 Y25.709 E0.05100
G1 X-30.869 Y26.366 E0.05096
G1 X-30.792 Y27.007 E0.04976
G1 X-30.555 Y27.639 E0.05203
G1 X-30.177 Y28.186 E0.05124
G1 X-29.681 Y28.624 E0.05100
G1 X-29.095 Y28.930 E0.05092
G1 X-28.468 Y29.084 E0.04979
G1 X-27.792 Y29.086 E0.05208
G1 X-27.147 Y28.926 E0.05120
G1 X-26.566 Y28.620 E0.05064
G1 X-26.072 Y28.181 E0.05093
G1 X-25.711 Y27.659 E0.04886
G1 X-25.623 Y27.432 E0.01878
G1 X-25.312 Y27.491 E0.02437
G1 X-25.312 Y29.828 E0.18013
G1 X-31.591 Y29.828 E0.48388
G1 X-31.591 Y21.651 E0.63015
G1 X-32.226 Y21.651 F15000.000
G1 F720
G1 X-32.226 Y7.264 E1.10878
G1 X-28.026 Y7.264 E0.32368
G1 X-28.026 Y18.018 E0.82875
G1 X-24.676 Y18.018 E0.25817
G1 X-24.676 Y30.464 E0.95917
G1 X-32.226 Y30.464 E0.58184
G1 X-32.226 Y21.711 E0.67451
G1 X-31.936 Y21.376 F15000.000
G1 E-3.50000 F1500.00000
G1 Z0.700 F15000.000
G1 X-30.615 Y24.551 F15000.000
G1 Z0.300 F15000.000
G1 E3.50000 F1500.00000
G1 F960
G1 X-30.816 Y24.776 E0.00197
G1 F960
G1 X-31.273 Y25.342 E0.01074
G1 X-31.119 Y25.243 F15000.000
G1 F960
G1 X-31.184 Y25.602 E0.00860
G1 F960
G1 X-31.273 Y27.058 E0.02000
G1 X-31.185 Y27.113 F15000.000
G1 F960
G1 X-31.273 Y25.679 E0.01944
G1 X-31.119 Y25.243 F15000.000
G1 F960
G1 X-31.053 Y24.885 E0.01222
G1 E-3.50000 F1500.00000
G1 Z0.700 F15000.000
G1 X-31.185 Y27.113 F15000.000
G1 Z0.300 F15000.000
G1 E3.50000 F1500.00000
G1 F960
G1 X-31.120 Y27.474 E0.00859
G1 F960
G1 X-31.055 Y27.835 E0.01222
G1 X-30.913 Y27.839 F15000.000
G1 F960
G1 X-31.273 Y27.379 E0.00882
G1 X-30.913 Y27.839 F15000.000
G1 F960
G1 X-30.619 Y28.170 E0.00364
G1 X-30.767 Y28.916 F15000.000
G1 F960
G1 X-31.023 Y29.171 E0.03337
G1 X-30.032 Y29.260 F15000.000
G1 F960
G1 X-29.898 Y29.125 E0.01763
G1 X-29.330 Y29.357 F15000.000
G1 F960
G1 X-28.790 Y29.423 E0.00929
G1 F960
G1 X-28.507 Y29.456 E0.00306
G1 X-27.753 Y29.457 E0.00809
G1 X-27.555 Y29.434 E0.00215
G1 F960
G1 X-27.184 Y29.388 E0.00815
G1 F960
G1 X-26.963 Y29.359 E0.00645
G1 X-27.290 Y29.510 F15000.000
G1 F960
G1 X-25.630 Y28.990 E0.13784
G1 X-25.395 Y27.152 F15000.000
G1 F960
G1 X-25.350 Y26.407 E0.06258
G1 X-25.395 Y25.576 E0.06975
G1 X-25.630 Y24.387 F15000.000
G1 F960
G1 X-25.894 Y24.179 E0.00579
G1 F960
G1 X-26.143 Y24.009 E0.00320
G1 X-26.015 Y23.267 F15000.000
G1 F960
G1 X-25.880 Y23.132 E0.01532
G1 X-25.880 Y22.196 E0.07524
G1 X-26.969 Y23.285 E0.12370
G1 X-27.712 Y23.091 E0.06164
G1 X-25.880 Y21.259 E0.20803
G1 X-25.880 Y20.322 E0.07524
G1 X-28.640 Y23.082 E0.31343
G1 X-29.393 Y23.267 E0.06235
G1 X-30.100 Y23.638 E0.06404
G1 X-30.363 Y23.868 E0.02812
G1 X-25.880 Y19.385 E0.50918
G1 X-25.880 Y19.221 E0.01317
G1 X-26.653 Y19.221 E0.06206
G1 X-31.023 Y23.591 E0.49630
G1 X-31.023 Y22.654 E0.07524
G1 X-27.590 Y19.221 E0.38990
G1 X-28.526 Y19.221 E0.07524
G1 X-31.023 Y21.717 E0.28351
G1 X-31.023 Y20.781 E0.07524
G1 X-29.230 Y18.988 E0.20358
G1 X-29.230 Y18.051 E0.07524
G1 X-31.023 Y19.844 E0.20358
G1 X-31.023 Y18.907 E0.07524
G1 X-29.230 Y17.115 E0.20358
G1 X-29.230 Y16.178 E0.07524
G1 X-31.023 Y17.970 E0.20358
G1 X-31.023 Y17.034 E0.07524
G1 X-29.230 Y15.241 E0.20358
G1 X-29.230 Y14.304 E0.07524
G1 X-31.023 Y16.097 E0.20358
G1 X-31.023 Y15.160 E0.07524
G1 X-29.230 Y13.368 E0.20358
G1 X-29.230 Y12.431 E0.07524
G1 X-31.023 Y14.223 E0.20358
G1 X-31.023 Y13.286 E0.07524
G1 X-29.230 Y11.494 E0.20358
G1 X-29.230 Y10.557 E0.07524
G1 X-31.023 Y12.350 E0.20358
G1 X-31.023 Y11.413 E0.07524
G1 X-29.230 Y9.620 E0.20358
G1 X-29.230 Y8.684 E0.07524
G1 X-31.023 Y10.476 E0.20358
G1 X-31.023 Y9.539 E0.07524
G1 X-29.951 Y8.467 E0.12173
G1 X-30.888 Y8.467 E0.07524
G1 X-31.022 Y8.602 E0.01531
G1 E-3.50000 F1500.00000
G1 Z0.700 F15000.000
G1 X-14.672 Y19.356 F15000.000
G1 Z0.300 F15000.000
G1 E3.50000 F1500.00000
G1 F960
G1 X-14.538 Y19.221 E0.01495
G1 X-13.623 Y19.221 E0.07167
G1 X-14.673 Y20.271 E0.11632
G1 X-14.673 Y21.185 E0.07167
G1 X-12.709 Y19.221 E0.21767
G1 X-11.795 Y19.221 E0.07167
G1 X-14.673 Y22.099 E0.31903
G1 X-14.673 Y23.014 E0.07167
G1 X-10.880 Y19.221 E0.42038
G1 X-9.966 Y19.221 E0.07167
G1 X-14.673 Y23.928 E0.52174
G1 X-14.673 Y24.842 E0.07167
G1 X-9.052 Y19.221 E0.62309
G1 X-8.137 Y19.221 E0.07167
G1 X-14.673 Y25.756 E0.72445
G1 X-14.673 Y26.671 E0.07167
G1 X-7.223 Y19.221 E0.82580
G1 X-6.309 Y19.221 E0.07167
G1 X-14.673 Y27.585 E0.92716
G1 X-14.673 Y28.499 E0.07167
G1 X-5.394 Y19.221 E1.02851
G1 X-4.480 Y19.221 E0.07167
G1 X-14.519 Y29.260 E1.11282
G1 X-13.604 Y29.260 E0.07167
G1 X-3.566 Y19.221 E1.11282
G1 X-2.652 Y19.221 E0.07167
G1 X-12.690 Y29.260 E1.11282
G1 X-11.776 Y29.260 E0.07167
G1 X-1.737 Y19.221 E1.11282
G1 X-0.823 Y19.221 E0.07167
G1 X-10.861 Y29.260 E1.11282
G1 X-9.947 Y29.260 E0.07167
G1 X-5.361 Y24.674 E0.50837
G1 X-5.255 Y24.394 E0.02347
G1 X-4.655 Y23.524 E0.08283
G1 X-3.864 Y22.824 E0.08283
G1 X-3.121 Y22.434 E0.06576
G1 X0.091 Y19.221 E0.35611
G1 X1.006 Y19.221 E0.07167
G1 X-1.853 Y22.080 E0.31685
G1 X-0.938 Y22.080 E0.07167
G1 X1.920 Y19.221 E0.31685
G1 X2.834 Y19.221 E0.07167
G1 X-0.186 Y22.242 E0.33486
G1 X0.181 Y22.332 E0.02963
G1 X0.480 Y22.490 E0.02652
G1 X3.749 Y19.221 E0.36231
G1 X4.663 Y19.221 E0.07167
G1 X1.080 Y22.804 E0.39720
G1 X1.572 Y23.227 E0.05082
G1 X5.577 Y19.221 E0.44404
G1 X6.492 Y19.221 E0.07167
G1 X2.022 Y23.691 E0.49545
G1 X2.396 Y24.232 E0.05152
G1 X7.406 Y19.221 E0.55541
G1 X8.320 Y19.221 E0.07167
G1 X2.684 Y24.858 E0.62484
G1 X2.882 Y25.382 E0.04395
G1 X2.903 Y25.553 E0.01347
G1 X3.856 Y24.600 E0.10562
G1 X4.007 Y24.216 E0.03237
G1 X4.618 Y23.329 E0.08439
G1 X5.470 Y22.572 E0.08938
G1 X6.313 Y22.143 E0.07415
G1 X9.234 Y19.221 E0.32383
G1 X10.149 Y19.221 E0.07167
G1 X7.588 Y21.782 E0.28388
G1 X8.503 Y21.782 E0.07172
G1 X11.063 Y19.221 E0.28381
G1 X11.977 Y19.221 E0.07167
G1 X9.273 Y21.925 E0.29975
G1 X9.795 Y22.054 E0.04213
G1 X9.967 Y22.146 E0.01527
G1 X12.892 Y19.221 E0.32425
G1 X13.806 Y19.221 E0.07167
G1 X10.560 Y22.467 E0.35984
G1 X10.825 Y22.611 E0.02362
G1 X11.093 Y22.848 E0.02810
G1 X14.720 Y19.221 E0.40207
G1 X15.635 Y19.221 E0.07167
G1 X11.578 Y23.278 E0.44966
G1 X11.631 Y23.324 E0.00552
G1 X11.964 Y23.806 E0.04592
G1 X16.549 Y19.221 E0.50827
G1 X17.463 Y19.221 E0.07167
G1 X12.316 Y24.368 E0.57056
G1 X12.568 Y25.031 E0.05557
G1 X18.377 Y19.221 E0.64403
G1 X19.292 Y19.221 E0.07167
G1 X16.216 Y22.297 E0.34094
G1 X17.098 Y22.080 E0.07118
G1 X17.348 Y22.080 E0.01959
G1 X20.206 Y19.221 E0.31685
G1 X21.120 Y19.221 E0.07167
G1 X18.241 Y22.101 E0.31921
G1 X18.974 Y22.282 E0.05922
G1 X22.035 Y19.221 E0.33925
G1 X22.949 Y19.221 E0.07167
G1 X19.610 Y22.560 E0.37010
G1 X20.133 Y22.838 E0.04638
G1 X20.193 Y22.892 E0.00633
G1 X23.863 Y19.221 E0.40686
G1 X24.778 Y19.221 E0.07167
G1 X20.678 Y23.321 E0.45447
G1 X20.907 Y23.524 E0.02403
G1 X21.104 Y23.809 E0.02714
G1 X25.692 Y19.221 E0.50859
G1 X26.606 Y19.221 E0.07167
G1 X21.477 Y24.350 E0.56856
G1 X21.739 Y25.003 E0.05513
G1 X27.521 Y19.221 E0.64095
G1 X28.435 Y19.221 E0.07167
G1 X21.925 Y25.731 E0.72167
G1 X21.997 Y26.330 E0.04727
G1 X21.997 Y26.573 E0.01905
G1 X29.349 Y19.221 E0.81497
G1 X30.263 Y19.221 E0.07167
G1 X21.997 Y27.487 E0.91632
G1 X21.997 Y28.402 E0.07167
G1 X31.178 Y19.221 E1.01768
G1 X32.092 Y19.221 E0.07167
G1 X22.054 Y29.260 E1.11282
G1 E-3.50000 F1500.00000
G1 Z0.700 F15000.000
G1 X28.454 Y29.260 F15000.000
G1 Z0.300 F15000.000
G1 E3.50000 F1500.00000
G1 F960
G1 X28.589 Y29.125 E0.01500
G1 X28.771 Y28.861 E0.02511
G1 X28.409 Y28.540 E0.03795
G1 X28.348 Y28.452 E0.00841
G1 X27.539 Y29.260 E0.08960
G1 X26.625 Y29.260 E0.07167
G1 X27.974 Y27.911 E0.14956
G1 X27.942 Y27.864 E0.00446
G1 X27.716 Y27.255 E0.05092
G1 X25.711 Y29.260 E0.22227
G1 X24.796 Y29.260 E0.07167
G1 X27.580 Y26.477 E0.30852
G1 X27.558 Y26.296 E0.01425
G1 X27.656 Y25.486 E0.06400
G1 X23.882 Y29.260 E0.41837
G1 X22.968 Y29.260 E0.07167
G1 X33.770 Y18.458 E1.19746
G1 X33.770 Y17.544 E0.07167
G1 X31.977 Y19.336 E0.19870
