; generated by Slic3r 1.3.0 on 2020-04-30 at 17:59:37

; external perimeters extrusion width = 0.40mm (4.28mm^3/s)
; perimeters extrusion width = 0.40mm (4.28mm^3/s)
; infill extrusion width = 0.40mm (5.71mm^3/s)
; solid infill extrusion width = 0.40mm (5.71mm^3/s)
; top infill extrusion width = 0.40mm (5.71mm^3/s)

M107
M83
T0
M116
; Filament gcode

G21 ; set units to millimeters
G90 ; use absolute coordinates
M83 ; use relative distances for extrusion
G1 E-3.50000 F1500.00000
G1 Z0.400 F15000.000
G1 X-19.685 Y-19.562 F15000.000
G1 Z0.300 F15000.000
G1 E3.50000 F1500.00000
G1 F960
G1 X-19.036 Y-20.536 E0.09022
G1 X-16.876 Y-22.857 E0.24437
G1 X-16.525 Y-23.188 E0.03721
G1 X-11.746 Y-27.120 E0.47686
G1 X-11.362 Y-27.396 E0.03651
G1 X-10.973 Y-27.639 E0.03529
G1 X-10.202 Y-28.003 E0.06575
G1 X-9.783 Y-28.143 E0.03402
G1 X-8.978 Y-28.314 E0.06343
G1 X-8.539 Y-28.356 E0.03402
G1 X-7.775 Y-28.349 E0.05882
G1 X17.100 Y-25.493 E1.92963
G1 X18.691 Y-24.913 E0.13052
G1 X20.102 Y-23.124 E0.17558
G1 X28.367 Y-0.405 E1.86305
G1 X28.586 Y0.837 E0.09726
G1 X28.586 Y24.737 E1.84187
G1 X28.191 Y26.385 E0.13052
G1 X27.093 Y27.674 E0.13052
G1 X24.950 Y28.373 E0.17373
G1 X-24.950 Y28.373 E3.84557
G1 X-26.597 Y27.979 E0.13052
G1 X-27.887 Y26.881 E0.13052
G1 X-28.586 Y24.737 E0.17373
G1 X-28.586 Y0.837 E1.84187
G1 X-28.261 Y-0.665 E0.11846
G1 X-19.710 Y-19.507 E1.59460
G1 E-3.50000 F1500.00000
G1 Z0.700 F15000.000
G1 X-0.066 Y12.577 F15000.000
G1 Z0.300 F15000.000
G1 E3.50000 F1500.00000
G1 F720
G1 X21.036 Y12.577 E1.62624
G1 X21.036 Y1.823 E0.82875
G1 X23.964 Y1.823 E0.22571
G1 X23.964 Y17.981 E1.24518
G1 X23.473 Y17.722 E0.04279
G1 X22.831 Y17.564 E0.05097
G1 X22.169 Y17.564 E0.05096
G1 X21.527 Y17.722 E0.05096
G1 X20.942 Y18.030 E0.05097
G1 X20.447 Y18.468 E0.05096
G1 X20.071 Y19.013 E0.05096
G1 X19.836 Y19.631 E0.05096
G1 X19.757 Y20.287 E0.05097
G1 X19.835 Y20.928 E0.04970
G1 X20.069 Y21.559 E0.05193
G1 X20.447 Y22.107 E0.05124
G1 X20.942 Y22.545 E0.05096
G1 X21.527 Y22.852 E0.05097
G1 X22.169 Y23.011 E0.05096
G1 X22.831 Y23.011 E0.05096
G1 X23.473 Y22.852 E0.05096
G1 X23.964 Y22.594 E0.04279
G1 X23.964 Y23.752 E0.08920
G1 X13.056 Y23.752 E0.84069
G1 X13.056 Y20.225 E0.27181
G1 X12.954 Y19.392 E0.06468
G1 X12.634 Y18.548 E0.06954
G1 X12.122 Y17.805 E0.06954
G1 X11.461 Y17.220 E0.06801
G1 X10.650 Y16.788 E0.07081
G1 X9.771 Y16.572 E0.06977
G1 X8.869 Y16.572 E0.06954
G1 X7.993 Y16.787 E0.06954
G1 X7.211 Y17.198 E0.06801
G1 X6.520 Y17.803 E0.07081
G1 X6.006 Y18.548 E0.06977
G1 X5.686 Y19.392 E0.06954
G1 X5.584 Y20.225 E0.06468
G1 X5.584 Y23.752 E0.27181
G1 X2.556 Y23.752 E0.23341
G1 X2.556 Y23.226 E0.04050
G1 X2.843 Y22.972 E0.02955
G1 X3.399 Y22.169 E0.07525
G1 X3.745 Y21.257 E0.07525
G1 X3.863 Y20.288 E0.07524
G1 X3.746 Y19.319 E0.07515
G1 X3.400 Y18.408 E0.07515
G1 X2.846 Y17.605 E0.07515
G1 X2.152 Y16.991 E0.07139
G1 X1.258 Y16.508 E0.07832
G1 X0.305 Y16.273 E0.07565
G1 X-0.670 Y16.274 E0.07515
G1 X-1.569 Y16.496 E0.07139
G1 X-2.475 Y16.958 E0.07832
G1 X-3.209 Y17.609 E0.07565
G1 X-3.762 Y18.412 E0.07515
G1 X-4.107 Y19.325 E0.07515
G1 X-4.223 Y20.293 E0.07515
G1 X-4.104 Y21.261 E0.07515
G1 X-3.757 Y22.172 E0.07515
G1 X-3.202 Y22.973 E0.07515
G1 X-2.916 Y23.226 E0.02945
G1 X-2.916 Y23.752 E0.04049
G1 X-5.944 Y23.752 E0.23341
G1 X-5.944 Y20.225 E0.27181
G1 X-6.046 Y19.392 E0.06468
G1 X-6.366 Y18.548 E0.06954
G1 X-6.878 Y17.805 E0.06954
G1 X-7.539 Y17.220 E0.06801
G1 X-8.350 Y16.788 E0.07081
G1 X-9.229 Y16.572 E0.06977
G1 X-10.131 Y16.572 E0.06954
G1 X-10.988 Y16.783 E0.06801
G1 X-11.804 Y17.205 E0.07081
G1 X-12.482 Y17.805 E0.06977
G1 X-12.994 Y18.548 E0.06954
G1 X-13.314 Y19.392 E0.06954
G1 X-13.416 Y20.225 E0.06468
G1 X-13.416 Y23.752 E0.27181
G1 X-23.964 Y23.752 E0.81295
G1 X-23.964 Y22.594 E0.08920
G1 X-23.473 Y22.852 E0.04279
G1 X-22.831 Y23.011 E0.05097
G1 X-22.169 Y23.011 E0.05096
G1 X-21.527 Y22.852 E0.05096
G1 X-20.942 Y22.545 E0.05096
G1 X-20.447 Y22.107 E0.05096
G1 X-20.071 Y21.562 E0.05096
G1 X-19.836 Y20.944 E0.05096
G1 X-19.757 Y20.287 E0.05097
G1 X-19.836 Y19.631 E0.05097
G1 X-20.065 Y19.028 E0.04970
G1 X-20.444 Y18.471 E0.05193
G1 X-20.942 Y18.030 E0.05124
G1 X-21.527 Y17.722 E0.05097
G1 X-22.169 Y17.564 E0.05097
G1 X-22.831 Y17.564 E0.05096
G1 X-23.473 Y17.722 E0.05096
G1 X-23.964 Y17.981 E0.04279
G1 X-23.964 Y1.823 E1.24518
G1 X-21.036 Y1.823 E0.22571
G1 X-21.036 Y12.577 E0.82875
G1 X-0.126 Y12.577 E1.61137
G1 X-0.126 Y11.941 F15000.000
G1 F720
G1 X20.400 Y11.941 E1.58188
G1 X20.400 Y1.187 E0.82875
G1 X24.600 Y1.187 E0.32368
G1 X24.600 Y19.183 E1.38686
G1 X24.332 Y19.267 E0.02163
G1 X24.074 Y18.893 E0.03500
G1 X23.695 Y18.557 E0.03907
G1 X23.246 Y18.321 E0.03907
G1 X22.753 Y18.200 E0.03907
G1 X22.247 Y18.200 E0.03907
G1 X21.754 Y18.321 E0.03907
G1 X21.305 Y18.557 E0.03907
G1 X20.926 Y18.893 E0.03907
G1 X20.638 Y19.310 E0.03907
G1 X20.458 Y19.784 E0.03907
G1 X20.397 Y20.287 E0.03907
G1 X20.456 Y20.777 E0.03798
G1 X20.637 Y21.264 E0.04004
G1 X20.926 Y21.682 E0.03917
G1 X21.305 Y22.018 E0.03907
G1 X21.754 Y22.254 E0.03907
G1 X22.247 Y22.375 E0.03907
G1 X22.753 Y22.375 E0.03907
G1 X23.246 Y22.254 E0.03907
G1 X23.695 Y22.018 E0.03907
G1 X24.074 Y21.682 E0.03907
G1 X24.332 Y21.308 E0.03500
G1 X24.600 Y21.392 E0.02163
G1 X24.600 Y24.387 E0.23087
G1 X12.420 Y24.387 E0.93866
G1 X12.420 Y20.263 E0.31783
G1 X12.333 Y19.545 E0.05577
G1 X12.068 Y18.845 E0.05765
G1 X11.643 Y18.230 E0.05765
G1 X11.096 Y17.746 E0.05626
G1 X10.421 Y17.386 E0.05891
G1 X9.694 Y17.207 E0.05773
G1 X8.946 Y17.207 E0.05765
G1 X8.220 Y17.386 E0.05765
G1 X7.573 Y17.725 E0.05626
G1 X6.998 Y18.229 E0.05892
G1 X6.572 Y18.845 E0.05773
G1 X6.307 Y19.545 E0.05765
G1 X6.220 Y20.263 E0.05577
G1 X6.220 Y24.387 E0.31783
G1 X1.920 Y24.387 E0.33138
G1 X1.920 Y22.940 E0.11157
G1 X2.364 Y22.547 E0.04568
G1 X2.832 Y21.871 E0.06333
G1 X3.124 Y21.103 E0.06333
G1 X3.223 Y20.287 E0.06333
G1 X3.124 Y19.473 E0.06325
G1 X2.833 Y18.705 E0.06325
G1 X2.366 Y18.030 E0.06325
G1 X1.785 Y17.516 E0.05981
G1 X1.027 Y17.106 E0.06641
G1 X0.228 Y16.909 E0.06343
G1 X-0.593 Y16.910 E0.06325
G1 X-1.346 Y17.096 E0.05981
G1 X-2.114 Y17.487 E0.06641
G1 X-2.729 Y18.033 E0.06343
G1 X-3.195 Y18.709 E0.06325
G1 X-3.485 Y19.477 E0.06325
G1 X-3.583 Y20.292 E0.06325
G1 X-3.483 Y21.106 E0.06325
G1 X-3.191 Y21.873 E0.06325
G1 X-2.724 Y22.548 E0.06325
G1 X-2.280 Y22.940 E0.04560
G1 X-2.280 Y24.387 E0.11157
G1 X-6.580 Y24.387 E0.33138
G1 X-6.580 Y20.263 E0.31783
G1 X-6.667 Y19.545 E0.05577
G1 X-6.932 Y18.845 E0.05765
G1 X-7.357 Y18.230 E0.05765
G1 X-7.904 Y17.746 E0.05626
G1 X-8.579 Y17.386 E0.05891
G1 X-9.306 Y17.207 E0.05773
G1 X-10.054 Y17.207 E0.05765
G1 X-10.763 Y17.382 E0.05626
G1 X-11.442 Y17.733 E0.05891
G1 X-12.003 Y18.230 E0.05773
G1 X-12.428 Y18.845 E0.05765
G1 X-12.693 Y19.545 E0.05765
G1 X-12.780 Y20.263 E0.05577
G1 X-12.780 Y24.387 E0.31783
G1 X-24.600 Y24.387 E0.91091
G1 X-24.600 Y21.392 E0.23087
G1 X-24.332 Y21.308 E0.02163
G1 X-24.074 Y21.682 E0.03500
G1 X-23.695 Y22.018 E0.03907
G1 X-23.246 Y22.254 E0.03907
G1 X-22.753 Y22.375 E0.03907
G1 X-22.247 Y22.375 E0.03907
G1 X-21.754 Y22.254 E0.03907
G1 X-21.305 Y22.018 E0.03907
G1 X-20.926 Y21.682 E0.03907
G1 X-20.638 Y21.265 E0.03907
G1 X-20.458 Y20.791 E0.03907
G1 X-20.397 Y20.287 E0.03907
G1 X-20.458 Y19.784 E0.03907
G1 X-20.633 Y19.323 E0.03798
G1 X-20.925 Y18.894 E0.04004
G1 X-21.305 Y18.557 E0.03917
G1 X-21.754 Y18.321 E0.03907
G1 X-22.247 Y18.200 E0.03907
G1 X-22.753 Y18.200 E0.03907
G1 X-23.246 Y18.321 E0.03907
G1 X-23.695 Y18.557 E0.03907
G1 X-24.074 Y18.893 E0.03907
G1 X-24.332 Y19.267 E0.03500
G1 X-24.600 Y19.183 E0.02163
G1 X-24.600 Y1.187 E1.38686
G1 X-20.400 Y1.187 E0.32368
G1 X-20.400 Y11.941 E0.82875
G1 X-0.186 Y11.941 E1.55776
G1 X0.015 Y12.316 F15000.000
G1 E-3.50000 F1500.00000
G1 Z0.700 F15000.000
G1 X-5.590 Y19.045 F15000.000
G1 Z0.300 F15000.000
G1 E3.50000 F1500.00000
G1 F960
G1 X-5.491 Y19.306 E0.02158
G1 X-5.432 Y19.791 E0.03783
G1 X-4.610 Y18.968 E0.09010
G1 X-4.661 Y19.105 E0.01131
G1 X-4.773 Y20.035 E0.07255
G1 X-5.376 Y20.638 E0.06605
G1 X-5.376 Y21.541 E0.06995
G1 X-4.716 Y20.881 E0.07234
G1 X-4.658 Y21.347 E0.03640
G1 X-4.554 Y21.622 E0.02277
G1 X-5.376 Y22.444 E0.09007
G1 X-5.376 Y23.184 E0.05725
G1 X-5.212 Y23.184 E0.01271
G1 X-4.305 Y22.276 E0.09939
G1 X-4.256 Y22.403 E0.01050
G1 X-3.958 Y22.833 E0.04054
G1 X-4.309 Y23.184 E0.03839
G1 E-3.50000 F1500.00000
G1 Z0.700 F15000.000
G1 X4.724 Y23.184 F15000.000
G1 Z0.300 F15000.000
G1 E3.50000 F1500.00000
G1 F960
G1 X5.016 Y22.892 E0.03200
G1 X5.016 Y21.988 E0.06995
G1 X3.821 Y23.184 E0.13092
G1 X3.449 Y23.184 E0.02879
G1 X3.898 Y22.535 E0.06109
G1 X4.101 Y22.000 E0.04431
G1 X5.016 Y21.085 E0.10023
G1 X5.016 Y20.182 E0.06995
G1 X4.380 Y20.818 E0.06970
G1 X4.436 Y20.355 E0.03612
G1 X4.382 Y19.912 E0.03454
G1 E-3.50000 F1500.00000
G1 Z0.700 F15000.000
G1 X19.140 Y19.607 F15000.000
G1 Z0.300 F15000.000
G1 E3.50000 F1500.00000
G1 F960
G1 X19.147 Y19.545 E0.00485
G1 X19.437 Y18.782 E0.06317
G1 X19.900 Y18.111 E0.06317
G1 X20.511 Y17.570 E0.06317
G1 X21.233 Y17.191 E0.06317
G1 X21.662 Y17.086 E0.03420
G1 X23.396 Y15.351 E0.18997
G1 X23.396 Y16.254 E0.06995
G1 X22.654 Y16.996 E0.08124
G1 E-3.50000 F1500.00000
G1 Z0.700 F15000.000
G1 X21.604 Y12.627 F15000.000
G1 Z0.300 F15000.000
G1 E3.50000 F1500.00000
G1 F960
G1 X23.396 Y10.835 E0.19630
G1 X23.396 Y9.931 E0.06995
G1 X21.604 Y11.724 E0.19630
G1 X21.604 Y10.820 E0.06995
G1 X23.396 Y9.028 E0.19630
G1 X23.396 Y8.125 E0.06995
G1 X21.604 Y9.917 E0.19630
G1 X21.604 Y9.014 E0.06995
G1 X23.396 Y7.221 E0.19630
G1 X23.396 Y6.318 E0.06995
G1 X21.604 Y8.110 E0.19630
G1 X21.604 Y7.207 E0.06995
G1 X23.396 Y5.415 E0.19630
G1 X23.396 Y4.512 E0.06995
G1 X21.604 Y6.304 E0.19630
G1 X21.604 Y5.401 E0.06995
G1 X23.396 Y3.608 E0.19630
G1 X23.396 Y2.705 E0.06995
G1 X21.604 Y4.497 E0.19630
G1 X21.604 Y3.594 E0.06995
G1 X22.807 Y2.391 E0.13173
G1 X21.903 Y2.391 E0.06995
G1 X21.604 Y2.691 E0.03280
G1 X21.604 Y2.526 E0.01275
G1 X21.768 Y2.526 E0.01275
G1 E-3.50000 F1500.00000
G1 Z0.700 F15000.000
G1 X20.080 Y23.184 F15000.000
G1 Z0.300 F15000.000
G1 E3.50000 F1500.00000
G1 F960
G1 X20.215 Y23.048 E0.01482
G1 X20.397 Y22.785 E0.02481
G1 X20.035 Y22.464 E0.03749
G1 X19.978 Y22.382 E0.00769
G1 X19.177 Y23.184 E0.08780
G1 X18.273 Y23.184 E0.06995
G1 X19.610 Y21.848 E0.14633
G1 X19.568 Y21.788 E0.00564
G1 X19.351 Y21.203 E0.04832
G1 X17.370 Y23.184 E0.21695
G1 X16.467 Y23.184 E0.06995
G1 X19.211 Y20.440 E0.30050
G1 X19.184 Y20.220 E0.01715
G1 X19.275 Y19.472 E0.05832
G1 X15.564 Y23.184 E0.40644
G1 X14.660 Y23.184 E0.06995
G1 X23.396 Y14.448 E0.95675
G1 X23.396 Y13.544 E0.06995
G1 X13.757 Y23.184 E1.05568
G1 X13.624 Y23.184 E0.01031
G1 X13.624 Y22.414 E0.05964
G1 X23.396 Y12.641 E1.07026
G1 X23.396 Y11.738 E0.06995
G1 X13.624 Y21.510 E1.07026
G1 X13.624 Y20.607 E0.06995
G1 X21.086 Y13.145 E0.81721
G1 X20.182 Y13.145 E0.06995
G1 X13.564 Y19.763 E0.72481
G1 X13.509 Y19.306 E0.03568
G1 X13.401 Y19.023 E0.02344
G1 X19.279 Y13.145 E0.64372
G1 X18.376 Y13.145 E0.06995
G1 X13.153 Y18.368 E0.57200
G1 X12.793 Y17.824 E0.05048
G1 X17.472 Y13.145 E0.51246
G1 X16.569 Y13.145 E0.06995
G1 X12.392 Y17.322 E0.45750
G1 X11.913 Y16.898 E0.04955
G1 X15.666 Y13.145 E0.41103
G1 X14.763 Y13.145 E0.06995
G1 X11.359 Y16.549 E0.37277
G1 X10.760 Y16.245 E0.05203
G1 X13.859 Y13.145 E0.33946
G1 X12.956 Y13.145 E0.06995
G1 X10.035 Y16.066 E0.31989
G1 X9.781 Y16.003 E0.02027
G1 X9.194 Y16.003 E0.04542
G1 X12.053 Y13.145 E0.31303
G1 X11.149 Y13.145 E0.06995
G1 X8.150 Y16.145 E0.32854
G1 X7.698 Y16.256 E0.03600
G1 X6.782 Y16.737 E0.08015
G1 X5.974 Y17.444 E0.08311
G1 X5.371 Y18.318 E0.08222
G1 X5.001 Y19.293 E0.08080
G1 X4.382 Y19.912 E0.06778
G1 X4.300 Y19.234 E0.05294
G1 X4.261 Y19.130 E0.00854
G1 X10.246 Y13.145 E0.65552
G1 X9.343 Y13.145 E0.06995
G1 X4.012 Y18.476 E0.58380
G1 X3.899 Y18.178 E0.02470
G1 X3.698 Y17.886 E0.02739
G1 X8.440 Y13.145 E0.51927
G1 X7.536 Y13.145 E0.06995
G1 X3.329 Y17.352 E0.46076
G1 X3.257 Y17.248 E0.00980
G1 X2.872 Y16.907 E0.03990
G1 X6.633 Y13.145 E0.41195
G1 X5.730 Y13.145 E0.06995
G1 X2.379 Y16.496 E0.36694
G1 X1.793 Y16.178 E0.05161
G1 X4.826 Y13.145 E0.33221
G1 X3.923 Y13.145 E0.06995
G1 X1.156 Y15.912 E0.30305
G1 X0.431 Y15.734 E0.05782
G1 X3.020 Y13.145 E0.28352
G1 X2.117 Y13.145 E0.06995
G1 X-0.444 Y15.706 E0.28043
G1 X-0.815 Y15.706 E0.02875
G1 X-1.522 Y15.881 E0.05642
G1 X1.213 Y13.145 E0.29961
G1 X0.310 Y13.145 E0.06995
G1 X-5.590 Y19.045 E0.64618
G1 X-5.839 Y18.390 E0.05424
G1 X-0.593 Y13.145 E0.57445
G1 X-1.497 Y13.145 E0.06995
G1 X-6.194 Y17.843 E0.51446
G1 X-6.466 Y17.448 E0.03712
G1 X-6.592 Y17.337 E0.01298
G1 X-2.400 Y13.145 E0.45909
G1 X-3.303 Y13.145 E0.06995
G1 X-7.071 Y16.913 E0.41262
G1 X-7.241 Y16.762 E0.01762
G1 X-7.621 Y16.560 E0.03333
G1 X-4.206 Y13.145 E0.37394
G1 X-5.110 Y13.145 E0.06995
G1 X-8.215 Y16.251 E0.34013
G1 X-8.940 Y16.072 E0.05780
G1 X-6.013 Y13.145 E0.32056
G1 X-6.916 Y13.145 E0.06995
G1 X-9.775 Y16.003 E0.31303
G1 X-10.276 Y16.003 E0.03881
G1 X-10.809 Y16.135 E0.04256
G1 X-7.820 Y13.145 E0.32744
G1 X-8.723 Y13.145 E0.06995
G1 X-18.761 Y23.184 E1.09941
G1 X-19.665 Y23.184 E0.06995
G1 X-9.626 Y13.145 E1.09941
G1 X-10.529 Y13.145 E0.06995
G1 X-20.359 Y22.975 E1.07654
G1 X-20.397 Y22.920 E0.00519
G1 X-20.035 Y22.599 E0.03749
G1 X-19.571 Y21.927 E0.06317
G1 X-19.282 Y21.165 E0.06317
G1 X-19.259 Y20.971 E0.01510
G1 X-11.433 Y13.145 E0.85709
G1 X-12.336 Y13.145 E0.06995
G1 X-19.223 Y20.032 E0.75426
G1 X-19.282 Y19.545 E0.03799
G1 X-19.380 Y19.286 E0.02145
G1 X-13.239 Y13.145 E0.67257
G1 X-14.143 Y13.145 E0.06995
G1 X-19.659 Y18.661 E0.60415
G1 X-20.025 Y18.124 E0.05035
G1 X-15.046 Y13.145 E0.54526
G1 X-15.949 Y13.145 E0.06995
G1 X-20.502 Y17.698 E0.49858
G1 X-20.645 Y17.570 E0.01486
G1 X-21.060 Y17.353 E0.03627
G1 X-16.853 Y13.145 E0.46081
G1 X-17.756 Y13.145 E0.06995
G1 X-21.716 Y17.105 E0.43373
G1 X-22.160 Y16.996 E0.03537
G1 X-22.510 Y16.996 E0.02714
G1 X-18.659 Y13.145 E0.42175
G1 X-19.562 Y13.145 E0.06995
G1 X-23.396 Y16.979 E0.41988
G1 X-23.396 Y16.076 E0.06995
G1 X-20.466 Y13.145 E0.32095
G1 X-21.369 Y13.145 E0.06995
G1 X-23.396 Y15.172 E0.22202
G1 X-23.396 Y14.269 E0.06995
G1 X-21.604 Y12.477 E0.19630
G1 X-21.604 Y11.573 E0.06995
G1 X-23.396 Y13.366 E0.19630
G1 X-23.396 Y12.462 E0.06995
G1 X-21.604 Y10.670 E0.19630
G1 X-21.604 Y9.767 E0.06995
G1 X-23.396 Y11.559 E0.19630
G1 X-23.396 Y10.656 E0.06995
G1 X-21.604 Y8.863 E0.19630
G1 X-21.604 Y7.960 E0.06995
G1 X-23.396 Y9.753 E0.19630
G1 X-23.396 Y8.849 E0.06995
G1 X-21.604 Y7.057 E0.19630
G1 X-21.604 Y6.154 E0.06995
G1 X-23.396 Y7.946 E0.19630
G1 X-23.396 Y7.043 E0.06995
G1 X-21.604 Y5.250 E0.19630
G1 X-21.604 Y4.347 E0.06995
G1 X-23.396 Y6.139 E0.19630
G1 X-23.396 Y5.236 E0.06995
G1 X-21.604 Y3.444 E0.19630
G1 X-21.604 Y2.540 E0.06995
G1 X-23.396 Y4.333 E0.19630
G1 X-23.396 Y3.430 E0.06995
G1 X-22.358 Y2.391 E0.11372
G1 X-23.261 Y2.391 E0.06995
G1 X-23.396 Y2.526 E0.01477
G1 E-3.50000 F1500.00000
G1 Z0.700 F15000.000
G1 X-12.899 Y17.322 F15000.000
G1 Z0.300 F15000.000
G1 E3.50000 F1500.00000
G1 F960
G1 X-13.494 Y18.183 E0.08104
G1 X-13.872 Y19.197 E0.08384
G1 X-17.858 Y23.184 E0.43657
G1 X-16.955 Y23.184 E0.06995
G1 X-13.984 Y20.213 E0.32539
G1 X-13.984 Y21.116 E0.06995
G1 X-16.052 Y23.184 E0.22646
G1 X-15.148 Y23.184 E0.06995
G1 X-13.984 Y22.019 E0.12754
G1 X-13.984 Y22.922 E0.06995
G1 X-14.245 Y23.184 E0.02861
G1 E-3.50000 F1500.00000
G1 Z0.700 F15000.000
G1 X21.012 Y22.983 F15000.000
G1 Z0.300 F15000.000
G1 E3.50000 F1500.00000
G1 F960
G1 X21.192 Y23.107 E0.00178
G1 F960
G1 X21.708 Y23.434 E0.00912
G1 X21.843 Y23.347 F15000.000
G1 F960
G1 X21.292 Y23.280 E0.00945
G1 X21.843 Y23.347 F15000.000
G1 F960
G1 X22.131 Y23.381 E0.00150
G1 X22.882 Y23.380 E0.00389
G1 F960
G1 X23.264 Y23.334 E0.00559
G1 F960
G1 X23.647 Y23.288 E0.00918
G1 E-3.50000 F1500.00000
G1 Z0.700 F15000.000
G1 X-21.012 Y22.983 F15000.000
G1 Z0.300 F15000.000
G1 E3.50000 F1500.00000
G1 F960
G1 X-21.372 Y23.231 E0.00357
G1 F960
G1 X-21.708 Y23.434 E0.00586
G1 X-21.843 Y23.347 F15000.000
G1 F960
G1 X-22.131 Y23.381 E0.00322
G1 F960
G1 X-22.869 Y23.381 E0.00369
