; generated by Slic3r 1.3.0 on 2020-05-10 at 20:43:46

; external perimeters extrusion width = 0.40mm (4.28mm^3/s)
; perimeters extrusion width = 0.40mm (4.28mm^3/s)
; infill extrusion width = 0.40mm (5.71mm^3/s)
; solid infill extrusion width = 0.40mm (5.71mm^3/s)
; top infill extrusion width = 0.40mm (5.71mm^3/s)

M107
M83
T0
M116
; Filament gcode

G21 ; set units to millimeters
G90 ; use absolute coordinates
M83 ; use relative distances for extrusion
G1 E-3.50000 F1500.00000
G1 Z0.400 F15000.000
G1 X-20.598 Y13.566 F15000.000
G1 Z0.300 F15000.000
G1 E3.50000 F1500.00000
G1 F960
G1 X-22.250 Y13.196 E0.13052
G1 X-23.222 Y12.501 E0.09202
G1 X-28.101 Y7.622 E0.53175
G1 X-28.987 Y6.179 E0.13052
G1 X-29.025 Y4.049 E0.16418
G1 X-18.548 Y-32.457 E2.92693
G1 X-17.714 Y-33.932 E0.13052
G1 X-16.303 Y-34.868 E0.13052
G1 X-15.053 Y-35.090 E0.09783
G1 X-6.153 Y-35.090 E0.68588
G1 X-4.506 Y-34.696 E0.13052
G1 X-3.795 Y-34.222 E0.06580
G1 X23.205 Y-11.222 E2.73338
G1 X24.426 Y-9.093 E0.18919
G1 X26.717 Y3.754 E1.00569
G1 X26.771 Y4.520 E0.05911
G1 X26.600 Y9.417 E0.37762
G1 X26.149 Y11.049 E0.13052
G1 X25.006 Y12.299 E0.13052
G1 X23.020 Y12.925 E0.16047
G1 X-20.538 Y13.565 E3.35717
G1 E-3.50000 F1500.00000
G1 Z0.700 F15000.000
G1 X19.335 Y7.072 F15000.000
G1 Z0.300 F15000.000
G1 E3.50000 F1500.00000
G1 F600
G1 X19.314 Y6.735 E0.02606
G1 X19.375 Y6.402 E0.02606
G1 X19.514 Y6.094 E0.02606
G1 X19.723 Y5.827 E0.02606
G1 X19.991 Y5.617 E0.02623
G1 X20.312 Y5.477 E0.02706
G1 X20.630 Y5.419 E0.02488
G1 X20.968 Y5.439 E0.02606
G1 X21.290 Y5.540 E0.02606
G1 X21.580 Y5.715 E0.02606
G1 X21.819 Y5.954 E0.02606
G1 X21.994 Y6.244 E0.02606
G1 X22.095 Y6.566 E0.02606
G1 X22.115 Y6.904 E0.02606
G1 X22.054 Y7.237 E0.02606
G1 X21.914 Y7.547 E0.02623
G1 X21.695 Y7.821 E0.02706
G1 X21.440 Y8.020 E0.02488
G1 X21.132 Y8.159 E0.02606
G1 X20.799 Y8.220 E0.02606
G1 X20.462 Y8.199 E0.02606
G1 X20.139 Y8.099 E0.02606
G1 X19.849 Y7.924 E0.02606
G1 X19.610 Y7.685 E0.02606
G1 X19.435 Y7.395 E0.02606
G1 X19.353 Y7.130 E0.02144
G1 X19.335 Y7.072 F15000.000
G1 E-3.50000 F1500.00000
G1 Z0.700 F15000.000
G1 X0.539 Y7.520 F15000.000
G1 Z0.300 F15000.000
G1 E3.50000 F1500.00000
G1 F720
G1 X-18.954 Y6.840 E1.50316
G1 X-20.651 Y8.537 E0.18497
G1 X-24.136 Y5.052 E0.37984
G1 X-19.944 Y0.859 E0.45690
G1 X-16.820 Y3.984 E0.34050
G1 X19.370 Y5.247 E2.79065
G1 X18.966 Y5.762 E0.05042
G1 X18.764 Y6.212 E0.03796
G1 X18.675 Y6.696 E0.03796
G1 X18.705 Y7.188 E0.03796
G1 X18.851 Y7.658 E0.03796
G1 X19.161 Y8.171 E0.04617
G1 X0.599 Y7.522 E1.43138
G1 X0.577 Y8.158 F15000.000
G1 F720
G1 X-18.700 Y7.484 E1.48649
G1 X-20.651 Y9.436 E0.21265
G1 X-25.035 Y5.052 E0.47781
G1 X-19.944 Y-0.040 E0.55487
G1 X-16.547 Y3.357 E0.37019
G1 X22.776 Y4.730 E3.03230
G1 X22.629 Y8.928 E0.32368
G1 X0.637 Y8.160 E1.69588
G1 X0.367 Y7.817 F15000.000
G1 E-3.50000 F1500.00000
G1 Z0.700 F15000.000
G1 X17.655 Y7.552 F15000.000
G1 Z0.300 F15000.000
G1 E3.50000 F1500.00000
G1 F960
G1 X17.790 Y7.417 E0.01479
G1 X17.710 Y6.980 E0.03440
G1 X18.123 Y6.905 E0.03248
G1 X18.104 Y6.590 E0.02445
G1 X18.160 Y6.280 E0.02445
G1 X18.056 Y6.247 E0.00847
G1 X16.782 Y7.521 E0.13966
G1 X15.908 Y7.491 E0.06774
G1 X17.646 Y5.753 E0.19044
G1 X16.772 Y5.723 E0.06774
G1 X15.035 Y7.460 E0.19044
G1 X14.161 Y7.430 E0.06774
G1 X15.899 Y5.692 E0.19044
G1 X15.025 Y5.662 E0.06774
G1 X13.288 Y7.399 E0.19044
G1 X12.414 Y7.369 E0.06774
G1 X14.152 Y5.631 E0.19044
G1 X13.278 Y5.601 E0.06774
G1 X11.541 Y7.338 E0.19044
G1 X10.667 Y7.308 E0.06774
G1 X12.405 Y5.570 E0.19044
G1 X11.531 Y5.540 E0.06774
G1 X9.794 Y7.277 E0.19044
G1 X8.920 Y7.247 E0.06774
G1 X10.658 Y5.509 E0.19044
G1 X9.784 Y5.479 E0.06774
G1 X8.047 Y7.216 E0.19044
G1 X7.173 Y7.186 E0.06774
G1 X8.911 Y5.448 E0.19044
G1 X8.037 Y5.418 E0.06774
G1 X6.300 Y7.155 E0.19044
G1 X5.426 Y7.125 E0.06774
G1 X7.164 Y5.387 E0.19044
G1 X6.290 Y5.357 E0.06774
G1 X4.553 Y7.094 E0.19044
G1 X3.679 Y7.064 E0.06774
G1 X5.417 Y5.326 E0.19044
G1 X4.543 Y5.296 E0.06774
G1 X2.806 Y7.033 E0.19044
G1 X1.932 Y7.003 E0.06774
G1 X3.670 Y5.265 E0.19044
G1 X2.796 Y5.235 E0.06774
G1 X1.059 Y6.972 E0.19044
G1 X0.185 Y6.942 E0.06774
G1 X1.923 Y5.204 E0.19044
G1 X1.049 Y5.174 E0.06774
G1 X-0.688 Y6.911 E0.19044
G1 X-1.562 Y6.881 E0.06774
G1 X0.176 Y5.143 E0.19044
G1 X-0.698 Y5.113 E0.06774
G1 X-2.435 Y6.850 E0.19044
G1 X-3.309 Y6.820 E0.06774
G1 X-1.571 Y5.082 E0.19044
G1 X-2.445 Y5.052 E0.06774
G1 X-4.182 Y6.789 E0.19044
G1 X-5.056 Y6.759 E0.06774
G1 X-3.318 Y5.021 E0.19044
G1 X-4.192 Y4.991 E0.06774
G1 X-5.929 Y6.728 E0.19044
G1 X-6.803 Y6.698 E0.06774
G1 X-5.066 Y4.960 E0.19044
G1 X-5.939 Y4.930 E0.06774
G1 X-7.676 Y6.667 E0.19044
G1 X-8.550 Y6.637 E0.06774
G1 X-6.813 Y4.899 E0.19044
G1 X-7.686 Y4.869 E0.06774
G1 X-9.423 Y6.606 E0.19044
G1 X-10.297 Y6.576 E0.06774
G1 X-8.560 Y4.838 E0.19044
G1 X-9.433 Y4.808 E0.06774
G1 X-11.171 Y6.545 E0.19044
G1 X-12.044 Y6.515 E0.06774
G1 X-10.307 Y4.777 E0.19044
G1 X-11.180 Y4.747 E0.06774
G1 X-12.918 Y6.484 E0.19044
G1 X-13.791 Y6.454 E0.06774
G1 X-12.054 Y4.716 E0.19044
G1 X-12.927 Y4.686 E0.06774
G1 X-14.665 Y6.423 E0.19044
G1 X-15.538 Y6.393 E0.06774
G1 X-13.801 Y4.655 E0.19044
G1 X-14.674 Y4.625 E0.06774
G1 X-16.412 Y6.362 E0.19044
G1 X-17.285 Y6.332 E0.06774
G1 X-15.548 Y4.594 E0.19044
G1 X-16.421 Y4.564 E0.06774
G1 X-18.159 Y6.301 E0.19044
G1 X-19.032 Y6.271 E0.06774
G1 X-17.164 Y4.403 E0.20472
G1 X-17.616 Y3.951 E0.04954
G1 X-21.045 Y7.379 E0.37576
G1 X-21.497 Y6.927 E0.04954
G1 X-18.068 Y3.499 E0.37576
G1 X-18.520 Y3.047 E0.04954
G1 X-21.949 Y6.475 E0.37576
G1 X-22.401 Y6.023 E0.04954
G1 X-18.972 Y2.595 E0.37576
G1 X-19.424 Y2.143 E0.04954
G1 X-22.853 Y5.571 E0.37576
G1 X-23.305 Y5.119 E0.04954
G1 X-19.876 Y1.691 E0.37576
G1 E-3.50000 F1500.00000
G1 Z0.700 F15000.000
G1 X18.550 Y5.824 F15000.000
G1 Z0.300 F15000.000
G1 E3.50000 F1500.00000
G1 F960
G1 X18.638 Y5.540 E0.00234
G1 X19.883 Y5.107 F15000.000
G1 F960
G1 X20.599 Y5.036 E0.00982
G1 X21.029 Y5.056 E0.00588
G1 X21.184 Y5.081 E0.00214
G1 F960
G1 X21.459 Y5.128 E0.00675
G1 X22.436 Y5.356 E0.02423
G1 X22.433 Y5.452 F15000.000
G1 F960
G1 X21.177 Y4.992 E0.07372
G1 X22.026 Y5.022 F15000.000
G1 F960
G1 X22.407 Y6.186 E0.05234
G1 X22.369 Y6.262 F15000.000
G1 F960
G1 X22.136 Y5.026 E0.01070
G1 E-3.50000 F1500.00000
G1 Z0.700 F15000.000
G1 X22.328 Y7.486 F15000.000
G1 Z0.300 F15000.000
G1 E3.50000 F1500.00000
G1 F960
G1 X22.266 Y7.750 E0.00210
G1 F960
G1 X22.013 Y8.588 E0.01273
G1 X22.331 Y8.365 F15000.000
G1 F960
G1 X21.132 Y8.520 E0.00544
G1 X21.168 Y8.559 F15000.000
G1 F960
G1 X22.335 Y8.254 E0.03695
G1 E-3.50000 F1500.00000
G1 Z0.700 F15000.000
G1 X20.199 Y8.488 F15000.000
G1 Z0.300 F15000.000
G1 E3.50000 F1500.00000
G1 F960
G1 X19.656 Y8.375 E0.00439
G1 X19.885 Y8.514 F15000.000
G1 F960
G1 X19.547 Y8.123 E0.00257
G1 X18.497 Y7.829 F15000.000
G1 F960
G1 X18.445 Y7.547 E0.00219
G1 E-3.50000 F1500.00000
G1 Z0.700 F15000.000
G1 X-8.173 Y-26.454 F15000.000
G1 Z0.300 F15000.000
G1 E3.50000 F1500.00000
G1 F600
G1 X-8.451 Y-26.262 E0.02606
G1 X-8.767 Y-26.142 E0.02606
G1 X-9.103 Y-26.102 E0.02606
G1 X-9.439 Y-26.142 E0.02606
G1 X-9.755 Y-26.262 E0.02606
G1 X-10.033 Y-26.454 E0.02606
G1 X-10.258 Y-26.708 E0.02606
G1 X-10.407 Y-26.991 E0.02472
G1 X-10.496 Y-27.333 E0.02720
G1 X-10.496 Y-27.674 E0.02625
G1 X-10.415 Y-28.002 E0.02606
G1 X-10.258 Y-28.301 E0.02606
G1 X-10.033 Y-28.555 E0.02606
G1 X-9.755 Y-28.747 E0.02606
G1 X-9.439 Y-28.867 E0.02606
G1 X-9.120 Y-28.905 E0.02472
G1 X-8.770 Y-28.867 E0.02720
G1 X-8.451 Y-28.747 E0.02625
G1 X-8.173 Y-28.555 E0.02606
G1 X-7.948 Y-28.301 E0.02606
G1 X-7.791 Y-28.002 E0.02606
G1 X-7.710 Y-27.674 E0.02606
G1 X-7.710 Y-27.335 E0.02606
G1 X-7.791 Y-27.007 E0.02606
G1 X-7.948 Y-26.708 E0.02606
G1 X-8.133 Y-26.499 E0.02144
G1 X-8.173 Y-26.454 F15000.000
G1 E-3.50000 F1500.00000
G1 Z0.700 F15000.000
G1 X-14.067 Y-27.863 F15000.000
G1 Z0.300 F15000.000
G1 E3.50000 F1500.00000
G1 F720
G1 X-14.067 Y-30.469 E0.20080
G1 X-7.139 Y-30.469 E0.53397
G1 X-7.139 Y-28.346 E0.16361
G1 X-7.748 Y-29.034 E0.07083
G1 X-8.154 Y-29.314 E0.03796
G1 X-8.620 Y-29.491 E0.03848
G1 X-9.125 Y-29.545 E0.03909
G1 X-9.592 Y-29.488 E0.03628
G1 X-10.053 Y-29.314 E0.03796
G1 X-10.458 Y-29.034 E0.03796
G1 X-10.785 Y-28.665 E0.03796
G1 X-11.014 Y-28.229 E0.03796
G1 X-11.131 Y-27.751 E0.03796
G1 X-11.131 Y-27.251 E0.03848
G1 X-11.003 Y-26.761 E0.03909
G1 X-10.785 Y-26.344 E0.03628
G1 X-10.458 Y-25.975 E0.03796
G1 X-10.053 Y-25.695 E0.03796
G1 X-9.592 Y-25.521 E0.03796
G1 X-9.103 Y-25.461 E0.03796
G1 X-8.614 Y-25.521 E0.03796
G1 X-8.154 Y-25.695 E0.03796
G1 X-7.748 Y-25.975 E0.03796
G1 X-7.139 Y-26.663 E0.07083
G1 X-7.139 Y-14.540 E0.93426
G1 X-10.139 Y-14.540 E0.23120
G1 X-10.139 Y-7.469 E0.54495
G1 X19.861 Y-7.469 E2.31196
G1 X19.861 Y1.460 E0.68810
G1 X14.933 Y1.460 E0.37984
G1 X14.933 Y-4.540 E0.46239
G1 X-10.139 Y-4.540 E1.93213
G1 X-10.139 Y-0.540 E0.30826
G1 X-11.067 Y-0.540 E0.07158
G1 X-11.067 Y-14.540 E1.07892
G1 X-14.067 Y-14.540 E0.23120
G1 X-14.067 Y-27.803 E1.02213
G1 X-14.703 Y-27.803 F15000.000
G1 F720
G1 X-14.703 Y-31.104 E0.25441
G1 X-6.503 Y-31.104 E0.63194
G1 X-6.503 Y-13.904 E1.32553
G1 X-9.503 Y-13.904 E0.23120
G1 X-9.503 Y-8.104 E0.44698
G1 X20.497 Y-8.104 E2.31196
G1 X20.497 Y2.096 E0.78607
G1 X14.297 Y2.096 E0.47781
G1 X14.297 Y-3.904 E0.46239
G1 X-9.503 Y-3.904 E1.83416
G1 X-9.503 Y0.096 E0.30826
G1 X-11.703 Y0.096 E0.16954
G1 X-11.703 Y-13.904 E1.07892
G1 X-14.703 Y-13.904 E0.23120
G1 X-14.703 Y-27.743 E1.06649
G1 X-14.372 Y-28.027 F15000.000
G1 E-3.50000 F1500.00000
G1 Z0.700 F15000.000
G1 X-10.116 Y-29.899 F15000.000
G1 Z0.300 F15000.000
G1 E3.50000 F1500.00000
G1 F960
G1 X-9.733 Y-29.969 E0.01363
G1 X-9.417 Y-29.991 E0.01109
G1 F960
G1 X-9.112 Y-30.008 E0.00826
G1 F960
G1 X-8.527 Y-29.976 E0.02025
G1 F960
G1 X-8.366 Y-29.950 E0.00669
G1 F960
G1 X-8.135 Y-29.907 E0.01208
G1 F960
G1 X-7.903 Y-29.865 E0.01450
G1 F960
G1 X-7.456 Y-29.730 E0.03267
G1 X-7.511 Y-28.231 F15000.000
G1 F960
G1 X-6.964 Y-27.339 E0.00521
G1 X-7.026 Y-27.269 F15000.000
G1 F960
G1 X-7.455 Y-28.223 E0.03425
G1 X-7.026 Y-27.740 F15000.000
G1 F960
G1 X-7.455 Y-26.786 E0.03425
G1 X-7.511 Y-26.778 F15000.000
G1 F960
G1 X-6.964 Y-27.670 E0.00521
G1 X-7.456 Y-25.806 F15000.000
G1 F960
G1 X-7.522 Y-25.665 E0.00069
G1 X-7.733 Y-25.554 E0.00107
G1 E-3.50000 F1500.00000
G1 Z0.700 F15000.000
G1 X-13.364 Y-29.901 F15000.000
G1 Z0.300 F15000.000
G1 E3.50000 F1500.00000
G1 F960
G1 X-13.499 Y-29.766 E0.01511
G1 X-13.499 Y-28.842 E0.07310
G1 X-12.441 Y-29.901 E0.11849
G1 X-11.517 Y-29.901 E0.07310
G1 X-13.499 Y-27.919 E0.22188
G1 X-13.499 Y-26.995 E0.07310
G1 X-10.669 Y-29.826 E0.31686
G1 X-10.646 Y-29.698 E0.01031
G1 X-10.815 Y-29.581 E0.01631
G1 X-11.244 Y-29.096 E0.05121
G1 X-11.545 Y-28.523 E0.05122
G1 X-11.700 Y-27.872 E0.05303
G1 X-13.499 Y-26.072 E0.20149
G1 X-13.499 Y-25.149 E0.07310
G1 X-11.640 Y-27.008 E0.20818
G1 X-11.533 Y-26.597 E0.03363
G1 X-11.393 Y-26.331 E0.02376
G1 X-13.499 Y-24.225 E0.23580
G1 X-13.499 Y-23.302 E0.07310
G1 X-11.014 Y-25.787 E0.27828
G1 X-10.815 Y-25.563 E0.02371
G1 X-10.519 Y-25.359 E0.02849
G1 X-13.499 Y-22.378 E0.33367
G1 X-13.499 Y-21.455 E0.07310
G1 X-9.903 Y-25.052 E0.40266
G1 X-9.678 Y-24.966 E0.01904
G1 X-9.131 Y-24.900 E0.04361
G1 X-13.499 Y-20.532 E0.48907
G1 X-13.499 Y-19.608 E0.07310
G1 X-8.075 Y-25.033 E0.60732
G1 X-7.910 Y-24.719 E0.02809
G1 X-7.707 Y-24.825 E0.01815
G1 X-7.707 Y-24.477 E0.02755
G1 X-13.499 Y-18.685 E0.64850
G1 X-13.499 Y-17.761 E0.07310
G1 X-7.707 Y-23.554 E0.64850
G1 X-7.707 Y-22.630 E0.07310
G1 X-13.499 Y-16.838 E0.64850
G1 X-13.499 Y-15.915 E0.07310
G1 X-7.707 Y-21.707 E0.64850
G1 X-7.707 Y-20.784 E0.07310
G1 X-13.382 Y-15.108 E0.63540
G1 X-12.459 Y-15.108 E0.07310
G1 X-7.707 Y-19.860 E0.53202
G1 X-7.707 Y-18.937 E0.07310
G1 X-11.218 Y-15.426 E0.39306
G1 X-10.294 Y-15.426 E0.07310
G1 X-7.707 Y-18.013 E0.28968
G1 X-7.707 Y-17.090 E0.07310
G1 X-9.689 Y-15.108 E0.22188
G1 X-8.765 Y-15.108 E0.07310
G1 X-7.707 Y-16.167 E0.11849
G1 X-7.707 Y-15.243 E0.07310
G1 X-7.842 Y-15.108 E0.01511
G1 E-3.50000 F1500.00000
G1 Z0.700 F15000.000
G1 X-11.401 Y-15.243 F15000.000
G1 Z0.300 F15000.000
G1 E3.50000 F1500.00000
G1 F960
G1 X-11.318 Y-15.243 E0.00655
G1 X-11.318 Y-15.326 E0.00655
G1 X-11.535 Y-15.108 E0.02437
G1 X-10.603 Y-14.858 F15000.000
G1 F960
G1 X-10.603 Y-7.151 E0.21376
G1 X-10.499 Y-6.448 F15000.000
G1 F960
G1 X-10.364 Y-6.583 E0.01475
G1 X-9.753 Y-6.583 E0.04725
G1 X-9.753 Y-6.901 E0.02459
G1 X-9.144 Y-6.901 E0.04715
G1 X-10.499 Y-5.545 E0.14827
G1 X-10.499 Y-5.426 E0.00924
G1 X-9.888 Y-5.426 E0.04726
G1 X-9.888 Y-5.254 E0.01331
G1 X-8.242 Y-6.901 E0.18015
G1 X-7.339 Y-6.901 E0.06981
G1 X-9.132 Y-5.108 E0.19610
G1 X-8.229 Y-5.108 E0.06981
G1 X-6.437 Y-6.901 E0.19610
G1 X-5.535 Y-6.901 E0.06981
G1 X-7.327 Y-5.108 E0.19610
G1 X-6.425 Y-5.108 E0.06981
G1 X-4.632 Y-6.901 E0.19610
G1 X-3.730 Y-6.901 E0.06981
G1 X-5.522 Y-5.108 E0.19610
G1 X-4.620 Y-5.108 E0.06981
G1 X-2.828 Y-6.901 E0.19610
G1 X-1.925 Y-6.901 E0.06981
G1 X-3.718 Y-5.108 E0.19610
G1 X-2.815 Y-5.108 E0.06981
G1 X-1.023 Y-6.901 E0.19610
G1 X-0.120 Y-6.901 E0.06981
G1 X-1.913 Y-5.108 E0.19610
G1 X-1.010 Y-5.108 E0.06981
G1 X0.782 Y-6.901 E0.19610
G1 X1.684 Y-6.901 E0.06981
G1 X-0.108 Y-5.108 E0.19610
G1 X0.794 Y-5.108 E0.06981
G1 X2.587 Y-6.901 E0.19610
G1 X3.489 Y-6.901 E0.06981
G1 X1.697 Y-5.108 E0.19610
G1 X2.599 Y-5.108 E0.06981
G1 X4.391 Y-6.901 E0.19610
G1 X5.294 Y-6.901 E0.06981
G1 X3.501 Y-5.108 E0.19610
G1 X4.404 Y-5.108 E0.06981
G1 X6.196 Y-6.901 E0.19610
G1 X7.099 Y-6.901 E0.06981
G1 X5.306 Y-5.108 E0.19610
G1 X6.208 Y-5.108 E0.06981
G1 X8.001 Y-6.901 E0.19610
G1 X8.903 Y-6.901 E0.06981
G1 X7.111 Y-5.108 E0.19610
G1 X8.013 Y-5.108 E0.06981
G1 X9.806 Y-6.901 E0.19610
G1 X10.708 Y-6.901 E0.06981
G1 X8.916 Y-5.108 E0.19610
G1 X9.818 Y-5.108 E0.06981
G1 X11.610 Y-6.901 E0.19610
G1 X12.513 Y-6.901 E0.06981
G1 X10.720 Y-5.108 E0.19610
G1 X11.623 Y-5.108 E0.06981
G1 X13.415 Y-6.901 E0.19610
G1 X14.317 Y-6.901 E0.06981
G1 X12.525 Y-5.108 E0.19610
G1 X13.427 Y-5.108 E0.06981
G1 X15.220 Y-6.901 E0.19610
G1 X16.122 Y-6.901 E0.06981
G1 X14.330 Y-5.108 E0.19610
G1 X15.232 Y-5.108 E0.06981
G1 X17.025 Y-6.901 E0.19610
G1 X17.927 Y-6.901 E0.06981
G1 X15.501 Y-4.474 E0.26544
G1 X15.501 Y-3.572 E0.06981
G1 X18.829 Y-6.901 E0.36417
G1 X19.293 Y-6.901 E0.03589
G1 X19.293 Y-6.462 E0.03392
G1 X15.501 Y-2.670 E0.41492
G1 X15.501 Y-1.767 E0.06981
G1 X19.293 Y-5.560 E0.41492
G1 X19.293 Y-4.657 E0.06981
G1 X15.501 Y-0.865 E0.41492
G1 X15.501 Y0.037 E0.06981
G1 X19.293 Y-3.755 E0.41492
G1 X19.293 Y-2.853 E0.06981
G1 X15.549 Y0.892 E0.40967
G1 X16.451 Y0.892 E0.06981
G1 X19.293 Y-1.950 E0.31094
G1 X19.293 Y-1.048 E0.06981
G1 X17.353 Y0.892 E0.21222
G1 X18.256 Y0.892 E0.06981
G1 X19.293 Y-0.146 E0.11349
G1 X19.293 Y0.757 E0.06981
G1 X19.158 Y0.892 E0.01477
G1 E-3.50000 F1500.00000
G1 Z0.700 F15000.000
G1 X-10.603 Y-0.858 F15000.000
G1 Z0.300 F15000.000
G1 E3.50000 F1500.00000
G1 F960
G1 X-10.603 Y-4.858 E0.11095
G1 E-3.50000 F1500.00000
G1 Z0.700 F15000.000
G1 X19.520 Y6.447 F15000.000
G1 Z0.500 F15000.000
G1 E3.50000 F1500.00000
G1 F3000
G1 X19.643 Y6.172 E0.00871
G1 X19.830 Y5.934 E0.00871
G1 X20.069 Y5.747 E0.00877
G1 X20.369 Y5.619 E0.00942
G1 X20.639 Y5.570 E0.00791
G1 X20.940 Y5.588 E0.00871
G1 X21.228 Y5.678 E0.00871
G1 X21.487 Y5.834 E0.00871
G1 X21.700 Y6.047 E0.00871
G1 X21.856 Y6.306 E0.00871
G1 X21.946 Y6.594 E0.00871
G1 X21.964 Y6.895 E0.00871
G1 X21.910 Y7.192 E0.00871
G1 X21.785 Y7.469 E0.00877
G1 X21.578 Y7.722 E0.00942
G1 X21.362 Y7.891 E0.00791
G1 X21.087 Y8.015 E0.00871
G1 X20.790 Y8.069 E0.00871
G1 X20.489 Y8.051 E0.00871
G1 X20.201 Y7.961 E0.00871
G1 X19.943 Y7.805 E0.00871
G1 X19.729 Y7.591 E0.00871
G1 X19.573 Y7.333 E0.00871
G1 X19.483 Y7.043 E0.00877
G1 X19.470 Y6.717 E0.00942
G1 X19.509 Y6.506 E0.00618
G1 X19.520 Y6.447 F15000.000
G1 X5.204 Y4.324 F15000.000
G1 F2802.49
G1 X22.562 Y4.930 E0.50130
G1 X22.504 Y6.584 E0.04778
G1 X22.325 Y6.608 E0.00522
G1 X22.184 Y6.158 E0.01362
G1 X21.983 Y5.826 E0.01121
G1 X21.709 Y5.551 E0.01121
G1 X21.376 Y5.350 E0.01121
G1 X21.005 Y5.234 E0.01121
