; generated by Slic3r 1.3.0 on 2020-05-18 at 15:52:11

; external perimeters extrusion width = 0.40mm (4.28mm^3/s)
; perimeters extrusion width = 0.40mm (4.28mm^3/s)
; infill extrusion width = 0.40mm (5.71mm^3/s)
; solid infill extrusion width = 0.40mm (5.71mm^3/s)
; top infill extrusion width = 0.40mm (5.71mm^3/s)

M107
M83
T0
M116
; Filament gcode

G21 ; set units to millimeters
G90 ; use absolute coordinates
M83 ; use relative distances for extrusion
G1 E-3.50000 F1500.00000
G1 Z0.400 F15000.000
G1 X0.748 Y21.246 F15000.000
G1 Z0.300 F15000.000
G1 E3.50000 F1500.00000
G1 F960
G1 X-0.226 Y21.379 E0.07582
G1 X-19.126 Y21.379 E1.45654
G1 X-20.773 Y20.985 E0.13052
G1 X-22.063 Y19.887 E0.13052
G1 X-22.489 Y19.125 E0.06729
G1 X-33.989 Y-8.875 E2.33274
G1 X-34.262 Y-10.257 E0.10850
G1 X-34.262 Y-13.157 E0.22349
G1 X-33.867 Y-14.804 E0.13052
G1 X-32.770 Y-16.093 E0.13052
G1 X-31.632 Y-16.650 E0.09760
G1 X-5.279 Y-24.237 E2.11338
G1 X-4.274 Y-24.379 E0.07828
G1 X2.928 Y-24.367 E0.55502
G1 X26.928 Y-22.367 E1.85598
G1 X28.537 Y-21.837 E0.13052
G1 X29.731 Y-20.635 E0.13052
G1 X30.203 Y-19.394 E0.10238
G1 X34.203 Y2.606 E1.72324
G1 X34.262 Y3.257 E0.05032
G1 X34.262 Y9.157 E0.45469
G1 X33.867 Y10.804 E0.13052
G1 X32.770 Y12.093 E0.13052
G1 X31.601 Y12.659 E0.10005
G1 X0.806 Y21.230 E2.46343
G1 E-3.50000 F1500.00000
G1 Z0.700 F15000.000
G1 X-14.053 Y7.292 F15000.000
G1 Z0.300 F15000.000
G1 E3.50000 F1500.00000
G1 F600
G1 X-14.339 Y7.539 E0.02912
G1 X-14.643 Y7.699 E0.02651
G1 X-14.995 Y7.785 E0.02792
G1 X-15.358 Y7.785 E0.02792
G1 X-15.709 Y7.699 E0.02792
G1 X-16.030 Y7.530 E0.02792
G1 X-16.301 Y7.290 E0.02792
G1 X-16.507 Y6.992 E0.02792
G1 X-16.636 Y6.653 E0.02792
G1 X-16.680 Y6.291 E0.02810
G1 X-16.629 Y5.917 E0.02912
G1 X-16.507 Y5.595 E0.02651
G1 X-16.301 Y5.297 E0.02792
G1 X-16.030 Y5.057 E0.02792
G1 X-15.709 Y4.888 E0.02792
G1 X-15.358 Y4.801 E0.02792
G1 X-14.995 Y4.801 E0.02792
G1 X-14.643 Y4.888 E0.02792
G1 X-14.323 Y5.057 E0.02792
G1 X-14.051 Y5.297 E0.02792
G1 X-13.846 Y5.595 E0.02792
G1 X-13.717 Y5.934 E0.02792
G1 X-13.673 Y6.296 E0.02810
G1 X-13.724 Y6.670 E0.02912
G1 X-13.846 Y6.992 E0.02651
G1 X-14.019 Y7.243 E0.02348
G1 X-14.053 Y7.292 F15000.000
G1 E-3.50000 F1500.00000
G1 Z0.700 F15000.000
G1 X5.816 Y3.094 F15000.000
G1 Z0.300 F15000.000
G1 E3.50000 F1500.00000
G1 F720
G1 X6.144 Y3.237 E0.02756
G1 X3.771 Y9.758 E0.53475
G1 X-1.212 Y9.758 E0.38399
G1 X-1.212 Y11.008 E0.09633
G1 X-7.912 Y11.008 E0.51634
G1 X-7.912 Y15.079 E0.31375
G1 X-1.212 Y15.079 E0.51634
G1 X-1.212 Y16.758 E0.12937
G1 X-18.141 Y16.758 E1.30462
G1 X-18.141 Y-11.242 E2.15783
G1 X-29.641 Y-11.242 E0.88625
G1 X-29.641 Y-12.171 E0.07158
G1 X-11.712 Y-12.171 E1.38169
G1 X-11.712 Y-11.103 E0.08231
G1 X-11.893 Y-10.957 E0.01795
G1 X-13.390 Y-9.412 E0.16577
G1 X-14.587 Y-7.584 E0.16837
G1 X-15.423 Y-5.547 E0.16965
G1 X-15.855 Y-3.392 E0.16944
G1 X-15.873 Y-1.229 E0.16665
G1 X-15.471 Y0.969 E0.17225
G1 X-14.667 Y3.017 E0.16957
G1 X-13.886 Y4.248 E0.11235
G1 X-14.084 Y4.464 E0.02257
G1 X-14.416 Y4.290 E0.02889
G1 X-14.918 Y4.166 E0.03982
G1 X-15.435 Y4.166 E0.03982
G1 X-15.936 Y4.290 E0.03982
G1 X-16.394 Y4.530 E0.03982
G1 X-16.781 Y4.872 E0.03982
G1 X-17.074 Y5.297 E0.03982
G1 X-17.249 Y5.759 E0.03808
G1 X-17.320 Y6.287 E0.04102
G1 X-17.257 Y6.806 E0.04032
G1 X-17.074 Y7.289 E0.03982
G1 X-16.781 Y7.715 E0.03982
G1 X-16.394 Y8.057 E0.03982
G1 X-15.936 Y8.297 E0.03982
G1 X-15.435 Y8.421 E0.03982
G1 X-14.918 Y8.421 E0.03982
G1 X-14.416 Y8.297 E0.03982
G1 X-13.979 Y8.068 E0.03808
G1 X-13.576 Y7.720 E0.04102
G1 X-13.279 Y7.289 E0.04032
G1 X-13.103 Y6.827 E0.03808
G1 X-13.032 Y6.300 E0.04102
G1 X-13.110 Y5.657 E0.04994
G1 X-12.860 Y5.540 E0.02129
G1 X-11.981 Y6.474 E0.09890
G1 X-10.196 Y7.759 E0.16951
G1 X-8.199 Y8.682 E0.16951
G1 X-6.063 Y9.210 E0.16961
G1 X-3.875 Y9.322 E0.16877
G1 X-1.692 Y9.018 E0.16986
G1 X0.389 Y8.304 E0.16961
G1 X2.298 Y7.208 E0.16963
G1 X3.994 Y5.733 E0.17319
G1 X5.324 Y4.045 E0.16559
G1 X5.789 Y3.147 E0.07794
G1 E-3.50000 F1500.00000
G1 Z0.700 F15000.000
G1 X10.398 Y1.990 F15000.000
G1 Z0.300 F15000.000
G1 E3.50000 F1500.00000
G1 F720
G1 X11.577 Y-1.249 E0.26566
G1 X11.655 Y-1.572 E0.02555
G1 X11.660 Y-1.962 E0.03007
G1 X11.578 Y-2.343 E0.03006
G1 X11.413 Y-2.697 E0.03006
G1 X11.174 Y-3.005 E0.03006
G1 X10.855 Y-3.265 E0.03175
G1 X10.404 Y-3.465 E0.03798
G1 X10.049 Y-3.551 E0.02815
G1 X9.659 Y-3.556 E0.03006
G1 X9.278 Y-3.474 E0.03007
G1 X8.924 Y-3.309 E0.03008
G1 X8.616 Y-3.070 E0.03005
G1 X8.369 Y-2.768 E0.03007
G1 X8.221 Y-2.471 E0.02555
G1 X7.275 Y0.129 E0.21324
G1 X6.947 Y0.055 E0.02588
G1 X7.163 Y-2.200 E0.17464
G1 X7.003 Y-4.123 E0.14872
G1 X6.527 Y-5.984 E0.14799
G1 X5.665 Y-7.963 E0.16638
G1 X5.633 Y-8.168 E0.01598
G1 X5.649 Y-8.387 E0.01695
G1 X5.715 Y-8.597 E0.01695
G1 X5.827 Y-8.786 E0.01695
G1 X5.980 Y-8.945 E0.01695
G1 X6.164 Y-9.064 E0.01695
G1 X6.371 Y-9.139 E0.01695
G1 X6.649 Y-9.171 E0.02157
G1 X11.295 Y-9.171 E0.35801
G1 X12.788 Y-7.678 E0.16276
G1 X12.788 Y8.758 E1.26660
G1 X10.788 Y8.758 E0.15413
G1 X10.788 Y9.758 E0.07707
G1 X7.571 Y9.758 E0.24792
G1 X10.378 Y2.046 E0.63243
G1 X9.780 Y1.829 F15000.000
G1 F720
G1 X10.968 Y-1.433 E0.26753
G1 X11.020 Y-1.651 E0.01728
G1 X11.023 Y-1.898 E0.01903
G1 X10.972 Y-2.139 E0.01902
G1 X10.867 Y-2.363 E0.01902
G1 X10.716 Y-2.558 E0.01903
G1 X10.519 Y-2.719 E0.01963
G1 X10.199 Y-2.861 E0.02694
G1 X9.970 Y-2.916 E0.01820
G1 X9.723 Y-2.919 E0.01903
G1 X9.481 Y-2.868 E0.01903
G1 X9.257 Y-2.763 E0.01904
G1 X9.063 Y-2.612 E0.01901
G1 X8.906 Y-2.421 E0.01903
G1 X8.806 Y-2.220 E0.01728
G1 X4.216 Y10.393 E1.03442
G1 X-0.576 Y10.393 E0.36930
G1 X-0.576 Y11.643 E0.09633
G1 X-7.276 Y11.643 E0.51634
G1 X-7.276 Y14.443 E0.21578
G1 X-0.576 Y14.443 E0.51634
G1 X-0.576 Y17.393 E0.22734
G1 X-18.776 Y17.393 E1.40259
G1 X-18.776 Y-10.607 E2.15783
G1 X-30.276 Y-10.607 E0.88625
G1 X-30.276 Y-12.807 E0.16954
G1 X-11.076 Y-12.807 E1.47966
G1 X-11.076 Y-10.799 E0.15474
G1 X-11.464 Y-10.486 E0.03837
G1 X-12.892 Y-9.013 E0.15810
G1 X-14.022 Y-7.287 E0.15902
G1 X-14.811 Y-5.363 E0.16028
G1 X-15.220 Y-3.326 E0.16008
G1 X-15.237 Y-1.285 E0.15733
G1 X-14.857 Y0.794 E0.16285
G1 X-14.097 Y2.728 E0.16013
G1 X-12.990 Y4.474 E0.15931
G1 X-11.560 Y5.994 E0.16086
G1 X-9.874 Y7.208 E0.16011
G1 X-7.988 Y8.080 E0.16013
G1 X-5.969 Y8.578 E0.16023
G1 X-3.903 Y8.685 E0.15941
G1 X-1.841 Y8.396 E0.16049
G1 X0.126 Y7.722 E0.16022
G1 X1.928 Y6.688 E0.16015
G1 X3.531 Y5.292 E0.16380
G1 X4.787 Y3.699 E0.15634
G1 X5.726 Y1.886 E0.15732
G1 X6.327 Y-0.138 E0.16276
G1 X6.525 Y-2.204 E0.15995
G1 X6.374 Y-4.017 E0.14023
G1 X5.924 Y-5.777 E0.13995
G1 X5.050 Y-7.784 E0.16873
G1 X4.993 Y-8.142 E0.02793
G1 X5.021 Y-8.508 E0.02827
G1 X5.131 Y-8.858 E0.02827
G1 X5.318 Y-9.173 E0.02827
G1 X5.572 Y-9.438 E0.02827
G1 X5.880 Y-9.638 E0.02827
G1 X6.225 Y-9.762 E0.02827
G1 X6.613 Y-9.807 E0.03006
G1 X11.558 Y-9.807 E0.38112
G1 X13.424 Y-7.941 E0.20334
G1 X13.424 Y9.393 E1.33588
G1 X11.424 Y9.393 E0.15413
G1 X11.424 Y10.393 E0.07707
G1 X6.663 Y10.393 E0.36686
G1 X9.760 Y1.885 E0.69776
G1 X10.156 Y1.690 F15000.000
G1 E-3.50000 F1500.00000
G1 Z0.700 F15000.000
G1 X7.004 Y0.394 F15000.000
G1 Z0.300 F15000.000
G1 E3.50000 F1500.00000
G1 F960
G1 X6.432 Y2.127 E0.19290
G1 F960
G1 X6.108 Y2.875 E0.07825
G1 E-3.50000 F1500.00000
G1 Z0.700 F15000.000
G1 X5.217 Y4.751 F15000.000
G1 Z0.300 F15000.000
G1 E3.50000 F1500.00000
G1 F960
G1 X5.064 Y5.026 E0.00262
G1 F960
G1 X4.910 Y5.302 E0.00635
G1 F960
G1 X4.756 Y5.578 E0.01007
G1 F960
G1 X4.603 Y5.854 E0.01380
G1 F960
G1 X4.449 Y6.130 E0.01753
G1 F960
G1 X4.229 Y6.455 E0.02522
G1 E-3.50000 F1500.00000
G1 Z0.700 F15000.000
G1 X3.258 Y9.190 F15000.000
G1 Z0.300 F15000.000
G1 E3.50000 F1500.00000
G1 F960
G1 X3.393 Y9.055 E0.01498
G1 X3.917 Y7.616 E0.12004
G1 X2.343 Y9.190 E0.17451
G1 X1.428 Y9.190 E0.07175
G1 X3.800 Y6.818 E0.26308
G1 X3.747 Y6.781 E0.00507
G1 X2.736 Y7.661 E0.10509
G1 X1.108 Y8.596 E0.14729
G1 X0.973 Y8.731 E0.01496
G1 X0.458 Y9.040 F15000.000
G1 F960
G1 X0.097 Y9.100 E0.02768
G1 F960
G1 X-0.265 Y9.160 E0.02347
G1 F960
G1 X-0.626 Y9.220 E0.01926
G1 F960
G1 X-0.988 Y9.281 E0.01504
G1 F960
G1 X-1.349 Y9.341 E0.01083
G1 F960
G1 X-1.530 Y9.371 E0.00331
G1 X-2.701 Y10.440 F15000.000
G1 F960
G1 X-2.029 Y9.768 E0.07609
G1 X-2.049 Y9.651 E0.00945
G1 X-2.976 Y9.781 E0.07496
G1 X-3.635 Y10.440 E0.07461
G1 X-4.569 Y10.440 E0.07475
G1 X-4.010 Y9.881 E0.06324
G1 X-4.899 Y9.835 E0.07119
G1 X-5.503 Y10.440 E0.06841
G1 X-6.437 Y10.440 E0.07475
G1 X-5.787 Y9.790 E0.07358
G1 X-6.088 Y9.774 E0.02420
G1 X-6.583 Y9.652 E0.04076
G1 X-7.370 Y10.440 E0.08916
G1 X-8.304 Y10.440 E0.07475
G1 X-7.332 Y9.467 E0.11010
G1 X-8.080 Y9.282 E0.06175
G1 E-3.50000 F1500.00000
G1 Z0.700 F15000.000
G1 X-12.403 Y7.069 F15000.000
G1 Z0.300 F15000.000
G1 E3.50000 F1500.00000
G1 F960
G1 X-12.537 Y6.950 E0.01433
G1 X-12.551 Y7.052 E0.00827
G1 X-12.651 Y7.317 E0.02264
G1 X-12.269 Y6.934 E0.04329
G1 X-11.726 Y7.325 E0.05355
G1 X-17.573 Y13.172 E0.66195
G1 X-17.573 Y14.106 E0.07475
G1 X-11.183 Y7.716 E0.72342
G1 X-10.640 Y8.107 E0.05355
G1 X-17.573 Y15.039 E0.78488
G1 X-17.573 Y15.973 E0.07475
G1 X-10.035 Y8.435 E0.85339
G1 X-9.396 Y8.730 E0.05632
G1 X-16.855 Y16.190 E0.84448
G1 X-15.922 Y16.190 E0.07475
G1 X-8.758 Y9.026 E0.81105
G1 X-8.343 Y9.217 E0.03655
G1 X-8.080 Y9.282 E0.02168
G1 X-14.988 Y16.190 E0.78201
G1 X-14.054 Y16.190 E0.07475
G1 X-8.480 Y10.616 E0.63104
G1 X-8.480 Y11.550 E0.07475
G1 X-13.120 Y16.190 E0.52532
G1 X-12.187 Y16.190 E0.07475
G1 X-8.480 Y12.483 E0.41961
G1 X-8.480 Y13.417 E0.07475
G1 X-11.253 Y16.190 E0.31390
G1 X-10.319 Y16.190 E0.07475
G1 X-8.480 Y14.351 E0.20818
G1 X-8.480 Y15.285 E0.07475
G1 X-9.385 Y16.190 E0.10247
G1 X-8.451 Y16.190 E0.07475
G1 X-7.909 Y15.647 E0.06141
G1 X-6.975 Y15.647 E0.07475
G1 X-7.518 Y16.190 E0.06141
G1 X-6.584 Y16.190 E0.07475
G1 X-6.042 Y15.647 E0.06141
G1 X-5.108 Y15.647 E0.07475
G1 X-5.650 Y16.190 E0.06141
G1 X-4.716 Y16.190 E0.07475
G1 X-4.174 Y15.647 E0.06141
G1 X-3.240 Y15.647 E0.07475
G1 X-3.783 Y16.190 E0.06141
G1 X-2.849 Y16.190 E0.07475
G1 X-2.307 Y15.647 E0.06141
G1 X-1.780 Y15.647 E0.04214
G1 X-1.780 Y16.055 E0.03262
G1 X-1.915 Y16.190 E0.01528
G1 E-3.50000 F1500.00000
G1 Z0.700 F15000.000
G1 X-17.573 Y12.238 F15000.000
G1 Z0.300 F15000.000
G1 E3.50000 F1500.00000
G1 F960
G1 X-14.177 Y8.842 E0.38447
G1 X-14.773 Y8.989 E0.04921
G1 X-15.257 Y8.989 E0.03875
G1 X-17.573 Y11.304 E0.26210
G1 X-17.573 Y10.371 E0.07475
G1 X-16.044 Y8.842 E0.17310
G1 X-16.666 Y8.530 E0.05570
G1 X-17.573 Y9.437 E0.10269
G1 X-17.573 Y8.503 E0.07475
G1 X-17.438 Y8.368 E0.01527
G1 X-17.223 Y7.698 F15000.000
G1 F960
G1 X-17.823 Y6.960 E0.00573
G1 X-17.647 Y7.170 F15000.000
G1 F960
G1 X-17.603 Y7.411 E0.00817
G1 X-17.647 Y7.170 F15000.000
G1 F960
G1 X-17.695 Y6.898 E0.00640
G1 X-17.713 Y6.597 E0.00700
G1 F960
G1 X-17.731 Y6.273 E0.00467
G1 F960
G1 X-17.687 Y5.633 E0.01618
G1 F960
G1 X-17.603 Y5.176 E0.01551
G1 X-17.223 Y4.889 F15000.000
G1 F960
G1 X-17.823 Y5.627 E0.00573
G1 E-3.50000 F1500.00000
G1 Z0.700 F15000.000
G1 X-15.621 Y3.608 F15000.000
G1 Z0.300 F15000.000
G1 E3.50000 F1500.00000
G1 F960
G1 X-15.486 Y3.473 E0.01519
G1 X-15.623 Y3.204 E0.02403
G1 X-15.256 Y3.017 E0.03275
G1 X-15.454 Y2.513 E0.04316
G1 X-17.163 Y4.221 E0.19231
G1 X-17.388 Y4.022 E0.02395
G1 X-17.573 Y4.230 E0.02217
G1 X-17.573 Y3.703 E0.04196
G1 X-15.716 Y1.846 E0.20899
G1 X-15.978 Y1.180 E0.05699
G1 X-17.573 Y2.775 E0.17952
G1 X-17.573 Y1.846 E0.07388
G1 X-16.139 Y0.413 E0.16131
G1 X-16.283 Y-0.372 E0.06349
G1 X-17.573 Y0.918 E0.14516
G1 X-17.573 Y-0.010 E0.07388
G1 X-16.426 Y-1.156 E0.12900
G1 X-16.442 Y-1.242 E0.00691
G1 X-16.435 Y-2.076 E0.06639
G1 X-17.573 Y-0.939 E0.12802
G1 X-17.573 Y-1.867 E0.07388
G1 X-16.427 Y-3.012 E0.12890
G1 X-16.423 Y-3.525 E0.04082
G1 X-16.318 Y-4.050 E0.04263
G1 X-17.573 Y-2.795 E0.14124
G1 X-17.573 Y-3.723 E0.07388
G1 X-16.084 Y-5.212 E0.16750
G1 X-15.966 Y-5.800 E0.04774
G1 X-15.648 Y-6.577 E0.06685
G1 X-17.573 Y-4.652 E0.21666
G1 X-17.573 Y-5.580 E0.07388
G1 X-14.859 Y-8.294 E0.30543
G1 X-13.821 Y-9.878 E0.15073
G1 X-12.280 Y-11.469 E0.17627
G1 X-12.280 Y-11.603 E0.01067
G1 X-12.478 Y-11.603 E0.01576
G1 X-17.573 Y-6.508 E0.57338
G1 X-17.573 Y-7.437 E0.07388
G1 X-13.407 Y-11.603 E0.46890
G1 X-14.335 Y-11.603 E0.07388
G1 X-17.573 Y-8.365 E0.36441
G1 X-17.573 Y-9.293 E0.07388
G1 X-15.263 Y-11.603 E0.25993
G1 X-16.191 Y-11.603 E0.07388
G1 X-17.573 Y-10.222 E0.15545
G1 X-17.573 Y-10.857 E0.05056
G1 X-17.255 Y-10.857 E0.02529
G1 X-17.255 Y-11.468 E0.04861
G1 X-17.120 Y-11.603 E0.01519
G1 X-17.823 Y-11.707 F15000.000
G1 F960
G1 X-29.323 Y-11.707 E0.31897
G1 E-3.50000 F1500.00000
G1 Z0.700 F15000.000
G1 X-14.771 Y3.517 F15000.000
G1 Z0.300 F15000.000
G1 E3.50000 F1500.00000
G1 F960
G1 X-14.564 Y3.926 E0.00448
G1 E-3.50000 F1500.00000
G1 Z0.700 F15000.000
G1 X7.439 Y-1.357 F15000.000
G1 Z0.300 F15000.000
G1 E3.50000 F1500.00000
G1 F960
G1 X7.526 Y-1.743 E0.00550
G1 F960
G1 X7.613 Y-2.130 E0.01006
G1 X7.682 Y-2.250 E0.00352
G1 F960
G1 X7.819 Y-2.491 E0.00392
G1 F960
G1 X7.920 Y-2.661 E0.00054
G1 E-3.50000 F1500.00000
G1 Z0.700 F15000.000
G1 X11.762 Y-2.731 F15000.000
G1 Z0.300 F15000.000
G1 E3.50000 F1500.00000
G1 F960
G1 X12.166 Y-2.549 E0.02856
G1 X12.197 Y-2.277 E0.01763
G1 F960
G1 X12.224 Y-1.990 E0.01511
G1 X12.221 Y-1.529 E0.02427
G1 F960
G1 X12.195 Y-1.280 E0.01475
G1 F960
G1 X12.128 Y-0.832 E0.03174
G1 F960
G1 X12.050 Y-0.390 E0.03548
G1 E-3.50000 F1500.00000
G1 Z0.700 F15000.000
G1 X12.085 Y-3.512 F15000.000
G1 Z0.300 F15000.000
G1 E3.50000 F1500.00000
G1 F960
G1 X12.220 Y-3.647 E0.01582
G1 X12.220 Y-4.614 E0.08017
G1 X11.248 Y-3.642 E0.11393
G1 X11.123 Y-3.744 E0.01336
G1 X10.611 Y-3.972 E0.04651
G1 X12.220 Y-5.581 E0.18867
G1 X12.220 Y-6.548 E0.08017
G1 X9.793 Y-4.122 E0.28448
G1 X9.528 Y-4.125 E0.02201
G1 X9.007 Y-4.013 E0.04422
G1 X8.523 Y-3.787 E0.04423
G1 X8.384 Y-3.679 E0.01457
G1 X12.203 Y-7.498 E0.44774
G1 X11.720 Y-7.982 E0.05669
G1 X7.590 Y-3.852 E0.48418
G1 X7.564 Y-4.162 E0.02577
G1 X7.436 Y-4.665 E0.04302
G1 X11.236 Y-8.465 E0.44560
G1 X11.099 Y-8.603 E0.01611
G1 X10.407 Y-8.603 E0.05739
G1 X7.239 Y-5.435 E0.37142
G1 X7.031 Y-6.195 E0.06529
G1 X9.440 Y-8.603 E0.28233
G1 X8.473 Y-8.603 E0.08017
G1 X6.738 Y-6.868 E0.20335
G1 X6.445 Y-7.542 E0.06091
G1 X7.506 Y-8.603 E0.12438
G1 X6.753 Y-8.603 E0.06238
G1 X6.584 Y-8.583 E0.01408
G1 X6.455 Y-8.519 E0.01197
G1 X6.320 Y-8.384 E0.01581
G1 E-3.50000 F1500.00000
G1 Z0.700 F15000.000
G1 X11.660 Y0.266 F15000.000
G1 Z0.300 F15000.000
G1 E3.50000 F1500.00000
G1 F960
G1 X11.794 Y0.131 E0.01517
G1 X12.220 Y0.206 E0.03436
G1 X12.220 Y0.633 E0.03398
G1 X11.128 Y1.724 E0.12275
G1 X10.598 Y3.183 E0.12345
G1 X12.220 Y1.561 E0.18247
G1 X12.220 Y2.488 E0.07379
G1 X10.067 Y4.642 E0.24218
G1 X9.536 Y6.100 E0.12345
G1 X12.220 Y3.416 E0.30190
G1 X12.220 Y4.344 E0.07379
G1 X9.005 Y7.559 E0.36161
G1 X8.474 Y9.017 E0.12345
G1 X12.220 Y5.272 E0.42132
G1 X12.220 Y6.199 E0.07379
G1 X10.229 Y8.190 E0.22388
G1 X11.157 Y8.190 E0.07379
G1 X12.220 Y7.127 E0.11953
G1 X12.220 Y8.055 E0.07379
G1 X12.085 Y8.190 E0.01518
G1 E-3.50000 F1500.00000
G1 Z0.700 F15000.000
G1 X9.364 Y9.055 F15000.000
G1 Z0.300 F15000.000
G1 E3.50000 F1500.00000
G1 F960
G1 X10.220 Y9.055 E0.06805
G1 X10.220 Y8.199 E0.06805
G1 X9.229 Y9.190 E0.11140
G1 E-3.50000 F1500.00000
G1 Z0.700 F15000.000
G1 X26.283 Y6.373 F15000.000
G1 Z0.300 F15000.000
G1 E3.50000 F1500.00000
G1 F600
G1 X26.288 Y6.020 E0.02720
G1 X26.365 Y5.709 E0.02472
G1 X26.522 Y5.410 E0.02606
G1 X26.746 Y5.156 E0.02606
G1 X27.026 Y4.963 E0.02625
G1 X27.358 Y4.842 E0.02720
G1 X27.676 Y4.804 E0.02472
G1 X28.012 Y4.844 E0.02606
G1 X28.328 Y4.964 E0.02606
G1 X28.607 Y5.156 E0.02606
G1 X28.831 Y5.410 E0.02606
G1 X28.988 Y5.709 E0.02606
G1 X29.069 Y6.037 E0.02606
G1 X29.069 Y6.376 E0.02606
G1 X28.988 Y6.704 E0.02606
G1 X28.830 Y7.006 E0.02625
G1 X28.592 Y7.267 E0.02720
G1 X28.328 Y7.449 E0.02472
G1 X28.012 Y7.569 E0.02606
G1 X27.676 Y7.609 E0.02606
G1 X27.341 Y7.569 E0.02606
G1 X27.024 Y7.449 E0.02606
G1 X26.746 Y7.257 E0.02606
G1 X26.522 Y7.003 E0.02606
G1 X26.365 Y6.704 E0.02606
G1 X26.297 Y6.432 E0.02163
