; generated by Slic3r 1.3.0 on 2020-05-25 at 16:41:24

; external perimeters extrusion width = 0.40mm (4.28mm^3/s)
; perimeters extrusion width = 0.40mm (4.28mm^3/s)
; infill extrusion width = 0.40mm (5.71mm^3/s)
; solid infill extrusion width = 0.40mm (5.71mm^3/s)
; top infill extrusion width = 0.40mm (5.71mm^3/s)

M107
M83
T0
M116
; Filament gcode

G21 ; set units to millimeters
G90 ; use absolute coordinates
M83 ; use relative distances for extrusion
G1 E-3.50000 F1500.00000
G1 Z0.400 F15000.000
G1 X18.139 Y-13.018 F15000.000
G1 Z0.300 F15000.000
G1 E3.50000 F1500.00000
G1 F960
G1 X14.314 Y21.714 E2.69278
G1 X13.741 Y23.308 E0.13052
G1 X12.509 Y24.469 E0.13052
G1 X10.700 Y24.951 E0.14426
G1 X-8.200 Y24.951 E1.45654
G1 X-9.826 Y24.568 E0.12874
G1 X-23.826 Y17.568 E1.20627
G1 X-25.123 Y16.478 E0.13052
G1 X-25.836 Y14.316 E0.17547
G1 X-25.832 Y-6.753 E1.62369
G1 X-25.007 Y-24.485 E1.36797
G1 X-24.536 Y-26.112 E0.13052
G1 X-23.379 Y-27.349 E0.13052
G1 X-21.375 Y-27.951 E0.16130
G1 X-15.475 Y-27.951 E0.45469
G1 X-15.113 Y-27.933 E0.02791
G1 X14.887 Y-24.933 E2.32350
G1 X16.486 Y-24.377 E0.13052
G1 X17.660 Y-23.156 E0.13052
G1 X18.161 Y-21.316 E0.14698
G1 X18.161 Y-13.416 E0.60882
G1 X18.142 Y-13.078 E0.02609
G1 E-3.50000 F1500.00000
G1 Z0.700 F15000.000
G1 X7.283 Y8.460 F15000.000
G1 Z0.300 F15000.000
G1 E3.50000 F1500.00000
G1 F600
G1 X7.604 Y8.629 E0.02792
G1 X7.875 Y8.869 E0.02792
G1 X8.081 Y9.167 E0.02792
G1 X8.209 Y9.506 E0.02792
G1 X8.253 Y9.866 E0.02792
G1 X8.209 Y10.225 E0.02792
G1 X8.081 Y10.564 E0.02792
G1 X7.875 Y10.862 E0.02792
G1 X7.604 Y11.103 E0.02792
G1 X7.283 Y11.271 E0.02792
G1 X6.931 Y11.358 E0.02792
G1 X6.569 Y11.358 E0.02792
G1 X6.217 Y11.271 E0.02792
G1 X5.896 Y11.103 E0.02792
G1 X5.625 Y10.862 E0.02792
G1 X5.419 Y10.564 E0.02792
G1 X5.291 Y10.225 E0.02792
G1 X5.247 Y9.866 E0.02792
G1 X5.291 Y9.506 E0.02792
G1 X5.419 Y9.167 E0.02792
G1 X5.625 Y8.869 E0.02792
G1 X5.896 Y8.629 E0.02792
G1 X6.217 Y8.460 E0.02792
G1 X6.569 Y8.374 E0.02792
G1 X6.931 Y8.374 E0.02792
G1 X7.225 Y8.446 E0.02330
G1 X7.283 Y8.460 F15000.000
G1 E-3.50000 F1500.00000
G1 Z0.700 F15000.000
G1 X6.628 Y20.330 F15000.000
G1 Z0.300 F15000.000
G1 E3.50000 F1500.00000
G1 F720
G1 X-7.214 Y20.330 E1.06678
G1 X-7.214 Y18.651 E0.12937
G1 X-0.514 Y18.651 E0.51634
G1 X-0.514 Y14.580 E0.31375
G1 X-7.214 Y14.580 E0.51634
G1 X-7.214 Y13.330 E0.09633
G1 X-12.023 Y13.330 E0.37061
G1 X-13.532 Y8.395 E0.39769
G1 X-13.252 Y8.249 E0.02441
G1 X-12.401 Y9.331 E0.10610
G1 X-10.742 Y10.767 E0.16910
G1 X-8.842 Y11.864 E0.16910
G1 X-6.763 Y12.582 E0.16950
G1 X-4.596 Y12.893 E0.16869
G1 X-2.409 Y12.789 E0.16875
G1 X-0.274 Y12.271 E0.16930
G1 X1.722 Y11.359 E0.16915
G1 X3.509 Y10.086 E0.16908
G1 X4.435 Y9.114 E0.10338
G1 X4.684 Y9.232 E0.02122
G1 X4.607 Y9.866 E0.04920
G1 X4.669 Y10.379 E0.03982
G1 X4.852 Y10.862 E0.03982
G1 X5.146 Y11.287 E0.03982
G1 X5.533 Y11.630 E0.03982
G1 X5.990 Y11.870 E0.03982
G1 X6.492 Y11.993 E0.03982
G1 X7.008 Y11.993 E0.03982
G1 X7.510 Y11.870 E0.03982
G1 X7.967 Y11.630 E0.03982
G1 X8.354 Y11.287 E0.03982
G1 X8.648 Y10.862 E0.03982
G1 X8.831 Y10.379 E0.03982
G1 X8.893 Y9.866 E0.03982
G1 X8.831 Y9.353 E0.03982
G1 X8.648 Y8.870 E0.03982
G1 X8.354 Y8.445 E0.03982
G1 X7.967 Y8.102 E0.03982
G1 X7.510 Y7.862 E0.03982
G1 X7.008 Y7.738 E0.03982
G1 X6.492 Y7.738 E0.03982
G1 X5.990 Y7.862 E0.03982
G1 X5.656 Y8.037 E0.02905
G1 X5.458 Y7.820 E0.02264
G1 X6.203 Y6.660 E0.10626
G1 X7.023 Y4.615 E0.16984
G1 X7.438 Y2.464 E0.16880
G1 X7.439 Y0.297 E0.16697
G1 X7.016 Y-1.911 E0.17332
G1 X6.211 Y-3.900 E0.16536
G1 X6.453 Y-4.075 E0.02302
G1 X6.633 Y-3.923 E0.01818
G1 X7.086 Y-3.701 E0.03890
G1 X7.581 Y-3.598 E0.03898
G1 X8.087 Y-3.618 E0.03897
G1 X8.571 Y-3.763 E0.03894
G1 X9.005 Y-4.022 E0.03897
G1 X9.363 Y-4.379 E0.03896
G1 X9.434 Y-4.499 E0.01075
G1 X9.714 Y-4.422 E0.02239
G1 X9.714 Y20.330 E1.90752
G1 X6.688 Y20.330 E0.23322
G1 E-3.50000 F1500.00000
G1 Z0.700 F15000.000
G1 X4.150 Y-8.599 F15000.000
G1 Z0.300 F15000.000
G1 E3.50000 F1500.00000
G1 F600
G1 X9.714 Y-8.599 E0.42879
G1 X9.714 Y-6.453 E0.16537
G1 X9.134 Y-7.138 E0.06917
G1 X8.723 Y-7.432 E0.03899
G1 X8.252 Y-7.615 E0.03896
G1 X7.756 Y-7.677 E0.03847
G1 X7.296 Y-7.625 E0.03572
G1 X6.864 Y-7.474 E0.03525
G1 X6.477 Y-7.231 E0.03523
G1 X6.153 Y-6.908 E0.03525
G1 X5.910 Y-6.520 E0.03524
G1 X5.759 Y-6.089 E0.03524
G1 X5.707 Y-5.628 E0.03573
G1 X5.767 Y-5.152 E0.03700
G1 X5.482 Y-5.047 E0.02339
G1 X4.970 Y-5.833 E0.07223
G1 X3.449 Y-7.402 E0.16839
G1 X3.286 Y-7.533 E0.01614
G1 X3.286 Y-8.599 E0.08216
G1 X4.090 Y-8.599 E0.06202
G1 E-3.50000 F1500.00000
G1 Z0.700 F15000.000
G1 X6.653 Y-6.509 F15000.000
G1 Z0.300 F15000.000
G1 E3.50000 F1500.00000
G1 F600
G1 X6.876 Y-6.731 E0.02421
G1 X7.141 Y-6.898 E0.02419
G1 X7.438 Y-7.002 E0.02421
G1 X7.752 Y-7.037 E0.02439
G1 X8.094 Y-6.995 E0.02656
G1 X8.418 Y-6.868 E0.02675
G1 X8.700 Y-6.666 E0.02678
G1 X8.925 Y-6.402 E0.02673
G1 X9.077 Y-6.090 E0.02676
G1 X9.148 Y-5.750 E0.02675
G1 X9.134 Y-5.403 E0.02675
G1 X9.035 Y-5.070 E0.02677
G1 X8.857 Y-4.772 E0.02674
G1 X8.612 Y-4.527 E0.02675
G1 X8.314 Y-4.349 E0.02676
G1 X7.981 Y-4.250 E0.02673
G1 X7.634 Y-4.236 E0.02675
G1 X7.294 Y-4.307 E0.02677
G1 X6.983 Y-4.459 E0.02669
G1 X6.717 Y-4.684 E0.02684
G1 X6.516 Y-4.966 E0.02671
G1 X6.390 Y-5.290 E0.02675
G1 X6.347 Y-5.632 E0.02656
G1 X6.383 Y-5.946 E0.02439
G1 X6.486 Y-6.243 E0.02420
G1 X6.622 Y-6.458 E0.01958
G1 X6.653 Y-6.509 F15000.000
G1 E-3.50000 F1500.00000
G1 Z0.700 F15000.000
G1 X-17.324 Y8.207 F15000.000
G1 Z0.300 F15000.000
G1 E3.50000 F1500.00000
G1 F720
G1 X-15.758 Y13.330 E0.41287
G1 X-21.214 Y13.330 E0.42051
G1 X-21.214 Y-5.599 E1.45875
G1 X-15.075 Y-5.599 E0.47314
G1 X-14.797 Y-5.567 E0.02152
G1 X-14.591 Y-5.492 E0.01695
G1 X-14.406 Y-5.372 E0.01695
G1 X-14.254 Y-5.214 E0.01695
G1 X-14.142 Y-5.025 E0.01695
G1 X-14.076 Y-4.815 E0.01695
G1 X-14.059 Y-4.596 E0.01695
G1 X-14.091 Y-4.391 E0.01600
G1 X-14.956 Y-2.403 E0.16707
G1 X-15.429 Y-0.548 E0.14750
G1 X-15.539 Y0.773 E0.10218
G1 X-15.852 Y0.807 E0.02428
G1 X-16.626 Y-1.724 E0.20392
G1 X-16.761 Y-2.036 E0.02624
G1 X-16.997 Y-2.358 E0.03076
G1 X-17.299 Y-2.619 E0.03075
G1 X-17.652 Y-2.806 E0.03076
G1 X-18.037 Y-2.910 E0.03076
G1 X-18.443 Y-2.927 E0.03131
G1 X-18.856 Y-2.843 E0.03250
G1 X-19.213 Y-2.689 E0.02999
G1 X-19.535 Y-2.452 E0.03075
G1 X-19.796 Y-2.151 E0.03076
G1 X-19.983 Y-1.798 E0.03076
G1 X-20.088 Y-1.413 E0.03076
G1 X-20.103 Y-1.014 E0.03075
G1 X-20.041 Y-0.679 E0.02624
G1 X-17.342 Y8.149 E0.71149
G1 X-16.734 Y7.964 F15000.000
G1 F720
G1 X-14.899 Y13.966 E0.48369
G1 X-21.850 Y13.966 E0.53569
G1 X-21.850 Y-6.234 E1.55672
G1 X-15.038 Y-6.234 E0.52495
G1 X-14.651 Y-6.190 E0.03001
G1 X-14.306 Y-6.065 E0.02827
G1 X-13.998 Y-5.866 E0.02827
G1 X-13.744 Y-5.601 E0.02827
G1 X-13.557 Y-5.286 E0.02827
G1 X-13.447 Y-4.936 E0.02827
G1 X-13.420 Y-4.570 E0.02827
G1 X-13.476 Y-4.212 E0.02793
G1 X-14.353 Y-2.196 E0.16941
G1 X-14.800 Y-0.442 E0.13947
G1 X-14.951 Y1.376 E0.14062
G1 X-14.755 Y3.426 E0.15868
G1 X-14.174 Y5.409 E0.15931
G1 X-13.224 Y7.256 E0.16001
G1 X-11.939 Y8.890 E0.16024
G1 X-10.372 Y10.247 E0.15973
G1 X-8.577 Y11.283 E0.15973
G1 X-6.613 Y11.962 E0.16014
G1 X-4.566 Y12.255 E0.15935
G1 X-2.500 Y12.157 E0.15941
G1 X-0.483 Y11.667 E0.15994
G1 X1.403 Y10.806 E0.15979
G1 X3.091 Y9.603 E0.15973
G1 X4.521 Y8.103 E0.15973
G1 X5.636 Y6.368 E0.15895
G1 X6.411 Y4.435 E0.16048
G1 X6.802 Y2.403 E0.15945
G1 X6.803 Y0.358 E0.15764
G1 X6.403 Y-1.731 E0.16386
G1 X5.616 Y-3.677 E0.16180
G1 X4.471 Y-5.434 E0.16165
G1 X3.021 Y-6.930 E0.16057
G1 X2.650 Y-7.227 E0.03659
G1 X2.650 Y-9.234 E0.15468
G1 X10.350 Y-9.234 E0.59340
G1 X10.350 Y20.966 E2.32738
G1 X-7.850 Y20.966 E1.40259
G1 X-7.850 Y18.016 E0.22734
G1 X-1.150 Y18.016 E0.51634
G1 X-1.150 Y15.216 E0.21578
G1 X-7.850 Y15.216 E0.51634
G1 X-7.850 Y13.966 E0.09633
G1 X-12.494 Y13.966 E0.35788
G1 X-17.223 Y-1.504 E1.24662
G1 X-17.316 Y-1.718 E0.01797
G1 X-17.467 Y-1.924 E0.01972
G1 X-17.661 Y-2.091 E0.01972
G1 X-17.887 Y-2.211 E0.01972
G1 X-18.134 Y-2.278 E0.01972
G1 X-18.392 Y-2.288 E0.01991
G1 X-18.665 Y-2.233 E0.02146
G1 X-18.895 Y-2.134 E0.01930
G1 X-19.101 Y-1.982 E0.01972
G1 X-19.268 Y-1.789 E0.01972
G1 X-19.388 Y-1.563 E0.01972
G1 X-19.455 Y-1.316 E0.01972
G1 X-19.466 Y-1.060 E0.01972
G1 X-19.423 Y-0.831 E0.01797
G1 X-16.751 Y7.906 E0.70412
G1 X-17.007 Y8.256 F15000.000
G1 E-3.50000 F1500.00000
G1 Z0.700 F15000.000
G1 X-14.081 Y6.830 F15000.000
G1 Z0.300 F15000.000
G1 E3.50000 F1500.00000
G1 F960
G1 X-13.879 Y7.327 E0.03147
G1 F960
G1 X-13.752 Y7.632 E0.02325
G1 F960
G1 X-13.539 Y8.040 E0.03554
G1 X-14.081 Y6.830 F15000.000
G1 F960
G1 X-14.283 Y6.333 E0.02525
G1 F960
G1 X-14.485 Y5.836 E0.01903
G1 F960
G1 X-14.594 Y5.564 E0.00789
G1 X-15.211 Y3.500 E0.05808
G1 F960
G1 X-15.302 Y3.046 E0.01770
G1 F960
G1 X-15.392 Y2.591 E0.02293
G1 F960
G1 X-15.482 Y2.137 E0.02816
G1 F960
G1 X-15.617 Y1.456 E0.05026
G1 X-15.577 Y1.407 E0.00456
G1 F960
G1 X-15.272 Y1.064 E0.02821
G1 X-15.807 Y-0.249 F15000.000
G1 F960
G1 X-15.820 Y-0.369 E0.00088
G1 F960
G1 X-15.909 Y-1.584 E0.02195
G1 X-15.721 Y-2.170 F15000.000
G1 F960
G1 X-15.586 Y-2.305 E0.01566
G1 X-15.492 Y-2.677 E0.03141
G1 X-14.968 Y-3.880 E0.10753
G1 X-16.395 Y-2.453 E0.16544
G1 X-16.595 Y-2.724 E0.02763
G1 X-16.855 Y-2.949 E0.02820
G1 X-14.815 Y-4.989 E0.23651
G1 X-15.044 Y-5.030 E0.01907
G1 X-15.730 Y-5.030 E0.05624
G1 X-17.447 Y-3.314 E0.19903
G1 X-18.007 Y-3.475 E0.04783
G1 X-18.233 Y-3.484 E0.01847
G1 X-16.686 Y-5.030 E0.17927
G1 X-17.643 Y-5.030 E0.07839
G1 X-19.419 Y-3.254 E0.20598
G1 X-19.599 Y-3.176 E0.01608
G1 X-20.036 Y-2.855 E0.04446
G1 X-20.391 Y-2.445 E0.04446
G1 X-20.512 Y-2.217 E0.02111
G1 X-20.646 Y-2.220 E0.01101
G1 X-20.646 Y-2.983 E0.06255
G1 X-18.599 Y-5.030 E0.23738
G1 X-19.555 Y-5.030 E0.07839
G1 X-20.646 Y-3.939 E0.12651
G1 X-20.646 Y-4.895 E0.07839
G1 X-20.511 Y-5.030 E0.01565
G1 E-3.50000 F1500.00000
G1 Z0.700 F15000.000
G1 X-20.646 Y-1.653 F15000.000
G1 Z0.300 F15000.000
G1 E3.50000 F1500.00000
G1 F960
G1 X-20.659 Y-1.001 E0.03330
G1 X-20.639 Y-0.750 E0.01282
G1 F960
G1 X-20.617 Y-0.522 E0.01353
G1 F960
G1 X-20.540 Y-0.007 E0.03432
G1 F960
G1 X-20.463 Y0.509 E0.04053
G1 X-20.646 Y1.236 F15000.000
G1 F960
G1 X-20.511 Y1.101 E0.01489
G1 X-20.092 Y1.039 E0.03307
G1 X-19.962 Y1.463 E0.03470
G1 X-20.646 Y2.147 E0.07552
G1 X-20.646 Y3.058 E0.07116
G1 X-19.749 Y2.161 E0.09909
G1 X-19.536 Y2.859 E0.05699
G1 X-20.646 Y3.969 E0.12265
G1 X-20.646 Y4.880 E0.07116
G1 X-19.323 Y3.557 E0.14621
G1 X-19.109 Y4.254 E0.05699
G1 X-20.646 Y5.791 E0.16977
G1 X-20.646 Y6.702 E0.07116
G1 X-18.896 Y4.952 E0.19333
G1 X-18.683 Y5.650 E0.05699
G1 X-20.646 Y7.613 E0.21690
G1 X-20.646 Y8.524 E0.07116
G1 X-18.469 Y6.348 E0.24046
G1 X-18.256 Y7.045 E0.05699
G1 X-20.646 Y9.435 E0.26402
G1 X-20.646 Y10.347 E0.07116
G1 X-18.043 Y7.743 E0.28758
G1 X-17.829 Y8.441 E0.05699
G1 X-20.646 Y11.258 E0.31115
G1 X-20.646 Y12.169 E0.07116
G1 X-17.616 Y9.138 E0.33471
G1 X-17.403 Y9.836 E0.05699
G1 X-20.329 Y12.762 E0.32318
G1 X-19.417 Y12.762 E0.07116
G1 X-17.189 Y10.534 E0.24611
G1 X-16.976 Y11.232 E0.05699
G1 X-18.506 Y12.762 E0.16904
G1 X-17.595 Y12.762 E0.07116
G1 X-16.763 Y11.929 E0.09197
G1 X-16.549 Y12.627 E0.05699
G1 X-16.684 Y12.762 E0.01491
G1 E-3.50000 F1500.00000
G1 Z0.700 F15000.000
G1 X-12.235 Y10.437 F15000.000
G1 Z0.300 F15000.000
G1 E3.50000 F1500.00000
G1 F960
G1 X-12.776 Y9.501 E0.02070
G1 F960
G1 X-12.897 Y9.270 E0.00333
G1 X-11.983 Y10.999 F15000.000
G1 F960
G1 X-12.118 Y11.134 E0.01692
G1 X-11.876 Y11.925 E0.07325
G1 X-11.113 Y11.161 E0.09562
G1 X-11.045 Y11.220 E0.00795
G1 X-10.470 Y11.552 E0.05875
G1 X-11.635 Y12.716 E0.14580
G1 X-11.621 Y12.762 E0.00426
G1 X-10.648 Y12.762 E0.08615
G1 X-9.815 Y11.930 E0.10422
G1 X-9.403 Y12.168 E0.04220
G1 X-9.480 Y12.627 E0.04121
G1 X-9.615 Y12.762 E0.01691
G1 X-8.889 Y12.610 F15000.000
G1 F960
G1 X-8.707 Y12.640 E0.01393
G1 F960
G1 X-8.345 Y12.701 E0.02359
G1 F960
G1 X-7.983 Y12.762 E0.01933
G1 F960
G1 X-7.621 Y12.823 E0.01507
G1 F960
G1 X-7.259 Y12.884 E0.01081
G1 F960
G1 X-6.897 Y12.944 E0.00654
G1 X-6.242 Y13.222 F15000.000
G1 F960
G1 X-6.377 Y13.357 E0.01486
G1 X-6.460 Y13.848 E0.03877
G1 X-6.646 Y13.817 E0.01471
G1 X-6.646 Y14.012 E0.01520
G1 X-6.124 Y14.012 E0.04062
G1 X-5.448 Y13.336 E0.07445
G1 X-4.654 Y13.450 E0.06246
G1 X-5.216 Y14.012 E0.06191
G1 X-4.308 Y14.012 E0.07069
G1 X-3.720 Y13.423 E0.06481
G1 X-2.766 Y13.378 E0.07431
G1 X-3.400 Y14.012 E0.06980
G1 X-2.492 Y14.012 E0.07069
G1 X-1.700 Y13.220 E0.08721
G1 X-0.501 Y12.929 E0.09605
G1 X-1.584 Y14.012 E0.11924
G1 X-0.676 Y14.012 E0.07069
G1 X0.972 Y12.364 E0.18149
G1 X2.109 Y11.844 E0.09729
G1 X3.120 Y11.124 E0.09666
G1 X0.054 Y14.190 E0.33762
G1 X0.054 Y15.098 E0.07069
G1 X4.272 Y10.880 E0.46445
G1 X4.353 Y11.092 E0.01766
G1 X4.604 Y11.456 E0.03445
G1 X0.054 Y16.006 E0.50099
G1 X0.054 Y16.914 E0.07069
G1 X5.047 Y11.921 E0.54973
G1 X5.236 Y12.089 E0.01969
G1 X5.598 Y12.279 E0.03177
G1 X0.054 Y17.823 E0.61036
G1 X0.054 Y18.731 E0.07070
G1 X6.274 Y12.510 E0.68485
G1 X6.482 Y12.562 E0.01666
G1 X7.131 Y12.562 E0.05053
G1 X-0.069 Y19.762 E0.79276
G1 X0.839 Y19.762 E0.07070
G1 X8.697 Y11.903 E0.86522
G1 X8.985 Y12.159 E0.02997
G1 X9.146 Y11.969 E0.01935
G1 X9.146 Y12.362 E0.03061
G1 X1.747 Y19.762 E0.81468
G1 X2.655 Y19.762 E0.07069
G1 X9.146 Y13.270 E0.71471
G1 X9.146 Y14.179 E0.07069
G1 X3.563 Y19.762 E0.61473
G1 X4.471 Y19.762 E0.07069
G1 X9.146 Y15.087 E0.51475
G1 X9.146 Y15.995 E0.07070
G1 X5.379 Y19.762 E0.41477
G1 X6.287 Y19.762 E0.07070
G1 X9.146 Y16.903 E0.31479
G1 X9.146 Y17.811 E0.07070
G1 X7.195 Y19.762 E0.21482
G1 X8.103 Y19.762 E0.07069
G1 X9.146 Y18.719 E0.11484
G1 X9.146 Y19.627 E0.07069
G1 X9.011 Y19.762 E0.01486
G1 E-3.50000 F1500.00000
G1 Z0.700 F15000.000
G1 X-0.978 Y19.762 F15000.000
G1 Z0.300 F15000.000
G1 E3.50000 F1500.00000
G1 F960
G1 X-0.435 Y19.220 E0.05972
G1 X-1.343 Y19.220 E0.07070
G1 X-1.886 Y19.762 E0.05972
G1 X-2.794 Y19.762 E0.07069
G1 X-2.251 Y19.220 E0.05972
G1 X-3.159 Y19.220 E0.07070
G1 X-3.702 Y19.762 E0.05972
G1 X-4.610 Y19.762 E0.07069
G1 X-4.067 Y19.220 E0.05972
G1 X-4.976 Y19.220 E0.07070
G1 X-5.518 Y19.762 E0.05972
G1 X-6.426 Y19.762 E0.07069
G1 X-5.884 Y19.220 E0.05972
G1 E-3.50000 F1500.00000
G1 Z0.700 F15000.000
G1 X8.797 Y11.270 F15000.000
G1 Z0.300 F15000.000
G1 E3.50000 F1500.00000
G1 F960
G1 X9.397 Y10.533 E0.00995
G1 X9.265 Y10.502 F15000.000
G1 F960
G1 X9.305 Y9.877 E0.01511
G1 F960
G1 X9.287 Y9.558 E0.00463
G1 F960
G1 X9.269 Y9.261 E0.00690
G1 X9.221 Y8.989 E0.00640
G1 F960
G1 X9.177 Y8.749 E0.00817
G1 X8.797 Y8.462 F15000.000
G1 F960
G1 X9.397 Y9.199 E0.00995
G1 X9.265 Y10.502 F15000.000
G1 F960
G1 X9.177 Y10.983 E0.01635
G1 E-3.50000 F1500.00000
G1 Z0.700 F15000.000
G1 X9.011 Y7.762 F15000.000
G1 Z0.300 F15000.000
G1 E3.50000 F1500.00000
G1 F960
G1 X9.146 Y7.627 E0.01500
G1 X9.146 Y6.710 E0.07210
G1 X8.231 Y7.625 E0.10173
G1 X7.621 Y7.319 E0.05370
G1 X9.146 Y5.793 E0.16958
G1 X9.146 Y4.876 E0.07210
G1 X7.074 Y6.948 E0.23039
G1 X6.791 Y6.802 E0.02507
G1 X7.117 Y5.988 E0.06894
G1 X9.146 Y3.959 E0.22561
G1 X9.146 Y3.042 E0.07210
G1 X7.627 Y4.562 E0.16896
G1 X7.845 Y3.426 E0.09093
G1 X9.146 Y2.125 E0.14464
G1 X9.146 Y1.208 E0.07210
G1 X8.006 Y2.348 E0.12677
G1 X8.007 Y1.431 E0.07214
G1 X9.146 Y0.291 E0.12670
G1 X9.146 Y-0.626 E0.07210
G1 X8.007 Y0.513 E0.12664
G1 X8.007 Y0.305 E0.01639
G1 X7.893 Y-0.290 E0.04760
G1 X9.146 Y-1.543 E0.13930
G1 X9.146 Y-2.460 E0.07210
G1 X7.746 Y-1.059 E0.15570
G1 X7.598 Y-1.829 E0.06160
G1 X8.675 Y-2.905 E0.11969
G1 X8.569 Y-3.146 E0.02068
G1 X8.259 Y-3.054 E0.02541
G1 X7.936 Y-3.041 E0.02543
G1 X7.902 Y-2.625 E0.03283
G1 X7.511 Y-2.659 E0.03084
G1 X7.376 Y-2.524 E0.01499
G1 X7.258 Y-3.303 F15000.000
G1 F960
G1 X6.949 Y-3.330 E0.00190
G1 F960
G1 X6.769 Y-3.367 E0.00274
G1 E-3.50000 F1500.00000
G1 Z0.700 F15000.000
G1 X8.972 Y-3.589 F15000.000
G1 Z0.300 F15000.000
G1 E3.50000 F1500.00000
G1 F960
G1 X9.106 Y-3.648 E0.00089
G1 F960
G1 X9.397 Y-3.798 E0.00465
G1 X10.032 Y-4.830 F15000.000
G1 F960
G1 X9.424 Y-6.304 E0.05606
G1 X9.356 Y-6.328 F15000.000
G1 F960
G1 X10.032 Y-5.152 E0.00773
